/* XPM */
static const char *e[] = {
/* columns rows colors chars-per-pixel */
"64 64 188 2 ",
"   c #060400",
".  c #0B0600",
"X  c #0E0900",
"o  c #130B00",
"O  c #1A0F01",
"+  c #1D1100",
"@  c #523101",
"#  c #5D3601",
"$  c #573801",
"%  c #5D3C02",
"&  c #633C01",
"*  c #693F00",
"=  c #624203",
"-  c #6B4502",
";  c #734401",
":  c #7C4500",
">  c #744B02",
",  c #7C4D01",
"<  c #7D5202",
"1  c #7C5B04",
"2  c #7C5C16",
"3  c #814E00",
"4  c #845501",
"5  c #8A5501",
"6  c #855901",
"7  c #8C5B01",
"8  c #815609",
"9  c #935E01",
"0  c #985E00",
"q  c #8C5F11",
"w  c #8E6203",
"e  c #946302",
"r  c #9B6501",
"t  c #966903",
"y  c #9C6A02",
"u  c #93640D",
"i  c #986509",
"p  c #916809",
"a  c #9A6B0D",
"s  c #9E7104",
"d  c #8E6717",
"f  c #926411",
"g  c #9B6614",
"h  c #976812",
"j  c #9A6B14",
"k  c #946A1B",
"l  c #9A6D1B",
"z  c #9D7214",
"x  c #A16600",
"c  c #A36C01",
"v  c #A96E01",
"b  c #A57202",
"n  c #AB7401",
"m  c #AE7903",
"M  c #A57509",
"N  c #AD740A",
"B  c #AE7C09",
"V  c #B17600",
"C  c #B57601",
"Z  c #B27601",
"A  c #B27901",
"S  c #B17802",
"D  c #B27A02",
"F  c #B27A02",
"G  c #B47A01",
"H  c #B77B01",
"J  c #B57A03",
"K  c #B17D02",
"L  c #B77D01",
"P  c #B57E02",
"I  c #B07805",
"U  c #B07E07",
"Y  c #B47B02",
"T  c #B97F01",
"R  c #B87D01",
"E  c #BA7D01",
"W  c #B47C09",
"Q  c #89662D",
"!  c #946B20",
"~  c #947220",
"^  c #C07F00",
"/  c #B28003",
"(  c #B68103",
")  c #B58403",
"_  c #B18005",
"`  c #B58104",
"'  c #B78405",
"]  c #B68103",
"[  c #B98103",
"{  c #B98202",
"}  c #BF8301",
"|  c #BD8201",
" . c #BB8501",
".. c #BE8502",
"X. c #BC8302",
"o. c #BE8903",
"O. c #B8800B",
"+. c #BE8708",
"@. c #B98409",
"#. c #BF8D09",
"$. c #BE8B0B",
"%. c #B6871F",
"&. c #AD8027",
"*. c #AF822F",
"=. c #B18525",
"-. c #C08002",
";. c #C18501",
":. c #C18603",
">. c #C08705",
",. c #C28501",
"<. c #C38B03",
"1. c #C28902",
"2. c #C58B03",
"3. c #C58902",
"4. c #C38A04",
"5. c #C58A04",
"6. c #C18C06",
"7. c #C58C05",
"8. c #C48B02",
"9. c #C98D01",
"0. c #C18B0A",
"q. c #C98F09",
"w. c #CA8F08",
"e. c #C69104",
"r. c #CC9203",
"t. c #CF9904",
"y. c #C6930E",
"u. c #C79108",
"i. c #CD9309",
"p. c #CB9308",
"a. c #C3980D",
"s. c #CD9808",
"d. c #D19502",
"f. c #D39A03",
"g. c #DA9E03",
"h. c #D19A0F",
"j. c #D99D08",
"k. c #D3A006",
"l. c #DAA205",
"z. c #DFAA05",
"x. c #D4A00A",
"c. c #DDA309",
"v. c #E1A808",
"b. c #B6A278",
"n. c #CAB476",
"m. c #C3B8AC",
"M. c #CDC3A3",
"N. c #C8C0AE",
"B. c #D0C3AE",
"V. c #D8C8AE",
"C. c #CBC2B4",
"Z. c #CEC7B9",
"A. c #D3C7B5",
"S. c #D0CBB7",
"D. c #D1C5BB",
"F. c #D5CCBE",
"G. c #D2C6C0",
"H. c #D6CEC3",
"J. c #D9CFC4",
"K. c #D7D0C3",
"L. c #DCD3C6",
"P. c #DCD8C4",
"I. c #DDD5CA",
"U. c #DFD8CC",
"Y. c #DFD7D2",
"T. c #DDDAD2",
"R. c #E0D3C7",
"E. c #E1D9C7",
"W. c #E0D7CC",
"Q. c #E2DBCD",
"!. c #E9DECE",
"~. c #E4DDD2",
"^. c #E8DFD5",
"/. c #E7E0CF",
"(. c #EAE3CE",
"). c #E6E1D4",
"_. c #E9E3D5",
"`. c #EDE9D7",
"'. c #E7E1D9",
"]. c #EBE5DA",
"[. c #EEE9DD",
"{. c #F0E7D4",
"}. c #F1E9D6",
"|. c #F2ECDC",
" X c #EFEBE0",
".X c #F1EDE1",
"XX c #F3F1EB",
"oX c #FAF5EE",
/* pixels */
"& 1 7 6 7 4 > < w t 6 t y c K t n 7 6 b e 4 a.y b e e y r b n e t b n c c ) m 3 y m t B s 6 y 9 7 9 e b K e t y y 4 4 e y 6 t < ",
"= w w 7 e 7 t #.r y 9 t s e c m n y m y n n ` c c ,.r ' P n y { 7 c K n 7.r 7.n e c n r c m c / e b m n c c e b y t 7 e 7 e w < ",
"- 6 e 7 e e 4 t r e n c b m m c e c n ] c ..L ] C L 7.n L 1.n n } } n m y { m G c F b r L n r _ m c b { y I m y e t e 6 7 e ; 4 ",
"> t 5 9 4 +.4 w b 7 < n n v ,.n :.r F 8.c n n 5.G { 4.L v { G 8.n O.F 1.L n m t y n r C r T 8.L 5.c T b n r t c 9 e 4 < e 7 e e ",
"> e 9 4 e r y 4 b n n C F G 8.F F c v ,.n T n G } 9 n n  .9.G i.1.C c G w.K } c { C F F -...y.1.F F c C c K c n e 7 9 c 9 e 7 4 ",
"& 4 9 r v t c e 7 :.C C m { n x n F v r.F r.,.8.7 8.T 8.T ,.} 9.1.} } C 9.} C <.9.} 1.} f.T 9...9.9.o.n 9 n n y r c X.t y ; t y ",
"6 F 5 m 9  .c c F { e { e } v ..K L v C 8.1.f.w...1.] T L r.{ d.{ c r.C n 9.9.1.-.F 1.w.X.e.F f.} ..m m F c ` e { n ` e y e 7 y ",
"4 4 7 r 9 c n n ] L c c c n 8.<.L c b 9 r.<.9.X.o.s.9.G ..r.r.<.....L 4.G ,.n r.9.r.1.G e.7...T r F 1.n b K e c F c c n r 3 < y ",
"> 7 9 7 c x { b ..4 3.L 1.v C F L 4.n e 8.7.F 1.E r.G n 8.8...9.,.,.G L c ..n r.E C { 4.} G n } L F 7.] c ] v ; C n Z b T r 4 e ",
"< y e c r 7 T ..{ } G 7.,.} 9.n 1.E m s...8.1.1...9.g.,.d.g.9.9.7.} 9.d.n T r.9.r.r.8.r.9.3.n 8.} G c c ,.L e n n c c v b 5 7 r ",
"@ 7 t b c F r { ..n c F { L 5 m L } T n ,.r.l.{ 8.L r.} c.{ 8.8.[ 4.g.d.8.{ } 1.b ,.8.9.c  .r.1...o.r F { F n { n e C b e c e t ",
"< c F b ..P r b  . .{ { } 9.} r.8.{ r.{ ,.T r.T } ,.C 3.3.8.} 1.b 8.9.r.-.r.[ 8.,.r.r.{ 1.e...{ n 1.n L n T } F L 4 C t n L 4 t ",
"8 b c y ..T { b m m r.8.8.8.9...F f...F r.r.,.G 8.,.r.d.o.f.4.c 8.1.r.} H l.d.r...C 9.} f.n 9.L ..` b } L 8.c  ...7 L e n e t y ",
"4 c  .c c T n n c 4.C G T ..C 9.d.L T L f.3.8.G 3.3.3.1.v 9.} e.r.8.<.,.9.d.} f.r.9.,.r.r.r.,.1.n ^ 8.r.L F o.c n y r n n c 5 e ",
"5 e F e c n n c m H X.9.8...r r.L d.T ..C l.*.W.H.'.N.~.D.[.W.U.I.L.Q.L.A.).Q.~.Q.F.1.d.d.C T ..8.G r.} 8.1. ...v 7 C m m y r 4 ",
", r m n r c G m f.,...} o.E n d.` 9.,.T 8.f.h K.W.U.U.'.].[.~._.F.I.Q.|.L.~.L.C.F.U.,.d.9.8.E F 9.L 8.7.b C r.} n F n c n 4 w t ",
"4 c n n v T n { 3.C G T z.H E -.9.T r.8.H f.k _.U.W.~.'._. X~.).^.].[.W._.'.).].~.P.} r.C r.8.8.9.n f.9.C G G F 8.e.y n K n m b ",
"4 e n ] F y r ..} G r.} d.T d.9.9.r.r.8.r.t.=.~.'.I.'.].~.Q.]._.).~._.[.).Q.).L._.S.,.9.r.f.f.9.-.r.f.} r.r.r.T o.4.E b y 4 t b ",
"4 b I n G G 9.G ....G d.C 9.T 8.f.1.3.,.L r.k U.U.~.L.)..X).]._.].W.W.~.Q.Q.]._.W.L.} 9.T f.,.8.T F ,.} { o.c [ } ..7.]  .9 7 b ",
"b L c X.c 9.F c } 9.G L 9.} d.} r.C d.9.8.g.z ].'.^.L.W.).).].[.|.Q.E.Q.F.Q.~.).D.~.8.8.8.8.] m r.,.r.....} ,.G 7.L n v m 5 b r ",
", r 0.r T n c C C 8.L 9.G C v r.9.3.8.c H ,.g ~._.].~.~.Q.P 9.,.H ,.,.L r.r.G L 7.7.T 9.9.9.L ,...9.8.8.9.} T 8.E r.F c 9 n 7 7 ",
"4 b b v ,.C <.n r.f.,.T 9.} r.,.r.9.d.E Z r.5 '.).[.[.).Q.d.{ } } 9.G } ,.r.1.r.5.G d.9.d.v H 1.T 9.} d.3.4.} c e r c F P v t r ",
"< m 9 { ,.L n 9.r.f.y E 9.f.r.,.8.d.9.,.9.f.i ~.~.].|.~.U.P 9.9.3.n H 1.d.E K 3.9.C } r.:.< 3.8...9.3.G n G } } v b n C L n m , ",
"7 F n r y Z 9...C 1.n ,.f.r.8.,.,.3.,.} 8.9.u ^.).Q.W._.~.:.9.d.n 3.,.n v -.9.f.9.,.,.r.3.9.9 1.H r.8.9.T ,.r.8.n r.n G n r e y ",
"p y n y b c <.n n ] F ,.T } } r.g.1.9.9.d.d.h U.~._.K.I.U.[ 9.d.9...G T d.f.8.d.9.T 9.E 7.7.d.P 8.9.r.r.8.G m ..,.] n L C e e b ",
"> b m c v n T n x.f.] o.9.r.r.f.8.d.g.0 8.r.a F.^.~.).'.Q.c : 5 * e 5 9 y x I v 8.8.t.8.9.9.8.r.r.r.C ,.r...F ..v } 9 F e n m 5 ",
"t n m c n T L w.F n { { 9...r.d.t.c ..9.9.1.z ].~.].~.[.].).H.~.).U.Q.!.].K.].^.1.} f.r.s.r.9.8.{ n n 9.r.1.,.r G T F c F m n r ",
"< c ..c T y n G n n } } c 9.} v.F T ,.1.n ..%._.'.^.W.).~.^.W._.W.^.].|.~.]._.).,.9.n r...r.9.r.3.3.L 9.n n m { C E r.9.C c r b ",
"< b b F n n { b 1.m { } n c l.{ } 9.1.L } r.t ].U.U.)..XW.W.~.~.U.).~.~.~.L.Q.T.} ,.G ,.o.> -.9.r.G L r...,.c } L n { b c K b 4 ",
"e b m n x n 9.{ o.1.r.-.1.{ T { r.f.,.T r.-.h ^.U.L.~._.~.Q.Q.~.L.).[.'.[.F.~.L.8.-.-.r.9.m E { 1.f.1.H L f.F T n n K c n e n 5 ",
"; n y c L r y } c { r...T r.L f.8.d.} d.} 9.j Q.].~.L.).Q.[.[.K./.L.Z.K.].).L.~.d.8.G r...1.,.8.j.{ } E 8.m F G C L c C n e c e ",
"4 c y n T n c n } n M ,.F -.H ..1.r.G ,.,.H f J.].K.~.U.L.@.r W c n c 0.o.} { 7.g.r.,.o.} 9.C T ,.9.C ,.r.8.m m G r n n b v m e ",
"e ` y n n 9.e  ...7.L ,.r.G C L 9.r.{ d.,.d.u Q.U.^..X_.(.F r.9.r.r.8.r.o.r.l.G 4.T H r...f.8.} ,.{ 3.} F L } L 3.C n y { C e r ",
"6 m e m n L  .,.r...9.,.9.9.T 8.} E ,.{ 1.,.u ~.~.F.H.'.].,.r.9.E 3.4.f.{ e.9.{ 7.c ,.H r.9...r.,.9.{ c { } 1.C c F n F n P r 7 ",
"> n X.r F } L ,.} ..G m 1.[ ,.G r.e.r.r.9.} f ~.U.~._.~.L.u.d.9.d.d.,.,.T } 8.9.C G f.3.9.8.f.{ 9.G ,.} ,.{ c T } n c ] F n 9 e ",
"< c y v c 5.F n L G F ,.r.{ { r.r.T } d.8.H d U.).Q.~._.).F r.r.9.f.r.c.....} 9.<.1.9.r.n r.,.l.r.n 9.,.e...,.F C c n m c e / y ",
"4 y F L x r 9.r ..C 8.n ,.r.} n 9.r.E 9.d.9.8 m.Z.U.~.K.Q.u.r.8.8.9.,...9.r.L 9.9.9.} t.r.<.G ,.F 9.1.v ] F ..,.L y n y c y y y ",
"< > b y Z L  .8.C G { X.r.1.9 1...f.} ,.L f.q K.K.[.~.].U.+.{ o.L ,.T m T n T e.k...n ` { b L { r.1.} 7.T G v Z o.C 1.M m n 5 6 ",
", y b x L { n ,...c F 1.-.3.E f.9.8.f.H 8.9.u ].).W.F.C.Y.).U.Q.~.].I.H.W.U.L.E.).L.9.,.8.b r.b Z { ,.7.T E H } ..7 L K n c c t ",
"t b ` n v 9...G r.9.e r.7.G ,.8.F T 9.d.} f.f G.].|.H.~.U._.U.).~.K.G.L.L.'.U.~.Q.F.9.r.} r.o.T T 8.} 9.,.1.F c n F 0 y y 9 e e ",
"> c b n c 9 c d.h.e { K L F 8.e.1.n 9.o.d.1.l ].).C.F.^.~.].W.'.Q.Q.F.'.~._.F.S.Q.F.1.r.o.1.1.C ] E 8.{ F G L 9.C 9.e n e y c e ",
"7 c n n c { 6 o.-.L F c v c { 9.n s.L ,.} r.j ].L.W.C. X_.U.~.~.F.W.Q.K.Q.U.Z.].Q.Q.9...8.G 8.<.} r.L K n c G c T 8.n 4.K y t y ",
"> K b c K G o.e ` T { L 9.{ 8.[ r.P } G ,.e.z U.~.H.Q.]._.H.).U.).Q._.~.Q.).Q.Q.K.W.c 1.1.7.T ,.} T r.F ..e m x L K c c m e 9 7 ",
"* > n W L m n c K e -.c C 1.r 9.} 9...n C  .~ (._.{.`.`.|.|.|.{..X|.).}.!.`.(.Q.}.!.1.e.c k.9.v 8.F L F n f...L c n c n n y c e ",
"> y c c c T y F { n y K C } r.T ..3.T n ,.r.} -.,.v E C Z ,.9.G 1.T 8.T 8.,.d.C C H d.{ <.{ } 1.,.{ L y F { c c } n c r c 9 7 9 ",
"> e 5 9 T n c r c n } F ,.Z G c 9.,.G ] b K ..F } 1.r T H E ..9.F F 8.L f.} 7.C G c T { ,.9.9.8.t.} { G { { n n 9 ] e n c 4 7 4 ",
"; 7 M 4 9 b G c c n b n C { ,.8.r.L v m v T L L T G C n P F n c 8.G 9.T C n F P 3.c I 4...9.[ r.3.n H K n 9.{ ] r ] c r r c 4 7 ",
"5 , n 4 n y m n ] P c n o.E E G r.} G o.I o.F C { n ....1.r.[ n 1.8.} 8.F c 1.n n F n { ,.r...} ..F ..e.K m L T L r m c r t 5 e ",
"4 t e w 7 n c c c v I { F F n y K n { L ..L } H L C 3.w...{ ,.} ,.C 9.9.9.8.7.e.,.T G { r.n n n c n F o.G F L n K r b n c b 7 7 ",
"w r t e c r r 5 } n G L T n m b b b ,.c G 1.p.].Q.L.i } r.L.oX} C V._.L.r.c B.~.R...} G 9.1...1.{ <.n n n ..c ] b b T n 9 y b t ",
"; t n r 4 n m F c n m n F n 9 9.G C P ..m ,.1._.M.X.e n N XX~...Z ].W n.,.e.a Q.} } 1.1.C e G { n ..L C y m c m m _ M c y c 9 e ",
"< 7 I , 9 5 c ..C r c { L n L n c v n e.{ b s..XU.H.7.,.!.! U._ } XX_.oXF L B Q.n v { r.1.` } c T 3 o.n K c r n n n e 7 y t t t ",
"- y e y 0 c m c y C y c [ { v 7.c } n ....9.c [.M.n 9 n ).K.~.Q C M n .Xb.T N !.F T E G ,.v r { c { { c { y r n E b t y r b 7 5 ",
"; e 7 4 e , n c n e e K n n y H { n G r F ..c [.Y.W.2 Z Q. .7 J.{ ~.).K.i.,.W Q.y G n ..1.L F { r.c M m x n n c F c m 7 7 4 7 , ",
"< e 4 t y s c ] C y b n b F { r L n C c G { }  .5 c n ] ' n F M y X.W r e 1.L m K -.y K G n c n v G o.b y G r y c y e e < e 4 4 ",
"# e 7 7 9 e 7 e n y c F r y e c n C n c C c  .n c r e n ] K n c c n r c b y n P 1.n n c c K b 9 b T n ] r c 9 b e 4 n 7 t b > 4 ",
"< e 9 t y e 7 e r e r b r n c n v n M c e n L r x n F ] n c n v F n ..{ y c n c n ] K c c c { c e n r c m r r n y 9 4 7 e < e 7 ",
"6 7 e 7 7 6 t 7 e 7 9 P n b y b ] T e L n y r n K n r n C  .L T c C F F r F c n m F 7 n n m c e { 5 r r n c e F c r r e e 4 7 < ",
"> w 7 6 > e n 4 , r n P 7 e b c P x n e 7 r r { n 7 < n c b P 9 F n n n c n n F b n T F n n n e c c } c y I r e n r m 7 y e 7 6 ",
"< e 9 e 6 r 7 4 y < r c e e c n F n y 0 r 9 { r c b y T c c n n y c c b n F c c n o.c r n b m o.n n b t r e y 7 e b 7 t 7 6 e 6 ",
"$ < < 4 7 4 w 7 e 4 9 - 7 K t e F c c 7 } ` 0  .e 7 c b K c c F n c e e  .r b n v 7 r C G m F L C e n b 9 r 7 , t 7 4 7 m 7 , 7 ",
"= 6 , 4 6 7 7 4 e 9 7 4 b 7 y e 7 e 7 e y y b c c 9 c y t e m n 9 c r e x n n r c y 9 B r 9 9 r 5 r b e 4 e 7 > e 4 w w 6 6 < - ",
"% 7 < 7 7 4 , y , 5 5 7 9 r 7 t b 5 9 n 5 e 4 e 9 5 r t t 7 r 7 r r n r 9 e y y 7 y y e y r y 7 9 e 7 t 9 e e < 7 , 4 > 7 6 > 7 ",
". .   . X X . o X . . . X X O O X O o o . . . . X X . o . . X o o O O o X X o . o o X o o . X X X . X + X . .   . . o . o .   . "
};
