/* XPM */
static const char *east2[] = {
/* columns rows colors chars-per-pixel */
"64 64 241 2 ",
"   c #020102",
".  c #0B0403",
"X  c #0D0A05",
"o  c #0D0D09",
"O  c #040608",
"+  c #130503",
"@  c #1C0503",
"#  c #130A06",
"$  c #1B0B06",
"%  c #140D09",
"&  c #1B0E09",
"*  c #0C1208",
"=  c #161405",
"-  c #1A1405",
";  c #14130A",
":  c #1C110B",
">  c #1C1B0A",
",  c #171A09",
"<  c #090C11",
"1  c #0D1111",
"2  c #181813",
"3  c #230504",
"4  c #2A0504",
"5  c #230A06",
"6  c #220E09",
"7  c #2C0C07",
"8  c #330404",
"9  c #330906",
"0  c #3C0A05",
"q  c #350C09",
"w  c #3B0E09",
"e  c #3B0604",
"r  c #23130B",
"t  c #2B150C",
"y  c #241B0C",
"u  c #2C1A0E",
"i  c #241906",
"p  c #31170C",
"a  c #331A0E",
"s  c #3A1D0E",
"d  c #3E110E",
"f  c #241B12",
"g  c #2C1B12",
"h  c #251912",
"j  c #341C12",
"k  c #3A1E12",
"l  c #3B1D19",
"z  c #1C220C",
"x  c #1B2518",
"c  c #25290A",
"v  c #28260A",
"b  c #35260E",
"n  c #2A340C",
"m  c #38370D",
"M  c #2C2115",
"N  c #2B2219",
"B  c #262816",
"V  c #322315",
"C  c #3D2214",
"Z  c #32251B",
"A  c #3D2419",
"S  c #342A1C",
"D  c #3C2B1C",
"F  c #362A13",
"G  c #393817",
"H  c #2C3618",
"J  c #0E1F28",
"K  c #152427",
"L  c #1A323B",
"P  c #132A32",
"I  c #272C24",
"U  c #392C22",
"Y  c #372D21",
"T  c #3E3224",
"R  c #353629",
"E  c #2B352D",
"W  c #420C06",
"Q  c #470905",
"!  c #560D07",
"~  c #4C110B",
"^  c #45150C",
"/  c #551209",
"(  c #5D1209",
")  c #5E1B0E",
"_  c #451E12",
"`  c #640F07",
"'  c #64140B",
"]  c #6B140A",
"[  c #69170B",
"{  c #74180D",
"}  c #7A1E10",
"|  c #720A04",
" . c #432414",
".. c #4B2916",
"X. c #432618",
"o. c #442A1A",
"O. c #4C2C1B",
"+. c #492717",
"@. c #522D1A",
"#. c #532D17",
"$. c #46341C",
"%. c #54311D",
"&. c #5B331D",
"*. c #58371A",
"=. c #40210F",
"-. c #7A2517",
";. c #69351C",
":. c #462F22",
">. c #433425",
",. c #4B3323",
"<. c #443629",
"1. c #46392B",
"2. c #4C3B2C",
"3. c #493827",
"4. c #543421",
"5. c #553A26",
"6. c #533D2C",
"7. c #5B3B26",
"8. c #4B3C31",
"9. c #513F31",
"0. c #633C24",
"q. c #6B3E24",
"w. c #3C4714",
"e. c #3F4127",
"r. c #464816",
"t. c #4B5419",
"y. c #54571A",
"u. c #5D661C",
"i. c #69691B",
"p. c #49462A",
"a. c #54422D",
"s. c #5B412D",
"d. c #584827",
"f. c #494235",
"g. c #544332",
"h. c #5D4532",
"j. c #5D4B37",
"k. c #5B502F",
"l. c #66452C",
"z. c #714226",
"x. c #624631",
"c. c #654A34",
"v. c #6B4D34",
"b. c #684D39",
"n. c #734C31",
"m. c #6C5339",
"M. c #73553A",
"N. c #7D5B3D",
"B. c #75573A",
"V. c #5D6723",
"C. c #616A25",
"Z. c #7A6136",
"A. c #726F3B",
"S. c #1F3C46",
"D. c #213D47",
"F. c #1D414C",
"G. c #305050",
"H. c #375E66",
"J. c #2D5C61",
"K. c #3A646C",
"L. c #3A7278",
"P. c #45534D",
"I. c #7D5D42",
"U. c #745941",
"Y. c #6F5741",
"T. c #716C4B",
"R. c #4E6F68",
"E. c #5B7064",
"W. c #881D0F",
"Q. c #83200F",
"!. c #892313",
"~. c #972C18",
"^. c #A42F17",
"/. c #A03C26",
"(. c #BA4722",
"). c #84613E",
"_. c #C6481D",
"`. c #805E43",
"'. c #836344",
"]. c #8B6B4C",
"[. c #876648",
"{. c #926E4D",
"}. c #906944",
"|. c #95744C",
" X c #947353",
".X c #9B7954",
"XX c #9C7C5A",
"oX c #987756",
"OX c #8E6E50",
"+X c #A17E5B",
"@X c #9D7E60",
"#X c #8F7963",
"$X c #718971",
"%X c #9D805D",
"&X c #A4825D",
"*X c #A9845E",
"=X c #A68857",
"-X c #978664",
";X c #A58362",
":X c #A98663",
">X c #AC8A65",
",X c #AE8D6A",
"<X c #B18C66",
"1X c #B18E6A",
"2X c #AF906C",
"3X c #AF9066",
"4X c #B3926D",
"5X c #B7956C",
"6X c #B59571",
"7X c #B99673",
"8X c #B69874",
"9X c #BB9A75",
"0X c #BC9D7A",
"qX c #B69878",
"wX c #AC9170",
"eX c #BDA27A",
"rX c #C19D79",
"tX c #C3A47A",
"yX c #3C7780",
"uX c #59878D",
"iX c #73948F",
"pX c #75A6A6",
"aX c #7BB1AD",
"sX c #74A29B",
"dX c #849386",
"fX c #8AA999",
"gX c #9AB8A6",
"hX c #8CB0AA",
"jX c #A3BAA7",
"kX c #A6ACAD",
"lX c #A8A591",
"zX c #CCAF8A",
"xX c #91C1B9",
"cX c #A9C6B5",
"vX c #B4C9B9",
"bX c #AEC4AA",
"nX c #AFC79F",
"mX c #ACD4C6",
"MX c #9BD1C8",
"NX c #C5E2D6",
"BX c #E3ECD2",
/* pixels */
"                                                                                                                      O         ",
"u j A r t O.l.A o.O.C v.k O.@.O.O.O.O.+. .o.O.j  .u  .4.O.O.o.,.,.X.0...O.O.O.4.4.4.4.X.X.+.X.O.O.O.o. .4.O.O.O. .C  .n.C C C   ",
"r g j g j u C r g r t u j j j C j g g A j j C & V j g g g g j g g g r u j l j u & g u j j r g u j C C C j u C r t r : r r r g   ",
": : : # . # & % $ & % # & $ r r & & % $ & & & r r r & & $ $ & % % $ $ + A 6 & & : & & & $ & & & & & r r & % # # # . + + # $ &   ",
"$ 5 5   $ $ @ +   + . @ @ $ $ #   $ 5 5 + . 4 3 $ + 7 q @   + @ @ . . 5 @ 5 5 + 5 $ @   + @ 5 + 3 3 3 5 7 7 +   $ $ 6   . 6 &   ",
"0 ~ 4   4 w W q @ 0 @ W ~ W e 7 @ 9 w W 9 . Q ~ ^ q 9 ~ 7 . 7 q 5 3 @ 0 9 d 0 q w 9 w . 8 0 W @ ~ ~ ~ W ~ ~ w . q 9 9 9 5 0 ^   ",
"! ' W w ! ] { ~ [ ( -.' ` ' ( ( ~ ! ' ( [ @ { [ W / ! ~ ! . ( ! / / 9 ] ` ] ` 5 ( ! ! / / ] { + ] ! ( @ ' ' ] W { ' [ ! + ( [   ",
"!.! + } W.~.^.w _.~./ Q.{ Q.!.9 !.-.!.!.(.^.^.(._ W.{ ' Q.$ !.] { !.-.| Q.{ } ) Q.{ ~.(.9 ^.^.-.{ Q.Q.^ ~.^.^.(.' !.} ~./.e Q.  ",
"8 4 . q Q Q W + + @ @ Q e e e   . W Q W Q @ e 9   4 9 9 4   4 Q Q / + 4 9 8 8 . W 8 e e . Q 8     3 @   e 0 e W 7 ! ! ! q . 3   ",
". $ $     .   # $ . + . # . + t @ + # $ $ & .   & . + + . 7 + 7 + $ 7 6     . t   + $ t t . .   + # . @ . + $ 6 6 t $ . # s +   ",
"      .                     . . .                       . . . . .                     . .                     .             .   ",
"6.h.s.O.$ $ r . g x.7.x.c.b.b.b.b.b.b.h.h.h.3.h.t U h.s.x.c.c.v.h.s.7.s.s.x.b.v.m.b.c.7.D 5.x.x.x.x.c.c.v.v.o.h # # & X 6.v.c.  ",
"wX:X%XI.h r r   b.m.b.1X6X6X6X6X6X,X1X,X1X X;X:X,X,XXX4X;X:X>X,X,X>X:X:X;X7.].>X:X,X X;X[..X+X,X4X6X4X:X+XXXM.,.r r & X M.I.,X  ",
"0X5X6X'.r r u . m.>X+X6X6X9X6X7X7X0X,X4X6X,X6X,X1X6X1X5X1X<X1X,X,X>X:X>X6XqX,X1X4X,X].1XXX;X[.4X4X4X4X4X].4X].7.p r r X I.4X4X  ",
"qX,X,XXXr g  .. ;X6X4X4X6X6X4X6X8X6XXX1X4X4X2X2X4X,X;X;X@X          g I.,X;X6X,X4X,X>X1X4X4X,X4X4X1X4X:X9X,X7X6.t r t % 0X6X,X  ",
"qX,X,X+Xr a  .X XX6X6X6X6X6X6X6X4X+X>X6XqX,X,X6X@XI.b.4.4.&...+.+.%.%.@.C g ].,X,X,X1X1X,X,X6X4X4X4X5X2X6X6X7Xc.t r j % 9X4X,X  ",
"9X1X6XoXj s s . XX4X4X6X6X6X6X4X.X,X,X4X4X4X3X|.# 0. .+.C a s j p k k  .C %.V g &X,X1X4X4X>X1X4X6X4X4X4X,X4X0Xc. .t g # 6X,X,X  ",
"0X4X6XXXt p t   XX4X4X,X4X4X5X4X9X4X4X4X4X,X3.A k k +. .a r % o o % : k  .C j  .h O.9X,X1X>X4XXX4X6X4X4X1X,X6Xh. .t g % 6X,X,X  ",
"0X6XB. Xt u r   XX4X6X6X1X4X4X4X6X6X4X5X4Xg 7.=.a X.# .   O o 1 1 1 O   X & 7. . .g }.1X,X4X6X6X6X4X4X4X4X1XeXg.A # j : 9X,X.X  ",
"6X&X.X .t k t   x.I.6XZ.&X6X5X4X4X4X6X4Xx.5. .+.#     # J L L L P K J P 2 1 % C s A t .X>X4X6X4X6X4X,X4XXX].9X3.A u t o m.:X'.  ",
"%XoX,Xn.r  .C . l.tXrXZ.=X6X4X6X6X4X6X&Xj  .j t   o K : P F.D.F.D.D.L L K J 1 O  .t 7 : >X4X7X6X6X6X4XI.>X'.zXv. .t 7.X 4X6X4X  ",
",X,X>X<Xa  . .# zX5X5X%X5X1X1X4X4X6X5X#  .C & . o R.R.h J.K.H.K.K.G.S.S.P F.K 2 O t C %.+ 4X6X:X4X4XN.>X4X>X].5. .s &.% 9X6X,X  ",
"6X>X,X1Xp +...X |.5X6X4X,X>XXX].1X1Xs.4.+.u # . r B N l L.K.K.H.H.K.K.R.* * * K K o +.+.j [.4X1X,X4X<X<X>X:X6X7...k &.: 0X6X4X  ",
"6X,X,X4Xp s s . XX5X4X4X X4X,X4X<X,XD C k $ ; # O 2 o C yXuXpXpXuXK.H.; C.t.t.; < < 6 a X.t >X,X,X1X1X6X X>XqXv.@.k @.% 9X1XB.  ",
",X,X].>Xt C C   *X3X1X4X1X4X5X4X4Xs.,.j j O K.. E pXuXZ mXxXxXaXiXH t.y.t.V.u.w.z , o ..s   OX,X4X4X6X+X,X4X0Xv...u &.& 9X'.;X  ",
"8X0X6X1Xp a k   *X5X4X1X1X4X4X4X4X. %.s . P.iX  I MXsXV MXhXxXhXH.r.w.G w.C.t.V.m v X O.a A s.>X4X4X6XzX9X6X0Xc.%.u q.% 7X1X,X  ",
"0X7XoX>Xt t  .  U.4X5X8X6X4X5X4X4X+ s ... % h r 6 o.@.k MXxXmXR.$X, , * H w.r.w.v v =   a X.r 4X4X1X4X0X6X,X0Xc.z.k 4.% 1X1X1X  ",
"4X4X2X+Xu 6 +.. 6X5X4X4X4X5X5X6X[.A a C O R.$X  1 R.R.l mXE x V.V.r.T.P.o B > c c G =    .j u 5X6X4X4X4X1X>X6Xs.q.p C # XX1X4X  ",
"zX4X,X&Xp p O.# 1X5X>X4X4X4X6X6XI.5.p r K gXjX; E cXmXo.jXC.V.V.t.C.c $XhXo z , , > z . #. .C *X9X4X4X5X4X4X6X7.z.u C % rX6X,X  ",
"5X,X>X+Xj k O.# :X5X9X5X4X5X4X4XU.4.a t 2 jXvX1 E cXbXC G w.y.B c v n c z E.2 o . iX; . ..k j .X9X5X5X:X,X>X4X5.l.r  .: 9X9X].  ",
"zX>X4X+XX.C +.. >X9X9X X4X5X4X4Xm.4.t C ; A lX- E bXnXj * x n ; % > = R BX2   iXI x sX   .p u .X6X9X5X'.5XXXN.5.z.C O.: 9X7X9X  ",
"6X,X,X+X ...t . {.5X5X&X3X4X1X4XB.X.j g ; T.T.y f gXbXC mXI o o fXNXo kXI # $XpXpXsXsX  ..a g .X6X6X6X5X4X.X{.X.&.p +.: rX4X,X  ",
"6X,X,X*Xk  .s   >X>X4X4X4X4X4X6XI.A k C o p.A.X g d.k._ mXcXfXG.gXdX# 6 dX# gXx B * fXO %.k r {.5X4X4X4X X4X6Xx. .C ..: rX>X,X  ",
"9X1X>X>XC X. .  >X4X4X4X4X4X4X4X'.o.k &.X p a u u y X & NXcXcXcXcXcXdX: X.: . H t.w., % ..j : oX5X4X4X4X&X6X9X5.&.p z.% :XXXXX  ",
"0X).,X>Xk  . .  +X4X4X4X1X4X5X5X>X% k @.; A.A.  . bX-X%.B vXvXcXcXvX  C t F G r.n c ; . k j f 5X4X4X1X*X0X6X9Xv.0.u z.# {.4X,X  ",
"0XoX6X>Xj t +.. :X9X1X4X6X4X5X4X4X.  .C   p.T.  . p.B 7.w.T.vXjXu O.A r x bX* z , o X X.p g Z 8X4X4X4X1X4X4X6Xv.#.j %.% 1X1X,X  ",
"0X1X1X+Xk a s   +X>X1X9X6X4X5X4X4X#Xj j @.# - . + y b O.n n dXE.C C r   jXgXI I I iXO _ t   N.2X4X1X4X>X>X:X4Xc. .j ;.& 4X1X4X  ",
"0X,X,X:Xk C p   &X5X5X5X4X5X4X>X6X:X. u p   X . . X . C * z iX: V u   fXgXgXgXfXdXE.j s t o.4X,X4X2X4X4X X:X4Xb.%.u &.# 7X;X,X  ",
"0X>X>XXXp k j   ].].5X4X1X4X5X>X5X2Xo.u s %.v $ M p.e.j gXf.fXu $ r r R.gXgXgXfXR   C p # XX5X:XN.1X4X5X>X4X9Xv.0.a 0.# 7X1X,X  ",
"[.'.>XoXj k C . N.9X9X|.|.*X>X'.5X4X;X. C j p . % c , t B o % : . . . . B Y E.P.. %.p r 3.<X1X>X,X1X,X'.4X4X6Xv.q. .k % 7X:X:X  ",
"6X+X,X;X . .C + }.<X1X5XeX).}.{.4X4X1X@X. V j ..  = , b F $.D D Z a C C u r $ 6 s a t h &X*X:X>X:X>X:X&X:X:X:Xv.O.k A # 4X:X>X  ",
"6X,XXXN.C k p   {.*X<X>XtXN.6X5X4X4X4X8X5.r g g ..    a . # . . . . r u . X 6 _  .p # `.&X:X:X>X&X5X:X:X;X:X6Xc.s j j X :X:X;X  ",
"6XN.:XM.g p t   {.<X4X5X4X,X5X4XzX4X5X4X>Xg.% g p t &.$     : : r : . . @.n.u p u X ).,X:X>X>X>X1X6X:X:X:X>X,Xs.C p C # [.6X:X  ",
"wX;X;XM.g k  .. +X1X1X1X1X1XoX>X>X+X4X1X>X*Xh.  r C  .p k k %.O.O.O.&. .u u t % y M.>X,X,X>X4X>X>X>X>XoX:X:X,Xs.O.a  .# 7X1X,X  ",
"6X;X;XI.C +. .# XX1X<X1X4X1X4X4X<XrX4X>X1X>X>XB.: & j C  .j g t k g j s t j   a.v.&X>X,X,X,X4X{.4X,X4XM.:X:X,Xs.%.p o.X 7X>X:X  ",
"1X:X:X`.C  .+.# XX1X].<X<X,X>X>X4X<X<X<X0X7X4X4X'.v.s.    r g t r r &     M.I.:X&X1X:X4X:X4X,X>X>X7X4X>X:X+X:X,.&.s C X ].;X>X  ",
",X,X&XM.j t k . B.|.&X1X>X>X,X>X1X>X1X,X6X+X4X6X,X:X5.h.6.. $ $ # #   5.M.N.,X,X1X>XoX{.`.5X4X&X&X].1X,X5X,XI.,.+.p l #  X;X>X  ",
"XX&X%Xs.g t j   c.6XM.:X[.1X7X*XoX4X4X1X1X1X>X:X>XoX:X>XoX>X4X6X6X4X:X:X:X,X6X;X4X1X>X1X,X4X,X>X X>X&X>X>XoX>X:.k u j . U.M.@X  ",
"m.c.m.A : a u   $.B.l.M.M.1XXX].:X;X:X;X;X{. XXX XM.].:X'.&X X XoX;XI.XXXXB.'.].,X;X{.{.M.oX+XXX[.>X].oXm.B.5.A C j j . U.B.v.  ",
"h & % . # & # # y y r : : h h M Z g h r h g h h y g h Z Z V g r r y y g Z # h g g g g h ; ; : Z g V V g g h r + & & $ . g g h   ",
" . .+.# ..q.@.#.#.:  .k k C X.k  .%.+.C +.C  . .+. .+. .C  .C C k s C  ...@.O. .A s +.C  .k k  .C ....C C j %  .+.@.%.&.+. . .  ",
"j C k s p 0.C  .k t a p p l C C A A j C C C j k k C & C j j t p j j t +.j j C k k C r p  . . .p k k k k C C r  . ._ k u k C j   ",
"j p +.p r j j j $ k k k k 6 C k j A p a  .k  .C k k C C k j l r  . . .4.k C j k  .a j p p C z.g $ j u j u  .j r j j u r u u X.  ",
"                    . . . O             X X         . . X . . . .                 . .     . . . .         . . .                 ",
"% g y : g . h M g X y > Z . Z M g f g g . . y y > y g . N 2 Z M Z M r f f   f Z f S Z . . : : g O N Z f f f : f f : 2 2 f   g   ",
"Z 2.>.<.j.Z 1.j.8.N . d.$.6.a.g.2.9.D h.T . F v 2.2.h % Z.2.<.>.>.2.<.6.2.S <.,.6.2.3.X a.6.S 3.3.Z T x.>.  2 >.>.T g.N >.U <.  ",
"8.<.<.T 1.1.1.<.g.U . D >.g.a.2.1.1.1.3.a.; > a.>.g.$.y 2.T U >.1.2.2.2.g.3.D g.a.2.S Z a.T <.>.2.a.c.6.g.o a.>.>.>.S 3.2.S U   ",
"8.1.1.S 1.1.<.2.T g.o g.S >.2.>.1.<.>.1.j.X c.3.f : = ; <.U 6.Y.2.g.g.1.b.3.: <.M h % U 1.1.1.c.$.2 f <.<.o >.1.>.1.d.>.3.<.9.  ",
"N f.f.1.T g.T T T.U o M f >.T >.>.>.2.>.2.# V >.U <.G % Z 3.g.T S >.U 1.2.T S g.D D a.y 3.2.>.D $.a.D >.g O h T S M y.G <.h S   ",
"h M f G g Z Z Z S h o F > M N T T Z 1.>.S # n b.N U = X g M >.N N G g g.Y r f 2.>.V F y M h.h S Z Y % g > X r Z F G = ; ; f N   ",
"O o B i.. r.  O         . . .                 X . . v         . .                       % .         . . r.X , u.m v y.y.o ; ;   ",
"m $.$.n r.t.G r.> b O.4.7.%.$ C O.O.,.0.,.7.q.t n.&.%.&.s %.4.4.%.&.y #.0.p 7.n.s 7.r +.4.A *.*.F g y m i.m v r.m y.m v w.m r.  ",
"% - % > > m v > m i - i : : r r t $ & : # % & r r $ $ $ $ $ & r r $ # : & & & & $ $ $ & r & u - y y v - > i v > ; i = = v - %   ",
"                                                                                                                                "
};
