/* XPM */
static const char *wall6[] = {
/* columns rows colors chars-per-pixel */
"64 64 178 2 ",
"   c #020201",
".  c #080704",
"X  c #0B0A06",
"o  c #0D0D09",
"O  c #110E07",
"+  c #100F0A",
"@  c #131107",
"#  c #14120C",
"$  c #19160C",
"%  c #1C1A0E",
"&  c #161510",
"*  c #181711",
"=  c #1C1B13",
"-  c #1F1E18",
";  c #211D0E",
":  c #201E13",
">  c #201F18",
",  c #28230F",
"<  c #242215",
"1  c #292615",
"2  c #2C2915",
"3  c #25241A",
"4  c #29271B",
"5  c #2D2A1C",
"6  c #322D17",
"7  c #312D1B",
"8  c #35311C",
"9  c #3A351D",
"0  c #3E3A1E",
"q  c #2D2B21",
"w  c #312F22",
"e  c #353224",
"r  c #393624",
"t  c #3D3924",
"y  c #373529",
"u  c #39372A",
"i  c #3D3A2B",
"p  c #3F3D30",
"a  c #40381D",
"s  c #423D25",
"d  c #413E2B",
"f  c #413F31",
"g  c #454026",
"h  c #4C4424",
"j  c #45412D",
"k  c #4A452C",
"l  c #4F492C",
"z  c #514B2B",
"x  c #5A532B",
"c  c #454232",
"v  c #494633",
"b  c #4D4935",
"n  c #484639",
"m  c #4D4B3B",
"M  c #524E33",
"N  c #514E3B",
"B  c #565135",
"V  c #5B5533",
"C  c #55523D",
"Z  c #59553C",
"A  c #5E593D",
"S  c #625B36",
"D  c #635C3C",
"F  c #66613B",
"G  c #6A643B",
"H  c #716A3C",
"J  c #555241",
"K  c #595543",
"L  c #5E5A43",
"P  c #5E5B48",
"I  c #625D44",
"U  c #615E4A",
"Y  c #656145",
"T  c #6A6545",
"R  c #6E6942",
"E  c #66624B",
"W  c #6A664B",
"Q  c #6C694D",
"!  c #706745",
"~  c #736D46",
"^  c #736D4C",
"/  c #777044",
"(  c #787247",
")  c #76704B",
"_  c #79724D",
"`  c #666350",
"'  c #6A6751",
"]  c #6D6A53",
"[  c #726E54",
"{  c #716E59",
"}  c #757154",
"|  c #7A7454",
" . c #7F7956",
".. c #76725A",
"X. c #7A755C",
"o. c #7D795B",
"O. c #797660",
"+. c #7F7B61",
"@. c #837C4D",
"#. c #817A56",
"$. c #827D5C",
"%. c #827D63",
"&. c #84805E",
"*. c #8B845F",
"=. c #858164",
"-. c #8A8564",
";. c #8E8965",
":. c #868269",
">. c #8A866B",
",. c #8D896D",
"<. c #918C65",
"1. c #928D6C",
"2. c #96916C",
"3. c #9A956F",
"4. c #8E8A71",
"5. c #928E73",
"6. c #959174",
"7. c #999574",
"8. c #9E9975",
"9. c #979379",
"0. c #9A967B",
"q. c #9D9A7D",
"w. c #A19C75",
"e. c #A19D7C",
"r. c #A6A17E",
"t. c #A8A37F",
"y. c #9F9B80",
"u. c #A29E81",
"i. c #A5A283",
"p. c #A9A584",
"a. c #ADA985",
"s. c #AAA68A",
"d. c #AEAA8B",
"f. c #B0AA87",
"g. c #B1AD8C",
"h. c #B5B18E",
"j. c #B8B28F",
"k. c #B2AE91",
"l. c #B6B293",
"z. c #BAB594",
"x. c #BEB996",
"c. c #B7B49A",
"v. c #BAB699",
"b. c #BEBA9B",
"n. c #C1BD9C",
"m. c #C2BEA0",
"M. c #C5C19E",
"N. c #C6C2A3",
"B. c #C9C5A5",
"V. c #CDC8A5",
"C. c #CBC6A9",
"Z. c #CDC9AA",
"A. c #D0CBA5",
"S. c #D1CDAC",
"D. c #D5D0AE",
"F. c #CECBB1",
"G. c #CFCCB8",
"H. c #D3CEB1",
"J. c #D5D1B2",
"K. c #D9D4B4",
"L. c #DAD6B6",
"P. c #DBD8B7",
"I. c #D6D4BE",
"U. c #DAD6BA",
"Y. c #DAD7BA",
"T. c #DDD9BC",
"R. c #E0DCBE",
"E. c #DAD7C0",
"W. c #DEDBC1",
"Q. c #DEDBC2",
"!. c #E1DEC3",
"~. c #E2DFC6",
"^. c #E1DEC9",
"/. c #E3E0C6",
"(. c #E5E3CC",
"). c #E7E5D0",
"_. c #E9E7D2",
"`. c #EDEBD9",
/* pixels */
"6 r B ;.z.B.S.T././.~.Q.H.m.v.i.=.N e d k M k L 6.v.B.V.S.J.L.L.L.J.Z.N.v.i.Q 5 e #   X K 5.l.N.B.S.U.~.!.L.S.B.b.l.8.] r e t s ",
"; % s  .g.n.B.U.^.~.~.Q.C.v.g.e.X.b 3 d b M d C -.a.x.M.V.J.Q.!.U.J.B.n.v.u.[ i 5 O X # Z =.r.z.n.B.J.Q.T.J.Z.n.l.d.9.Q q # ; ; ",
"< X 6 | w.g.b.Z.E.E.U.H.b.k.p.9...d X . o # # r $.8.a.z.n.H.^.(.Q.H.n.l.p.7.[ r = 2 $ o r  .2.p.z.b.B.F.Z.B.n.l.s.u.5.' 4 X < < ",
"    1 ^ ;.r.g.v.m.N.N.v.d.i.9.=.Q i .         <  .1.8.p.l.N.G.I.J.N.l.s.9.>...e X 6 2 o * } ;.3.p.k.l.l.l.h.d.p.q.6.>.[ q       ",
"    < Y | 3.p.s.p.i.i.u.q.0.>.Q C e . . O @   * } =.<.8.p.d.k.c.v.d.i.q.>.%...i o t s # o W $.#.1.8.e.q.8.8.9.6.,.=.} I q   X X ",
".   1 Y | ;.7.0.9.4.5.6.6.5.%.W L r . . o o   # [ =.;.2.6.0.0.0.u.q.q.9.>.o.[ i X > 3 X X Z } ^ | %.=.>.:.,.,.=.X.X.Y v 3   o # ",
"    4 A W W C U O.%.,.5...N d b Z i X         = X.>.>.o.] %.4.5.9.q.9.4.5.4.O.j . . .   X Z W A v c L ..%.5.%.N d b b t >   . . ",
"    5 5 < * + * c %.7...4 X . + * < X         4 ' N c q > u ] ,.6.,.U c J ] ' r o % # . + d 3 # X . * b  . .r X . o + # #       ",
"  . < .         5  .6.Z o         = +         e e         # I 7.7.L # . o # # # # : O . # =         . d  .D >         X :       ",
"  # < , # X # < r j P e > & o + 1 h >       o m v 5 o o # < b X.=.v .       . % .     . : 9 6 $ # 1 1 5 j e < * # X # 9 8 o     ",
". 5 5 h x h V ^ A # * = I Q Z F ( B 3 .     q ' $.<. .^ | W 5 v N q e w 3 7 M s X     X 5 l H F F ~ D < o o 7 A M g V S e #     ",
"  # 4 2 0 8 t M j .   X t j 5 5 r < #       & C Q #._ T I D = # # = D ^ W  .$.d X     . < e s t t r t $     # 6 1 $ < : $ .     ",
"    . . . . # % < .   . X . .                 # 3 = # # : 8 %     X 1 4 - < > $ .         . .   X o % #     X .                 ",
"            o 5 4 O $ X + .   .                       . 3 t $ .   . .                       .     $ 7 ; ; # # #     .           ",
"        .   o 7 s 9 1 1 : X   .       X X         . o X r M t 1 O + $ .         X = * .       o . : s z s e r *   .         o X ",
"] m q # . o % % ; 6 6 1 $ o X # q n [ 5.9.O.J w & . o 3 1 6 9 9 2 5 = . o 3 c ] 6.g.d.5.] n 4 # = < 2 9 g s 5 % # o & e J X.9.9.",
"S.N.k.0.] q o = 5 8 t 6 < # C 1.g.M.S.S.J.H.B.c.0.E u * 5 e t 8 1 < $ 3 } r.b.S.J.L.L.H.C.b.s...* = r k Z b r = 3 ..u.l.N.S.J.J.",
"J.Z.N.b.d.J . . X # # o X j w.n.V.D.L.L.L.L.S.N.b.p.[ + . # - # * 5 3 Q v.Z.S.L.!./.!.L.Z.B.b.k.U + o & = & o o Q v.Z.S.D.L.L.L.",
"J.Z.N.b.k.=.q X . X .   3 $.g.M.Z.D.P.!.~.T.H.B.n.g.$.5 X . .       r 7.m.Z.S.P./._./.P.S.N.b.l.5.u + o o .   d 7.b.B.S.L.P.T.L.",
"J.Z.n.v.g.>.c # $ % # # v ;.g.M.B.D.Q.(.(.~.J.N.v.d.+.d # # < % X + M e.x.M.B.J.~.(.~.L.Z.n.v.g.5.b = 2 2 % = I 8.j.M.V.J.Q.~.P.",
"S.m.l.d.i.X.r o # # o $ v =.a.z.n.B.U.~.~.T.C.v.d.q.X.i o + 5 6 < % M 9.g.z.n.B.J.U.J.S.m.l.d.i.,.b # = # + 1 A 7.a.z.n.Z.U.Q.L.",
"n.l.d.i.6.} u .       X v =.e.g.l.b.B.C.Z.N.v.d.i.1.X.v X   . X X X N 8.p.g.l.b.m.m.n.b.l.d.u.9.,.P o       # L 6.r.g.v.n.C.C.B.",
"d.p.u.6.=.] v .         i -.7.r.d.k.k.d.g.d.p.u.6.%...C #           v q.i.p.d.g.d.s.d.p.i.y.6.,.:.{ &         C 2.8.i.d.l.k.k.g.",
"q.q.9.5.O.Q C o         e >.5.8.i.p.i.q.q.q.q.0.5.+.[ L *           f 9.e.r.i.i.q.9.9.9.9.9.6.4.%...3         c =.<.8.i.i.u.q.q.",
"q.9.4.4.:.X.P *         e =.6.7.6.5.5.:.:.5.5.>.:.%.} Z -           c 9.u.8.=.O.%.X.X.%.o.] O.4.:.] 4         v =.,.7.6.9.9.5.9.",
"9.] c n P ] P &         u O.X.' m f L [ $.=.L y u v N j #           m %.' C e 5 c I [ ^ i * > u N C *         N %.O...K P O.4.0.",
"..> . X + & e #         i i * o X X 4 W <.Q -   . X X $ o           c 5 X .     # M _ k X       . > #       . C u - # o # n 1.p.",
"K &       . t -       . i #         # b | j #         : %         + i $         # t Z < X       . 8 <       # v #         u O.q.",
"u m m u i W | r .     q K D l 7 e s e = r * < 5 5 q M S 5 .       y C V z t j k 6 # < # 4 i r i D R r X   . c Q ^ Z i v C C u ` ",
"3 =.q.5.6.e.] y .     p E ) @./ G S s X . . r T } $.-.I 5 .       q N V H F F Z 8 .   . r A Y ^ | Z e .   . m ] ;.w.<.<.<.I o # ",
"* m v q 3 4 - #       & c j t 8 < % ; .     $ 5 5 3 4 = +         X 4 4 1 1 < $ $ .     # % * = # o o       - m C C v j M k X   ",
"- 3 X X           . o           . o % .                       . X         . X o # .                   X # o     .   . $ 5 r # X ",
"m w # X . # 4 n ] 5.q.%.P y = .   # % .   . . X     . o > c ] >.0.O.K e & . # = ; # . . X     = q m { 9.s.u.%.P u = . * r b M b ",
"..P w . m 9.l.N.S.J.J.H.C.v.q...= = 6 ; @ X # > X 4 ] >.a.n.Z.J.J.S.N.k.9.m 7 r 8 < % < % . q 9.l.B.H.U.T.U.H.B.v.y.m * b Y T I ",
"=.] w f p.B.Z.D.L.P.T.U.S.B.b.g.Q = ; 1 6 < 1 % > %.j.n.V.L.T.!.T.J.Z.N.b.9.v 5 8 6 < = + - %.n.Z.S.U.~./.T.J.Z.N.b.7.c j Y } [ ",
"I v d =.l.B.Z.D.P.(.(.!.J.B.n.g.1.r % < 6 8 1 1 I r.n.B.D.R.(.(.Q.J.Z.N.b.d.Q 7 < 2 ; @ # K r.n.Z.S.P./.(.!.L.Z.N.b.p.W 7 s z D ",
"P J ] 1.g.n.B.S.T.)._.~.H.N.b.g.5.i + : 5 w < d | a.n.B.D.Q.(.(.T.J.B.b.l.s.X.5 = 3 = o = W r.x.N.V.J.~./.T.J.B.b.v.i.[ r i C Q ",
"o 4 I -.r.j.n.N.J.Q.Q.U.C.b.k.p.=.r .       o j } p.z.n.B.J.Q.U.J.Z.b.l.d.u.X.<         = Z 6.g.z.n.Z.U.U.J.Z.n.l.d.0.[ e X o & ",
"X o i %.3.p.h.b.N.C.B.N.b.k.s.9.+.d .   X o + e  .p.g.l.b.B.Z.B.n.b.l.s.e.9.+.q . o .   o M ;.t.g.v.b.N.N.N.b.l.s.u.5.X.f . # # ",
"4 o 3 ^ &.7.e.d.g.s.d.a.i.q.5.o.Q d o X $ $ X -  .q.p.d.l.l.l.g.d.p.i.q.5.>.+.i o % O .   d  .8.p.d.k.d.d.d.p.i.q.6.:...m # 9 6 ",
"# . # A } -.1.6.1.>.>.-.=.$.} I B r #         # } 1.7.e.i.p.u.u.q.q.q.9.5.=.[ d .         e [ -.8.i.i.e.0.9.6.1.>.%.X.Q m # = # ",
"    # Y } $. .} O.X.X.%.$.Q I I Z t #         # } 5.7.6.5.6.6.5.0.y.5.+.%.o.[ d .         e | -.=.O.>.5.,.>.>.X.L L Y I b o     ",
"    * A L L v e N ] X.=.I q 3 e d e #         * ..>.:.[ K ] :.5.q.>.m q e v C r .         c Q E N e c Q O.=.} r # * w v d X     ",
"    = e # o . . * C -.| 3     . X # #         3 P u q * # 3 Z -.1.N o     . X % .       . i - o X   X i $.*.d .     . X 5 o     ",
"    5 =         . 8 T k #         = 7         r q         . r | W 7 .       o 6 X       # 5 X         4 Z Z #         X s #     ",
"X 3 m M h 5 < 2 ; # < # # < 3 5 b #.] m U ..U ..A s > - 3 : : d i < i c u b _ Z *     . w s V l r s g 7 % < X % 5 5 i ! T q X + ",
"5.>.%.T H F x z 9 X     ; l Z } 3.g.v.B.S.J.S.m.i.*.| _ ) z # # + # M I I  .;.C -     . r b G / S V z 1     . 8 M Z } 2.| ..%.e.",
"S.B.v.7.| B 1 % $ .     o % 5 | h.C.S.L.Q.!.T.H.N.p.1.^ k 6 o     . # # o # & # .       # e 5 1 % # # O     . # # < | e.g.M.V.S.",
"J.S.N.j.e.$.e X O .     . o Z e.N.Z.D.P./.(.!.J.B.b.a.;.d % o       .         o 3 p c q # .       . o o     . . + W f.n.B.A.S.J.",
"L.D.B.x.a.8.Y 1 < o . . X 5  .g.M.B.S.L./.(.!.J.B.n.l.i.] e # . . . X   * m ..9.l.N.C.b.u.+.J 4   X 1 < O X o : b 8.n.N.V.D.P.P.",
"L.D.B.v.a.7.E 4 % % $ # # < W r.z.n.B.H.T.Q.U.S.n.l.d.y.' 3 % < ; $ X # ^ h.V.J.U.T.T.U.S.B.l.6.u + : 6 6 ; 1 t Q r.n.M.V.J.!.!.",
"J.Z.n.k.p.6.Q 3 . @ % $ . $ W 2.r.h.b.N.Z.Z.C.n.l.d.u.4.Y # o % ; $ # k 8.C.S.L./._._.~.J.B.n.l.>.i < 2 6 6 < e Y 6.g.z.n.S.Q.Q.",
"N.b.l.d.u.5.] 5 . # % % X # Q ;.2.r.k.l.l.l.l.d.p.q.,.+.P # O # # = 1 T g.B.Z.L./.`.`./.J.B.n.l.q.K = w r i : # Z ;.w.g.v.m.C.C.",
"g.s.i.y.6.%.L <           X E =.-.7.p.p.i.u.u.u.q.5.X.] b #   .   X 6 | h.n.M.Z.T.(.(.Q.S.n.l.d.9.L #   . .     j  .;.r.d.k.k.d.",
"q.q.0.5.=.Q b =           X L o.-.<.9.q.9.6.0.q.6.%.X.Q j #   . X X 2 o.a.h.v.n.Z.H.J.Z.m.l.d.i.6.E & . .       e Y ^ -.e.u.e.q.",
"0.q.,.[ ] L k %     . .   o L } ..Q P X.>.4.q.5.P i c j 7 o X # # . < $.r.a.g.l.v.v.b.z.g.s.u.9.,...- # # X .   e Y T ^ X.:.5.5.",
"q.,.m 3 3 5 e %           + j 5 3 & # q I <.>.v o   . X X . . X .   < o.6.e.p.d.s.i.p.i.u.q.6.>.%.X.q . .       i L M i w c ] 4.",
"8.Y +     . . # .         # =         . j #.Y <         . o         - } -.1.7.7.9.5.4.5.5.>.:.=.O...u         . e * o .   X i =.",
"=.j X       . 6 o       X 5 s 9 = * 3 4 8 d r : # # o % a 6 X       4 } } ^ Y L X.O.%.>.X.C N E X...u         + 4 X         e I ",
"m < e i w i D V -       = b Z @.( R ~ D 1 o o 5 A D A ) _ d &       q K u 5 = # q I  .^ e o + 3 e v 5       . u j z g t N Z b < ",
"X # B } Q  .<.W K U L i q c v B M g 9 8 %     : j r 3 r i v c f +   r 3         X j _ M #       X e P E ..K p P b F @.*.7.;.M X ",
"  . < q C =.r.g.n.V.S.N.k.6...y . X o = $     # # - N { 6.g.n.N.0.` ' j < X o # # : j 4 # X 4 Y >.d.N.S.S.Z.n.g.>.W k d v v 8 . ",
"X X o v w.n.Z.D.L.L.L.J.Z.m.k.6.q   < d 1 ; $ < m 5.m.C.S.D.J.J.J.Z.b.r.-.[ } ^ k # # o t W 1.z.N.S.J.J.L.J.S.B.v.e.Z o * 4 < . ",
": + e $.g.V.S.P.!.~.!.U.Z.N.l.a...* u Z M j i L >.v.C.S.D.J.L.L.J.H.Z.b.d.7.$.^ B +     v >.g.B.Z.D.L.P.P.L.S.C.n.g.1.u = d 7 # "
};
