/* XPM */
static const char *floor[] = {
/* columns rows colors chars-per-pixel */
"64 63 242 2 ",
"   c #010102",
".  c #0B0B04",
"X  c #090803",
"o  c #170E08",
"O  c #0F1105",
"+  c #0E1B06",
"@  c #121306",
"#  c #151905",
"$  c #1A1A06",
"%  c #141408",
"&  c #1A130A",
"*  c #1B1B09",
"=  c #181706",
"-  c #21160D",
";  c #231C0C",
":  c #231B11",
">  c #2C1E12",
",  c #1C2507",
"<  c #24240C",
"1  c #2B230E",
"2  c #25290B",
"3  c #2B2C0D",
"4  c #222506",
"5  c #302C09",
"6  c #2D320D",
"7  c #293409",
"8  c #32340D",
"9  c #34390D",
"0  c #393B0E",
"q  c #35360A",
"w  c #2C2C11",
"e  c #2A2512",
"r  c #332514",
"t  c #392614",
"y  c #342C13",
"u  c #3B2C14",
"i  c #3C2C1A",
"p  c #362918",
"a  c #2E3110",
"s  c #343411",
"d  c #3B3414",
"f  c #363912",
"g  c #3B3C14",
"h  c #3D331A",
"j  c #3C391D",
"k  c #372C21",
"l  c #442C19",
"z  c #423315",
"x  c #433C15",
"c  c #4C3B17",
"v  c #45341B",
"b  c #4A351A",
"n  c #453D1A",
"m  c #4C3B1B",
"M  c #483716",
"N  c #543C1D",
"B  c #5A3E1E",
"V  c #52391B",
"C  c #4A3310",
"Z  c #62391D",
"A  c #4B2E22",
"S  c #493724",
"D  c #553C23",
"F  c #5C3D22",
"G  c #563A2B",
"H  c #6A3A25",
"J  c #76352E",
"K  c #520D05",
"L  c #3D410E",
"P  c #3D4113",
"I  c #3D4916",
"U  c #44480F",
"Y  c #434415",
"T  c #4A4515",
"R  c #464A15",
"E  c #4A4C16",
"W  c #454319",
"Q  c #4B431A",
"!  c #46491A",
"~  c #4B4B1A",
"^  c #52441C",
"/  c #5B431E",
"(  c #534C1B",
")  c #5B4B1D",
"_  c #544A17",
"`  c #4D5016",
"'  c #4E511A",
"]  c #535416",
"[  c #53531B",
"{  c #5A551C",
"}  c #55591D",
"|  c #5C5B1D",
" . c #535915",
".. c #51500E",
"X. c #64461E",
"o. c #635B1D",
"O. c #5E611D",
"+. c #64631E",
"@. c #6A691D",
"#. c #6F721C",
"$. c #4D4925",
"%. c #554422",
"&. c #5C4423",
"*. c #554B21",
"=. c #5C4B23",
"-. c #58482C",
";. c #5B5421",
":. c #5C5B21",
">. c #575424",
",. c #585236",
"<. c #624524",
"1. c #634A25",
"2. c #6A4A25",
"3. c #654A2B",
"4. c #6B4C2B",
"5. c #694529",
"6. c #724E2B",
"7. c #754B26",
"8. c #6C5225",
"9. c #635B23",
"0. c #6D522C",
"q. c #655828",
"w. c #74532D",
"e. c #7A552E",
"r. c #755B2B",
"t. c #7B5A2E",
"y. c #745E25",
"u. c #654B35",
"i. c #764737",
"p. c #6A533A",
"a. c #745431",
"s. c #795631",
"d. c #765933",
"f. c #7D5A34",
"g. c #7D5D3A",
"h. c #78573C",
"j. c #5F6323",
"k. c #646421",
"l. c #6B6324",
"z. c #666924",
"x. c #6C6B23",
"c. c #6D6729",
"v. c #736A29",
"b. c #737224",
"n. c #7A7729",
"m. c #6B6735",
"M. c #796538",
"N. c #747031",
"B. c #6A5744",
"V. c #775B44",
"C. c #6F4642",
"Z. c #7B6448",
"A. c #7A7041",
"S. c #893934",
"D. c #82392D",
"F. c #81592F",
"G. c #8A4735",
"H. c #825D35",
"J. c #835E3A",
"K. c #865932",
"L. c #99573C",
"P. c #904A31",
"I. c #83792C",
"U. c #856135",
"Y. c #8A6336",
"T. c #85623B",
"R. c #8B653B",
"E. c #8E693E",
"W. c #816E3A",
"Q. c #926A3E",
"!. c #92683C",
"~. c #8A7038",
"^. c #A2663F",
"/. c #A2542E",
"(. c #945954",
"). c #8D574A",
"_. c #B45352",
"`. c #8C6640",
"'. c #8D6A42",
"]. c #866B4A",
"[. c #946D42",
"{. c #986E42",
"}. c #956F48",
"|. c #877845",
" X c #967145",
".X c #9B7345",
"XX c #977249",
"oX c #9D7549",
"OX c #9E784C",
"+X c #9E7847",
"@X c #856B52",
"#X c #8B7456",
"$X c #967958",
"%X c #996456",
"&X c #A17646",
"*X c #A47846",
"=X c #A17749",
"-X c #A47B4C",
";X c #A97E4D",
":X c #A57E51",
">X c #AA7E51",
",X c #A67A5E",
"<X c #AE7050",
"1X c #927465",
"2X c #AB776C",
"3X c #D05C50",
"4X c #CD6453",
"5X c #EE7369",
"6X c #DC7369",
"7X c #868334",
"8X c #928D38",
"9X c #8D8752",
"0X c #AC814F",
"qX c #B1834E",
"wX c #AD8252",
"eX c #A78358",
"rX c #B18654",
"tX c #B48856",
"yX c #B98C57",
"uX c #B58A59",
"iX c #B98D5B",
"pX c #B28758",
"aX c #BD915E",
"sX c #A19250",
"dX c #9D8869",
"fX c #AB8C66",
"gX c #B58C63",
"hX c #BC9464",
"jX c #BA966A",
"kX c #AB8773",
"lX c #B29376",
"zX c #BFA47C",
"xX c #C39867",
"cX c #C69574",
"vX c #F28175",
"bX c #C8A77E",
"nX c #C98E4E",
"mX c #E07D85",
"MX c #B19284",
"NX c #C7AF90",
"BX c #D1A49C",
"VX c #E7D2B5",
/* pixels */
"  X X X X X X X X X X . X X X X X X . X X X % & & o : - & : : > - : : : : & & : - - : & o X X X X X X . X X . @ X X X X X X X   ",
". s 6 6 a a 8 2 E [ 0 q g f g g P R ` ! Y W ^ t.e.e.[.=X&XrXtXQ. XwXwX0X;X[.T.wX.X*X&X8.^ ( Y g Y ! ! 0 g g ] { 2 3 8 3 3 s *   ",
". ! P :.6 [ f 2 { [ P R k.g | W x.b.| W g x m E.g.g.F T.-XuX*X X;XtXrXrXwXT.wXwXwXiX6.c g ~ [ v.k.@.7X( Q n.@.3 s 3 Q 8 g *.=   ",
"@ 2 ;.nXd Y ;.>XV f T K.gX] ( x x x c 1.B w.t.E.E.a.T.E.-XuX0XtXtXrXtXiXuXQ.f.`..XoXE.0.M y f x.b.N.{ 8 [  .9 < f = u.M q Y *   ",
". f ) X.K.g ^ G.t g ^ 2X<X( x ^ / / 1.f.K.rX.XQ.=XwXyXtXuXtXrX0XT.`.0XtXuXwX[.}.;X!.E.R.f.=.( x.x.lX%Xm < k.g 3 < D S.(.h.3 <   ",
". W ! ! _ *.n L.Z ! [ >.T ~.1./ r.w.}.:XJ..XtX-XpXiXrXuXiXrX0XrX`.}.rXtXiXrXrX-XT.a.0.f.H.8.o.| v.) kX).*.g s 8 3 < J _.l T g   ",
"@ f 8 T 0 6 W G.H 6 ` R | { D F.<.f.-XrX}.;XrX>X{.rXrX;XuXoX{.rXuXuXuXrX-X>X}.g.D dXNXB.&.8.9.k.k.[ ` _ ~ 0 x a 3 Y g f g ( <   ",
"* q -.2X2Xr < e < f g g T n Q eXh.N -X-XwXwX-XT.4.Q.=Xf.Q.Q.pXrXwXwXwX-X`.XXR.4.u.lXkX@Xp 8.) ~ o.T ( +.+.{ [ g 3 Y +.| n.a =   ",
"< q.BX_._.(.; y n ^ E :.z u W m.%.m !.&X.XoX`.3.l T.;X X*X0XiXrXtXwXwX;XoX-XwXE.v p.V.-.e ( ( Q h v c ( @.[ r.K.c ~ d W g f s   ",
". < C.mXJ S * 3 [ 8.1.;.r.&.M Q d &.Y.-XwX-X-XJ.s.tXaXwXT.eXhXwXOX;X;XwX;X[.wX-Xw.S S r h ^ d m N B b Q | W F G.H +.f < 2 j.P   ",
"* Y $ V.y , Y s E X.7.q.M.H.w.w.w.R.{.wXrXrXwXuX;X.XtXwXg.T.0X-X'.wXrXwXwXwXwX.X.XT.w.B w.w.&.6.<.w.B d _ x.^ c / ] E < j.7X4   ",
"* ! f Y f W | Y c.q.Z 1.8.^.*X0Xt.wXrXwXtXwXoX-X-X.XwXwXrXuXpXpXtXtXwXXX:XuX-X{.wXwX.Xf.R.!.Y.Y.eXeX4.M x { ^ ( ] _ | R z.` 8   ",
"X s R g ~ ! E >.8X^ X.Y.^ 4.*X;XT..XtXwXwX{.f.T..XrX-X-XpXaX0X-XiXuX.Xg.T.wX.X.XwX-XwX;X-XxX.XU.`.J.4.u d 9.( _ / 0.I.x.k.g 4   ",
"@ P P 8 E } ] n.I.^ b W.q.B f..X;X-XrXwX.Xf.`.-X;X>X-XwXtXpXwXwXrXrXwX{.[.wX;X;X;XwX}.;X.XbXwXK.w.s.4.r *.v.) Q 5.^.r.I.+.E <   ",
"% 0 7 W 9 E O.k.^ / / q.Q t f.wXrX0XwXrXwX.X-XwXwXwXwXwXrXrXwXpXwXwXuXwXrXrXwX=X;X;X;X;X[.T.;X&X XH.3.>.!.L.=.q.9.9.[ o.O.] E   ",
"* E $.1Xp.g ] [ t B 2.0.V <.H.E.-X;X=X.XT.wXwXwXwXrXrXrXrXwXwXrXwXwXwX4.R.uXrXwXwXwXwX>X0XrXwX;X{.5.q.7X;.&.;.:.[ ~ P g R R 8   ",
"% Y BX(.MX-.R { u 1.w.H.Y. X-XT.d.R..X.XoXiXuXrXrX X;XiXuXwXwXwXtXrX-Xa.`.rX-X X[.-X;X;X-XwXwXrX{.&.n ( b.g d W y s f Y w g =   ",
"@ g v 2XA 2 O.[ h 0.E.T.Q.;XuX-XT.T.wXiXtXiXhXrX;X$X[.;XrX>XwXwXwX-Xg.OXwX;XT.[..XwXwXQ.R..X{..XoXw.b v n z l t l z '.) ] ~ f   ",
"< } ` P g z.k.q.N F w.[.R.wXtXrXiXpXwXrXwXtXaXQ.#XVXfXH.;XwXwXrXwX:X-X>XwXXXT.pXiX X`.zX]..X-XrX;XR.f.1.F <.4.<.<.b 5.P.9.k.x   ",
". P g :.[ x._ F..Xb <.R..X-X.X:XiXpXpXuXrXpXrX.Xa.].h.T.wXrXwXwXpXiXrXwXwX>X:XoXtXwX:XOX[.rXrXhX;X`.oX&Xf.w.T.f.w.&.1.F ~ ( <   ",
"X f f E g Q Q &.f.v 4.f.rX XH.E.rXQ.:XuX;XrXwX;X.Xa.T.rXrXrXrXrXtXiXuXpXrXwXd.s.wXtXuX0XtXtXtXrX}.T.-XwX.X.X-XE.f.0.1.t W :.3   ",
"@ f ~ P y u N y i &.T.3. X-XiXtXwXwXwXrXwXwXrXwXwXwXwXoXwXtXtXwX-X-XwXtXtXwX.XwXrXwX>X-XuXtXtXrX;X>XwXrX;X-XrXU.f.0.1.z M Q g   ",
"= W 8Xq./ <.4.&.a.J..X;X-XwXyX.XoXwX>XwXwXwXwXoXwXwXwX.XrXuXuXH.T.-X;XwX-X>XrXrXwXwX{.f..XuXiXE.oX-X;XwXoXR.w.4.H.H.w.N N m g   ",
"* T *.c <.5.6.s.f.T.oX>XrXwXrX;X-XwX>XwXwXiXwXwXwXwXwXtXrXrXuXwXwXrXwX>XQ.oXwXwXwXwX-X{.-X;X0X{.}..X;X;Xf.p.1XB.N f.4./ Q =.1   ",
"= ) 1.l <.1.H.T.T.E.-X;X;XwXwXrXrXwXwXwXtXtXrXwXwXwXrXrXwXrXrXtXtXrXwXrXoXT.rXuXrXwXwXrX;X;XjXjX{.iX;XT.V.NXVXNXG <.f.&.m q.v   ",
"* q.8.B H..X-X;XR.{..X{.wX;XrX.XQ..XrXwXrX0X{.rXwXtXrXrXwXwXwXrXrXtXrXwXwX;X0XrXwXwXwX0X X;XhXgX!.0XR.s.p.NX#XZ.].i !.s.8.y.Q   ",
"% z.j.b f.wX.X{.rXrXT.w.[.;X[.lX#X.XtXwXrXtXwXpXwXtXrXwXtXrXrXtXiXuXuXrXwX0X;XwXwXiXwX0X0X&X-XaX-XQ.Q.H.t Z.@XV.k v R.Y.K.q.Q   ",
"* [ f u %.w..XwXbXgX=XT.Q.;XR.h.%.T.tXtX0X{.rXrXrXtXhXtX[.T.yXrX{.rXuXrXrX-X}.wXrXrXrX-X;XT..X-X;XiXwXT.&.i S p l f.Q.s.5.%.m   ",
"& b v &.1.=.d..XjXgXrXiXrX;X;XQ.R.;XtX;Xf.w.rXwX0X;XrXwX`. XT.Q.R..XiXtXrXwX:XuX;XpXoX XwXwX;XT.-XtX.X[.T.T.w.3.J.=XH.W.q.%.D   ",
"o m B w.9XW 8.w.0. XE.;X{.[.wXrXtXuXtX;XT.0XaXtXrX:XrXtXtXwXT.-XtXrXrXtXrX-X`.;XT.;XOX.XuXtX;XE.uXcX*X X-X{.R.R.XX.Xs.;.>.D D   ",
"o =.3.N q.w v 4.&.T.d..X;X-XuXrXwXwXwXwXyXrXtXrX:X#X;XuXwXwXrXiXtXrXtXuXwX.X.X[.s.0XaXtXiXiXiXtX-XwXrXwXwX;X=X=X>X{.K.3.b 2.V   ",
"> 0.9X|.u u &.R.!.E.{.;XrXpXiXuXuXrXrX0X;XwXrX;XQ.a. XrXwXrXrXrXrXrXrXrXtXtXaXwXH.0XiXtXuXiX0X{.{.;X;X-X;XoX4.s.s.s.d.K.e.Y.f.  ",
"> w.m.Z.3.H.H.T.[.-XrXwXwXrXwX-X0XiXiXrXrXrXwX0X0X;XoXwXrXwXwXwX-X}.wXrX0X-XoX0X0X-XwXrX;XwX-XQ.&X0X;X[.-X.X4.5.d.}.R.e.M.U.w.  ",
"> 4.2.F f.`.E.R.=XuXwXiXpXwXwXwX-XrXtX XwXrXwXwXrX0X;XrXtXwXuXwXwX`.;XiXtX-XoX0XrXoX.XtXoXuXrXrX0X;XrXuXrX=X{..X!.E.U.fXBXd.B   ",
"r M.=.f.R..XiXpXtX XoXrXrXrXuXiXrXuXuXtXrXrXrXrX;X0XrXrXrXtXyXiXiXtXwXhXxXwXR.rXuXtXrXyXwX;XwX;X-XrX-XwX-X{.rX.Xe.w.4.$XfX6./   ",
"; 0.W w.R.-XiXwXiXR.E.wX-X;XrXwXrXuXuX*X0XQ.-X;X{.rXrXrXtXtX0XwXtXtXwXtXpX;X{.rXtXrXiXtX{.f.[..XE.-X0XwX{.R.-Xs.K.w.i z m =.u   ",
"- w.*.K.Q.{. X.XuXrXwX0X.Xf..XrXrX-Xw.&..X&X-X.X-XtXrXrXtXiXoXH.rXtXrXrXwXwX X-X0XrXiXwXoXH.d.=X-X0XrX.X{. X!.R.J.a.B d 3 g ;   ",
"- <.=.w.&XE.a.T.Q.uXxXtXyXY.-XiXrX0Xd.4.;XrXwXH.[.iXtXrXrX Xf.H.wXtXpXiXwXwX;X;X;XtXrXT.s.-X=X;X=X;X-X&XU.K.t.Y.H.w.D MX%.9 3   ",
"- V 1.1.E.=.-.0.D {.rX;X-XE.R.yX0XqXrX0XqX0XwXrXrX;X;XtXtXrX XoXiXtXtXtXrXwXwXtXtXpXpX;X;XwX{..X-X[.T..X<.B <.7.8.M #XcX1Xg 3   ",
"; ^ f Q 1.3.z b f.-XrXE.w.T. XiXrXwXrX-X;XrXrXrXtX.XT.wXtXiXwX-XtXrXrXwXwXrXtXtXOXXXuX>XXX-Xs.[.;X-Xf.<.0.^ M ) ( T 3 i.h.R f   ",
"* v.W d <.e.f.!.;XtXuXwX.X0XtXwX.X;X;XwXrXrXrXrXtXtXQ.;XaXtXtXrXrXwXwXwXwXwXrXwX-X;X0X=X.XyX0X-X;XE.&.l b [ :.:.b.| [ R R [ Y   ",
"@ l.W s w.&.e.K.H.tX;XwXrX>X;X=XJ.-XwXwXwXrXtXtXrXtXrXiXtXrXrXrX;X[.wXwXtXrXrXtXrX0XOXuXiXiXwXE.Q.0.&.6.V g z.n.n.b.x.x.O.x.+.  ",
". P R Y g l.) 8.&.w.4.T..X-XoXE.Q.wX.X;XrXrXrXrXrXtXrX.XwXwXrXuXwX;X0X&X.X.XuXrXrXrXwXrXtXwX;X;XQ.f.&.<.o.z.| z.b.| +.k.n.O.3   ",
"@ q R U 9.n.Q y.d v w.;XQ.;Xf.F 0XrXrXrXrXuXwX}.`.;XwX[.;X.X-XiXiXaXrXT.f.>XaXuXfXOX-X0X;XQ.Q.R.T.w.1.B Q O.n.} E y Y ` l.g s   ",
"< ` m.A.l.f x N ^ &.{.rX-X0X.XR.rX;XwXrXwXtXg.lXNX].[.;X-XwXwXuXrX`.R.;X.X-X*X:X].g.;XiX-XT.{..X*XY.<.0.8X| | } y x w Y { 3 f   ",
"* E =.BXd.] m B &.<.f..X.XiXyXiXrX-XH.T.:X`.u.eXfXp.f.;XoXwXoXwX=X'.rXqXwX'.-XT.T.wXiXaX-Xf.T.s.d.uX2.S |.7X~ [ w Q ~ } | W 3   ",
"@ E R 4.'.E ( <.e.B f. X{.oX=XtXpXxX.XQ.;X[.T.u.p.3.-XiXuXrXwXrXtXtXrXrXrXrX;X'.-XrXrX;XY.w.&.<.i %.h w ;.8X[ } w ) I.} O.g 4   ",
"@ 8 @.L L x.l.y.1.u 2.e.H.H.T.;XwXrX0XrXiXrXoXE.Q.-XrXrXrXuXpXtXuXtXtXrXtXrX0X X;X0X[.E.R.T.t.2.B m Q [ +.7X[ ] E 2 E s 3 3 3   ",
". < ! E ~ k.| | *.v 1.f.H.[.:Xw.E.rXtXtXuX;XwXwXwXwXwXrXwXwXuXtX0X;XwXtXwX0X;X{. X;XXXf.T.F.e.fXL.7.Q 9.O.b.[ [ R 6 g 6 3 g s   ",
"@ 3 < N.} | ` | 9./ 0.M.f.[.hX XQ.rXwX;X;X-XwXwXrXwXwXtX0X:XtXwX;X{..X;XE.T.T.T.T..X[.3.f.e.2.dXM.o.x.7X| | +.Y ^ M P [ { Y =   ",
"3 [ , | z.` ! :.z / q.sXr.R.;X-X XE..X;XrXtX-X[.-XrXwXuXiXrX;XwXwXrXrXQ.Z.Z.w.t.1.U.Y.&.1.1.v | k.} :.[ E ~ Y 3 5X_.# P } 8 =   ",
"@ ` a 3 s s a | V b 8.y.X.e.+X.XT.F w.-XrX-XT.T.{.wX&XwXiXtXwXoXwX;X-XH.lXdX%.^ v 0.w.%.n h e x.~ 3 } Y E 2 j B._.P.i.d 9 s 8   ",
"O P ~ 3 w [ P z.x.) V X./ <.U.M.%.0.0.w.-XT.T.-XoXrX.XT.-XwX-XT.oXXXf.4.u.B.p Q W ;.( ( P ! s j.! E | E g , L.vXi.P.5Xl 2 x g   ",
"O 6 | Y 9.x.:.} s b.n.#.c ^ =.l.*.^ ^ =.w.e.{.yXrXrX-Xf.T.=XwXT.d.R.d.F m g g ] } | v.k.[ ! | Y s Y b.[ 3 I C K 6X4XK * 6 g %   ",
"< ! W Y 9 [ [ ! E ] ~ @.! v.*.Q M ) 9.=.b H.-X;X=XoXoX-X;XrXyXrXT.U.3.l Q ] N.|...{ { [ ~ E k.Y w < Y Y g Y 6 + G.J + :.s < a   ",
"* Y g f %.g P g | a ! [ x.:.( u 8.8.=./ V U.[.iX-XU..XrXwXE.wXxXwXT.H.N t [ z.].lX] E ~ Y | c.s Y w W a E [ g f 2 = g ~ 2 2 3   ",
". 3 , J vXl 4 8 ! 6 s s } Y ~ 9.v.;.{ ^ b 2.f.oXpXf.{.rX;XH..XxXwXE.T.0.N ~ +.q.MXq.Y E Y f Y g 9 3 f Y f [ P k.! 3 W * u d =   ",
"@ , %X6XJ 3XV 7 f 3 < < f P j.z.} x.+.~ ^ %.f.w.w.w.T.Q.R.R.T.wX[.d.a.<.M g | z.] ~ a f Y s 3 , ,X(., f g g 8 6 , Y Y r /.N =   ",
"% 2 A S.3XD.1 , 8 s 3 j ,.4 E E | ] T [ ( %./ &.m w.6.w.H.T.T.H.0.1.b v p.$.L :.E R [ 3 g s w %X_._.H , 3 < 3 E g < ' ) t 2 <   ",
". g 7 ; H = 6 < } | h MX(.2Xd P E ].3.{ { T #X3.u 3.$X#X<.f.f.w.^ =.3.d (.2XN.L P [ | f ( s 3 ).3XS.i @ < Y 2 E @.] w Y 8 3 <   ",
"X 6 ` 8 + a O.f O.E j Z.G B.< s g Z.M m.9X5 ].@Xb 3.B.S l 4.=.n x =.|.! h u.n.L < [ 6 s [ 2 < < F 1 O < Y  .R g w [ < 3 ~ s @   ",
". 3 s g s f R f ` [ 0 5 8 q Y 9 g 8 3 ~ ~ 0 c 4.<.2.B B 6.H.0.Q z c ( ( ! q x 0 3 3 < < 2 2 2 0 3 4 < 0 f Y R 8 < < < 3 e w *   ",
"X @ . . O O . O * s * % = 3 < % = % * * = * y r > i t t i A i e ; ; ; < * % % @ % % % @ @ @ % % % @ @ O . * % . @ @ @ O O % .   "
};
