/* XPM */
static const char *n[] = {
/* columns rows colors chars-per-pixel */
"64 64 181 2 ",
"   c #020000",
".  c #2F0000",
"X  c #3D0100",
"o  c #470102",
"O  c #4C0102",
"+  c #540203",
"@  c #5C0203",
"#  c #5F0708",
"$  c #4C1414",
"%  c #640304",
"&  c #6C0404",
"*  c #6C0806",
"=  c #670708",
"-  c #6F0708",
";  c #610F0D",
":  c #6D0908",
">  c #740405",
",  c #7C0405",
"<  c #740907",
"1  c #7C0906",
"2  c #730608",
"3  c #7A0609",
"4  c #7C0608",
"5  c #730809",
"6  c #770808",
"7  c #750A09",
"8  c #790A08",
"9  c #7B0908",
"0  c #7E0808",
"q  c #7F0A08",
"w  c #7D0A09",
"e  c #7C0A09",
"r  c #691C1A",
"t  c #721615",
"y  c #6A2624",
"u  c #682E2C",
"i  c #772D2C",
"p  c #71635D",
"a  c #820205",
"s  c #800606",
"d  c #820607",
"f  c #820405",
"g  c #870506",
"h  c #850606",
"j  c #830505",
"k  c #890406",
"l  c #8B0506",
"z  c #880606",
"x  c #8F0606",
"c  c #8D0607",
"v  c #8B0506",
"b  c #810807",
"n  c #840807",
"m  c #840906",
"M  c #890807",
"N  c #8D0907",
"B  c #8C0907",
"V  c #820608",
"C  c #830708",
"Z  c #890608",
"A  c #8E0709",
"S  c #8B0708",
"D  c #830808",
"F  c #810A08",
"G  c #840808",
"H  c #850A09",
"J  c #820E0A",
"K  c #840A09",
"L  c #8B0B09",
"P  c #890A09",
"I  c #8D0A09",
"U  c #8A0B0C",
"Y  c #8C0A09",
"T  c #930506",
"R  c #9B0506",
"E  c #940907",
"W  c #9B0807",
"Q  c #940608",
"!  c #9B0608",
"~  c #920909",
"^  c #95090A",
"/  c #940A09",
"(  c #9A0E0B",
")  c #9D0B0C",
"_  c #9C0B0A",
"`  c #85100C",
"'  c #89110C",
"]  c #95110C",
"[  c #9C110D",
"{  c #9C0F10",
"}  c #951613",
"|  c #9C1111",
" . c #A20607",
".. c #A80506",
"X. c #A20907",
"o. c #A10608",
"O. c #A80709",
"+. c #A30C0B",
"@. c #AB0C0C",
"#. c #B10C0B",
"$. c #A3100E",
"%. c #AB110D",
"&. c #B2120E",
"*. c #A21210",
"=. c #AB1510",
"-. c #B41411",
";. c #805450",
":. c #8B5F57",
">. c #8C625E",
",. c #92625E",
"<. c #8E6867",
"1. c #8B6564",
"2. c #956B66",
"3. c #996A67",
"4. c #926768",
"5. c #926A6A",
"6. c #9F6D68",
"7. c #8E736E",
"8. c #90706F",
"9. c #99736B",
"0. c #8D7570",
"q. c #977673",
"w. c #9C7572",
"e. c #9C7875",
"r. c #997B7C",
"t. c #AC726C",
"y. c #A47D79",
"u. c #A5857D",
"i. c #AB8286",
"p. c #A58886",
"a. c #A5898A",
"s. c #AB8D8D",
"d. c #B49089",
"f. c #A19792",
"g. c #ADA39E",
"h. c #BFA19D",
"j. c #B3A6A5",
"k. c #BAB1AA",
"l. c #BDB2B2",
"z. c #C2B3B0",
"x. c #C5BAB6",
"c. c #C6BDB9",
"v. c #C9BEBC",
"b. c #CBC3BC",
"n. c #CFC8BF",
"m. c #D1C2BD",
"M. c #C9BEC2",
"N. c #CDC5C2",
"B. c #D2C6C5",
"V. c #D3CAC5",
"C. c #D5CDCA",
"Z. c #D9CFCA",
"A. c #D7D0CC",
"S. c #DAD3CE",
"D. c #DFD9CF",
"F. c #DCD5D2",
"G. c #DED9D4",
"H. c #E2D4CF",
"J. c #E1D6D2",
"K. c #E2DBD5",
"L. c #E3DDD9",
"P. c #E8DCD8",
"I. c #E6E1D7",
"U. c #E6E1DC",
"Y. c #E9E4DD",
"T. c #EBE8DE",
"R. c #F3E3DB",
"E. c #E3DFE0",
"W. c #E7E2E2",
"Q. c #EAE5E1",
"!. c #EDE9E3",
"~. c #EEEBE9",
"^. c #F2E6E1",
"/. c #F1ECE6",
"(. c #F4EEEA",
"). c #F5F2ED",
"_. c #F8F2EF",
"`. c #F6F3F1",
"'. c #FBF5F3",
"]. c #FAF8F6",
"[. c #FDFDFC",
/* pixels */
"                                                                                                                                ",
"  + + + % + O % & & > & & > % = > , = > & > % H L s > & 3 0 I & = > , 3 > & < 3 > h & 3 % 0 q > 0 & & , 7 > & @ > @ = = * @ % % ",
"  8 + = % + + @ @ & , > & 3 7 & , 3 3 & % > 6 > 0 % , s > 3 n & > s H , , & % > & , > H 3 J > 6 0 @ 3 z 0 & & = > & & % @ + + @ ",
"  @ % + O + = O > & @ > 0 C h > 3 & 3 & , 5 H F V F N & x h h 8 , s I 2 q , > , , > 3 H H 6 3 & & & s I 0 3 8 % , & + 6 @ @ % O ",
"  @ & O % O & & 6 % % s q > L I M j 3 x U 0 8 2 > F z H z j s Z ~ > b I ( / x s s > I H & % Z s x h V % J S & , + > % % % & = + ",
"  % % & & & > & > , % > 3 H F h _ ] z , > N I V L L > 3 S & R / a ) ( L N a , T ~ z & z L x z & h s 2 ~ > > 3 > % & & 2 @ + + + ",
"  & @ > > @ % s > H > I x T z s & s T N R z _ 4 L & j @ I s @.h E s , >  .j v x > I h F _ E N z j , h v , @ > n % % % @ % % & % ",
"  @ & = > & & h 6 h q Z / h h h 0 s , T s ( _ _ s > z % ! W > X.L ~ ~ z Z ( W 3 x , M M ~ _ / 3 6 s * > x & 3 > @ > & 2 % > @ & ",
"  > & & > b 3 > h > x I > a , _ h R h +.x W 3 z  .( j , j S x x R _ z h ! R R > > g % X.N s x z 0 T ~ 8 z > , , F 5 3 + @ % @ % ",
"  & & & , > f % H > N v , % x s H z T s / ( x b / W , o.& I / > h @.x 6 ~ j T , X.x > ' ( ( @.! F > +.> > N 3 , 6 = 6 , s O @ = ",
"  & @ 3 , % & @ ~ I > ~ z T , > 2 b N z T x I _ I N W > > / R R H , / z & x S / s _ _ s I ~ ( , O.> ~ > , > a / 3 s & & % @ + % ",
"  % & & j , , , , / b S & 3  .T _ _ v > z N R j h H X.R x o.~ x T / +._ s j +.R v R > L ( _ R I / x > x , M I > , > 3 H > & @ & ",
"  , > @ j > > ~ , q z _ , _ R , % / x a ~ W R R _ R _ W R z _ ( E ! +.L _ ( R a v ~ h %./ ( 8 T n N ~ z z S 3 h v 4 3 s q 7 + @ ",
"  O - & s & > h s v W > j R n , _ , R z ( ~ / T +.x R T ~ _ ( R ( x j / T R / R j R _ R ( _ x R R z j v / h x ~ ~ H 3 @ > & 8 = ",
"  > & 8 n 0 , , v : / v / Z 3  ., T R f R % % & + @ % % R +.~ x z R T _ ( % > % @ % @ > +.( h ~ L R / T ( v b s & , 0 Z a , , = ",
"  & C h > n 3 > & / , +.X.R > ~ X.W _ / , !.L.T.S.L.G.L.S.%.E > R _ ( %./ L.!.j.G.B.!.s.T ( ! j z _ ! T ) R _ / H x > , , > & + ",
"  & j & , a > % ! R v h X.z ~ , x z ( x N S./.f.Y.Q.U.!.F.| s ( / x T _ $.U.J.Q.F.G.Z.8.$./ x v ) R N b / ~ ~ R #.v , & > > & & ",
"  j 3 V z , 3 & , n [ =._ _ ~ ~ ( , v h & G.p !.!.U.G.U.l.F.X.h [ ( T @._ L.!.K.A.L.V.7._ S [ Z ) ! _ ( T _ s ( $._ ( , , > > > ",
"  , / n I % & , C ~ / ..( h +.N ~ +.& ( 3 T.Y.F.A.L.L.Q.T.U.% ( / ^ R E ( Y.T.S.A.F.b.p.z +.+.L R T O.j +.( _ E , L & 3 > / & 6 ",
"  0 / q 2 > 3 T b ( ( H , +.z ! ( R / E > P.T.L.U.Y.Q.L.U.U.S.~ x ) _ +.( L.U.Y.U.S.L.e.@.( ( , R +._ &.X.$.E , z j 3 Z 3 , > , ",
"  = = T ( , ( , I T & I z T / ! o.&.x T b K.L.G.!.!.U.L.F.S.B.+ R +.+.+.) J.Y.x.S.C.U.0.%.j X.v ) ( _ ) / o.( +.j h H > , h > & ",
"  & = , a & / / ~ z x _ I / L / _ R ( _ s I.L.Y.K.F.A.F.C.U.L.B.R O._ X.) T.Y.U.L.G.B.u.@.v v / +.X.I ! ! z / ( I R M $.& a % 3 ",
"  3 I 8 H h z H +.M / ( +., +.3 x ( _ _ z g.Z.T.T.L.L.N.F.S.F.S.r X.+.( $.K.S.U.F.F.c.q./ @./ +.) v z ! +.> ( I , / L H , & , & ",
"  , > H & s ( v X.! ~ N ( ~ O.( ! _ z R j L.U.C.L.!.L.G.U.U.S.b.S._ T _ _ L.L.U.!.S.S.i._ O.! ~ s R  ./ +.( z ! v T ~ H s > & & ",
"  & > , 3 > s x x I o._ &.R +.X.R W ( R , B.D.!.z.A.B.U.c.S.C.U.F.t R R R U.F.F.L.G.U.4._ O.! ~ R R x z @.h v +.R I R , x x & , ",
"  s = 3 x = , h ~ ( / T +.O.W ^ R T _ T > V.U.v.L.L.K.I.S.J.L.F.G.(.R +._ K.T.L.L.F.A.<.h &.+.h #.x s v H z ( 6 > 3 ( T s > > s ",
"  > > h R > v ~ T W v X.h / ( @._ +.R x j S.S.U.!.C.L.; C.L.F.Z.L.G.z.f _ L.!.K.G.G.F.w.R +.+.+.+.X.~ T ( z X./ +.x [ / , = > > ",
"  h > , g x R s ~ x @.+.T T -.O.= R / ) N S.K.).U.T.!.E C.J.L.U.K.Y.K.x T G.S./.!.F.Y.6.O.O.%.@.T ( a R $.@.h +.( [ S s s h z s ",
"  > x h / , ~ T ~ / R R R _ +.( +._  .x f F.C.L.(.S.Y.M @ Y.U.Q.T.U.T.V._ F.B.T.U.L.L.,._ +.+.+.+.) +.X.~ j / ( I T s S N _ & s ",
"  Z n , h h h / ! / ~ W ( @._ _ +.R @.+.h G.L.U.!.G.N.I _ J.U.G.T.!.!.U.| U.Y.G.G.A.G.:.! &._ X.+.) s ! %.! J T 3 ~ ! S z v , , ",
"  h z s h s z z / @.@.X.R > / ! +. .E $., T.T.L.L.W.L./ ( % T.B.Q.Y.T.S.(.F.S.L.L.K.K.1.~ @./ _ ( X.+.~ ! ( o.X.( ) > & > + q > ",
"  W > > j T H h , S E R z X.z @.@.( R _ h I.L.Z.Y.Z.J.! W j E.K.L.F.L.N.Q.L.L.G.G.Y.D.e._ E +.+.+.T H j F / s > s > _ h s 3 > > ",
"  h N R M & R J T ) T +.E X.R %./ X.+._ z C.T.L.L.I.A.R T ~ ] S.F.!.F.G.U.L.S.Q.F.Y.K.4.X.+.W @.@.+._ T / +.x / x / h I , b a 3 ",
"  & , H j H N > X._ / L T ! _ ( ) T +._ b K.c.A.L.N.k._ R _ R W.V.F.U.Q.F.L.K.F.S.N.C.3.@.! ! R R +.+.%.+.) T / N V z 6 q j s > ",
"  > h & h h ( ( N X., F H o.x ( ! T @.! M L.N.U.K.L.l._ R X. .C F.F.G.G.Y.G.G.C.V.L.B.5.@.X.T T / _ +._ ! x h v h / x R I n s , ",
"  , % n H > ~ j h M ! %.L $.N +.I %.R +.s U.N.B.F.A.K.z X.R _ X.!.F.T.L.C.U.Q.U.U.!.F.7.+.( +.h 6 _ ! O.X.x / ) z > F h L h & > ",
"  % ( N @ s 3 _ s j T z _ _ +.E @.z o.E j b.F.A.J.S.n.~ _ R R _ h S.F.G.Y.Y.L.U.L.L./.2._ @.! +.z ! R @.z _ X.> S M , b s s 3 & ",
"  F > & , / T _ L z , _ / L +.j h o.> R z !.L.C.U.C.U.E ~ ~ _ x R ].K.).G.Y.A.V.F.C.S.y.X.@.T j ! _ ! X./ R X.~ S x , q j V > 3 ",
"  3 , / F h j > L R ( E N > ( @.+.+.N +., N.!.B.L.v.V./ T T _ ( / $.G.Y.F.F.T.U.C.G.C.9.) ( ( _ s ! [ z x > ( L x F 4 v s N > > ",
"  & N > 3 C ) ~ ! ( s _ > S _ % _ X.R R q n.N.S.T.L.F.~ R X.T R +.x ,.L.B.G.U.N.G.A.B.9.X.X.X.j ( _ o.x v z T Z I +.h C x > @ q ",
"  w b > z L H +.~ H $.( / *.) $./ +.U +.6 B.S.L.K.N.L.E R z / +.h ( _ Q.F.U.U.B.C.A.G.,.R ~ _ ~ +.( +.+.+.L [ Z h ( x h , j > 0 ",
"  & @ > x > b @.~ W q , T W S X.v ( X.R z V.L.x.K.U.P.h ( +.z ~ T _ ~ t.K.S.U.V.F.G.C.y._ C L R +.( X.z +.j v z g , o.~ z a > > ",
"  > V I s > , ( z ~ z z T M _ z _ R x _ , x./.K.L.L.G.j ( R / ( R T R X.L.Z.G.F.Q.K.Z.>.) ^ z +.x R ! R , z ( 4 , > v > > s q > ",
"  > & h & > , & T h , x T , T X.@.R X.! > G.C.U.c.F.N.x R R ( T +.I ~ ( u L.N.F.V.U.F.w.R  .( R ~ s ~ / I ^ j & T H , > > s > , ",
"  > % & , ~ @ , Z , R ~ / ~ z ( ! z +.X. .3 ( Z ( x I T T R +.( v ( h ) R I 0 M ~ ~ ) +.h / / X.I / ( > T s 3 s , , b L & H > > ",
"  s & a & R % j 3 ( z / ( ~ ~ ^ _ ~ / x +.R R R ( R j R ! s Z ! [ R S R M / X.+./ x / h ( x / z N C x , M , / S , & , L > 3 + j ",
"  > , = j x Z I z > , +.z x x z T h ( _ v z J ~ ~ s R T _ R $.z x R Z R T M T a R ! x O.s W R L _ > ~ z & > 3 a b M z 3 6 s & & ",
"  6 L L > ~ x h h a s +.( R ! ( ! T / / T , j L T _ T T ~ S _ g ! _  ./ z , +.a ~ , ~ +./ I T T ! ~ / s ~ > z , s n > > @ s > 7 ",
"  > > , % v z n s / / h s N T ) h ~ n ! ~ ( _ _ z X.T E ..&./ h E ..o._ $.T &.I / , X./ E x , ~ T / x ~ > _ R I j ^ I 7 3 & 3 8 ",
"  > q j > > , & > I ( > n h s ~ +.z x I $.[ > [ z T W % R _ / ] 0 ( @._ [ 7 J ! n E > } E / ~ / ! ( H I I z 3 , I L z % , 5 & % ",
"  & & V I h / h L > T ( , / h Z ] L E x a.!.f S.a / Y.H.F.E E F.(.K.y | ).P.Y.~ [.$ I P.( , X.T 7 / s x z J / ( E ~ ( , a : & > ",
"  > 6 - @ s v s > H n , a h x S n E ( R r.S._.J.C + V., /.;.~ Z.v `.R.x ( J._ x `.. @ P.z I I S z H x ~ j ~ / ! M U & s F + & > ",
"  @ , + 3 > & h s z b ~ N > ( h S / R I s.].F.K.n i C.z /.h.z K.P.K.N 3 I J.) ~ [.).P.J.T _ I v V > h > , & h z T z z 0 > & & = ",
"  > % > + > z x T H / , H > h x M ! s x j.^.3.B.0 ] F.s P.& ( S.] C.x x L C.a j `.$ L m.L / x h ( n 0 > > J h 3 z > 7 , s & % % ",
"  % H , > 3 = @ j > z z N z & , , % 0 _ M.'.0 !.H ] r F.d.R , ~.M [.[.> / ].~ ~ [.$ 6 [.x n s x s h = , , 3 & > s s n & = & @ @ ",
"  @ & + % 3 & % > , 3 4 , S ~ > & b I Z ! x s I x ~ ~ , Z z V , T ~ z Z z / ! , v , ~ z ~ T V I > z > s 4 N j = > & , , & @ % + ",
"  @ * @ @ & > > > & s , > s & / I s > > n s > L > h 0 H 3 > 0 _ T s j z % T z 3 h H > & j h b L & s > > , > & 3 & & 3 & & % @ @ ",
"  % & % = @ & % 3 > S 3 > V & > L 3 h 3 & z > +.h z , 3 > % 3 > 3 > s n z & z R x s h z x > % 3 > V , & I , h n b 7 s & 8 5 & @ ",
"  + = & F % > > , % & , , b 4 , z & > > , M N ( j v h > , L > & h > > q I I j s ( > & & v , 3 3 & & > 3 @ > & > q & % & = 5 = @ ",
"  = % @ = & 0 > = & @ & > & J 0 { > s > & T 3 N , x s L 3 T > , @ > z I s > z x % , > 3 3 s s > , & > & > 3 > > & 6 F & & = @ @ ",
"  # + O + O > + & @ > & & , > > 3 0 , 3 J % > 3 > > n > n < , = , & 0 > & > 0 h > j j , V s h & & > % & & > > > > % % & & + + @ ",
"  @ + O O + O % & & @ 3 % @ > + > > @ > 3 = 4 > 0 H & & > x & & & & 3 > 8 a > , L % % , @ 3 C 8 > 3 > & & & * > + + : @ O @ + + ",
"  o + @ @ o + + @ % @ & % % + & > + + % @ > & & % % & & % & O L @ > 3 @ > @ @ > % q & + & % > + % % % % > + 2 % O + X @ O + @ O ",
"                                                                                                                                "
};
