/* XPM */
static const char *no[] = {
/* columns rows colors chars-per-pixel */
"64 64 254 2 ",
"   c #030201",
".  c #0B0502",
"X  c #0D0904",
"o  c #0B0809",
"O  c #130602",
"+  c #1B0603",
"@  c #140B05",
"#  c #1B0C05",
"$  c #150C09",
"%  c #1B0D0A",
"&  c #1D1206",
"*  c #1C120A",
"=  c #171207",
"-  c #1F1512",
";  c #1D0F14",
":  c #230503",
">  c #220A05",
",  c #2B0B06",
"<  c #240D09",
"1  c #2B0E09",
"2  c #2D0603",
"3  c #340503",
"4  c #3C0A04",
"5  c #330E09",
"6  c #370B06",
"7  c #231307",
"8  c #23140C",
"9  c #2B140B",
"0  c #26180D",
"q  c #2C1A0D",
"w  c #2C1207",
"e  c #34120B",
"r  c #3B130C",
"t  c #331D0D",
"y  c #3B1B0D",
"u  c #3B1007",
"i  c #251412",
"p  c #2A1613",
"a  c #261910",
"s  c #2C1B13",
"d  c #2C1818",
"f  c #331714",
"g  c #331C14",
"h  c #3A1B15",
"j  c #341B18",
"k  c #3B1D19",
"l  c #3B1612",
"z  c #36210E",
"x  c #3B220E",
"c  c #322808",
"v  c #2E2112",
"b  c #342113",
"n  c #3B2413",
"m  c #3C231A",
"M  c #3B2717",
"N  c #460B04",
"B  c #4C0D04",
"V  c #430804",
"C  c #520E05",
"Z  c #560B05",
"A  c #4D1305",
"S  c #43140C",
"D  c #4B160C",
"F  c #4B190E",
"G  c #46170B",
"H  c #551105",
"J  c #5C1206",
"K  c #5D140A",
"L  c #531A0D",
"P  c #5B1C0E",
"I  c #55140B",
"U  c #431C13",
"Y  c #4B1B14",
"T  c #431D19",
"R  c #4C1D19",
"E  c #461710",
"W  c #541C12",
"Q  c #5A1C12",
"!  c #541C1A",
"~  c #631407",
"^  c #691607",
"/  c #641509",
"(  c #6A1609",
")  c #641A0C",
"_  c #6C1A0B",
"`  c #6B1807",
"'  c #721B0C",
"]  c #771C0C",
"[  c #651E14",
"{  c #721E18",
"}  c #44230F",
"|  c #422414",
" . c #442915",
".. c #4A2916",
"X. c #44231B",
"o. c #4B231C",
"O. c #442B1A",
"+. c #4A2B1B",
"@. c #492616",
"#. c #53231C",
"$. c #5B241D",
"%. c #542B1B",
"&. c #582617",
"*. c #4B321B",
"=. c #53321D",
"-. c #5A361A",
";. c #5A200D",
":. c #65251C",
">. c #652A1E",
",. c #6C2A1D",
"<. c #692517",
"1. c #7E2313",
"2. c #742B1B",
"3. c #782719",
"4. c #68391B",
"5. c #7C321A",
"6. c #73341A",
"7. c #6D210E",
"8. c #4C2B21",
"9. c #472621",
"0. c #532720",
"q. c #542C21",
"w. c #5C2B22",
"e. c #5A2720",
"r. c #4C3321",
"t. c #543222",
"y. c #5C3424",
"u. c #5E3927",
"i. c #642C22",
"p. c #6B2D21",
"a. c #722C21",
"s. c #7C2B22",
"d. c #633325",
"f. c #6B3424",
"g. c #6B3A23",
"h. c #643A29",
"j. c #683B29",
"k. c #743325",
"l. c #7A3423",
"z. c #773A23",
"x. c #733B2A",
"c. c #7A3B29",
"v. c #793628",
"b. c #77421F",
"n. c #6C421D",
"m. c #6B422C",
"M. c #794529",
"N. c #7A4831",
"B. c #6F4E33",
"V. c #811F1F",
"C. c #832513",
"Z. c #8A2614",
"A. c #862915",
"S. c #8B2A16",
"D. c #8C2D19",
"F. c #842C19",
"G. c #922C16",
"H. c #912E19",
"J. c #88321B",
"K. c #95331B",
"L. c #9B391E",
"P. c #9A341A",
"I. c #852308",
"U. c #A3391D",
"Y. c #822824",
"T. c #833B25",
"R. c #8B3D24",
"E. c #89382A",
"W. c #9B3C23",
"Q. c #93342D",
"!. c #933C2C",
"~. c #963826",
"^. c #963A31",
"/. c #863D30",
"(. c #A53F2E",
"). c #854A18",
"_. c #83442C",
"`. c #8C432B",
"'. c #8C4A2C",
"]. c #834828",
"[. c #92432B",
"{. c #954B2C",
"}. c #99462A",
"|. c #87532B",
" X c #96552D",
".X c #844C32",
"XX c #8B4D34",
"oX c #844632",
"OX c #924D33",
"+X c #994737",
"@X c #845435",
"#X c #8C5434",
"$X c #8B5C3B",
"%X c #895638",
"&X c #935334",
"*X c #9C5234",
"=X c #945B35",
"-X c #955439",
";X c #945D3A",
":X c #9B5B3B",
">X c #9B5837",
",X c #A64729",
"<X c #A4532C",
"1X c #A9473A",
"2X c #B6493C",
"3X c #A35432",
"4X c #A35C3B",
"5X c #A85837",
"6X c #B65533",
"7X c #9C643C",
"8X c #98643C",
"9X c #A3643D",
"0X c #A46A3D",
"qX c #AA6238",
"wX c #B6653C",
"eX c #C86A3C",
"rX c #9F4D40",
"tX c #BC5648",
"yX c #AD5447",
"uX c #9D6641",
"iX c #9B6842",
"pX c #A56542",
"aX c #A46C42",
"sX c #AA6C43",
"dX c #AC6F4B",
"fX c #B36D43",
"gX c #A57146",
"hX c #AB7245",
"jX c #AD744A",
"kX c #A9764B",
"lX c #B37345",
"zX c #B4764A",
"xX c #B47A4C",
"cX c #BB7D4C",
"vX c #B77748",
"bX c #B57C51",
"nX c #BB7D51",
"mX c #CD594D",
"MX c #C6674A",
"NX c #C37A49",
"BX c #D66759",
"VX c #D87D4C",
"CX c #E37657",
"ZX c #BD814E",
"AX c #B7834B",
"SX c #BD8252",
"DX c #BE8855",
"FX c #C3824E",
"GX c #C28553",
"HX c #C48955",
"JX c #C98E5A",
"KX c #C6895A",
"LX c #C9925F",
"PX c #D3985A",
/* pixels */
"E r r r r r 1 r S S S S G E e Y F e E D W T Y E e S G [ W W Q P <.U.5.<.W.,XJ.W Q F.W Q F D e T.E.4 e e W D Y F Y F S F E | 8 $ ",
"e < # 1 l 1 1 w 9 1 < < e 5 G > # 1 > y r < 9 e 1 < # < r < < > 1 w < 1 @ w e 1 :.+ : + < <.> , /.1X, # O < 8 0 $ O @ # . @ @   ",
"# # 1 @ < # F # # X P > # 1 . # > ) # < O r 8 < r O # # D > % F + 1 < D # > r + # # (.O O , tX+ + w <.w < 1 e , < 3.< Y q @   # ",
"1 e L., e # F.O e G 1.r 5 3.S r r ,Xr S S D.e S D.1 r 1 W.r e 3.u e . H.G r <./ r e !.# r Y.+Xv.< r (.r S F <., r ~.tXf 7 < e # ",
"r 1 r O L #   S S X <.G e #.+ L > 9 r S . u W E S , L 1 O F F . F W + E D D Y   F Q   ,.Y BXs.1 2.O W + ! I D Q W ,.7 0 X < e S ",
". &.D., + 2.;.O > W.D   # 6X>   w W.> O ) ' . < ,XO   F P.> 1 J.L   > eXw   7.S., # 5.~.  9 s.1 l # 2XW.  F 5X<.. ..7     S.> O ",
"r S ) D 5 2 ;.D > 3 + 3.u : S S }.T.4 r 6 P.5.1 3 + W ) 4 I S _.6XP u N 3.F ;.3 N D wX,XS S 2.tX2XD !.U :.+ $ & # } . r e ].6 F ",
"  , # S O r . f.. S O &.> { > . 5 > . O e e 2 O r   2 r S   . > r > + , . _.# 6   . , : V . < Q.E O . O   O   @     , . . # # + ",
"      O       <       O   O                 #       O             @       @     E.#     1X    d.tX      #     9       X       @ ",
".     X X   X X X O O   X @ .     . . . . . @ . . X O . X # # # # . . .   @   . O   O X O @     X # # X X   7     O         O   ",
"@   7 O O 7   O . 0 .   $ 7 X     5 @ $ # O O O & X O X 0 . X t O X X 7 O $   9 O X h .   | y   $ t S 7 . Q tXX O > 7 O   y .   ",
"O @ X @ $ $ $ # @ X #   X 9 $ O $ . & & $ & & $ $ # # @ X & # O # 7 # O # # # $ % # $ e O 7 @ O S <.y . O 2X  @ $ O 9 # # $ $ O ",
"  X     . X X   O X $ X     . O * $ X $ . X . . O O X . X . X X X O O $ $ # 7 $ BXX   2XBX7 1X& O X X 9 . $ h X X @ . @ < # X . ",
"m g s s y.t.p +.h.g g m O X $ n * 8.8.8 q.t.d.y.y.h.h.y.h.h.h.h.j.j.h.d.j.d.d.BX{ MX+XtX:.X.k.Y X n O X f X. .k n h +.X.E.q. .X.",
"m X.8.t.h.t.m.h.y.q.| g q $ 0 g g h.k h.h.y.d.h.d.h.x.h.j.j.j.x.x.j.j.x.M.2Xx.%.2X(.Y 1XX # w 7   t $ $ g +.0 M.f.y.h.f.v.6Xq.q.",
"pXN.N.N.N..X;XuXm.N.CXc.0 # g +.+Xm.d.x.h.oX:X%XXX-X&X&X:X&X-X-XOXOXXX`.^.MXE.v.#.Q.i.1 R +.#X% O t 7 # j.&Xc.E.{.$Xm.T..XoXoX>.",
"@XN.%XN.$XuXaXuX8X7X;Xq.b rXM y.XXE.nXHXXX-X:X#XXX>X:X-XpX:X:X-X-X-XXX&Xv.OXc.[ Y . Q.Q.U c.@ #XX 7 Y 0 _..X1X| 7X8Xx.;X.XN.M.M.",
"pX;Xw I.).).;.).x # 9 u.n # b y.#XdXNXcX:XOX9XfX>X:X>XpX>X4XC.S.C.1.xXnXzXvXvXQ.k.Y.T.3X9X8X7XpX$.# t b #XG U.}. X[ tX4.# h =XXX",
"iX+.r., %.n . } 7 n | t.n # n XXXX-X-XzXHXnXpXfXpXGXxX3XZ.G.Z.Z.Z.C.Z.1.cXvXV.!.Q.1 vXsX,X$ aX*XtXt n g #X=.> L } ^., O M ..7X_.",
"8X8XiXJ ` _ ' _ P s sX8.b &  .N.&X&X&X4X:X>X4X:X9X9XNXZ.C.Z.Z.C.G.Z.Z.C.vXSXQ.2.xXzX^.! 8.2 hX!.l $.z g sXjX3 ] D.Z K A m aXuX:X",
"iXiX$X( _ ' _ _ _ t jX8.n q  .dXsXa.>X5XcXHXHXJXJXVXZ.Z.S.G.Z.C.Z.S.C.<.C.Q.cXHXcX_.E.2 bXK jX^.O b n g zXbX/ ' ] _ ) _ O.gXsX=X",
"aX7X%X~ _ ' PX_ _ n xX8.n q =.-XvXLXsX}.5XlXJXKX0XG.Z.C.Z.Z.Z.C.Z.Z.Z.C.C.S.C.cXsXqXQ.{ xXxXDXbXX z n s xXbX~ _ ' SX/ ( O.gXhX7X",
"iX$X$X/ ] DXLXsX_ b zX+.t q -.7XlXqXGXfXvXxXlXvXC.S.K.Z.Z.S.Z.C.Z.Z.C.1.S.S.1.vXxXOX^.Y.cXxXnXxXO t M s sXxX_ ' bXSXlX) O.jXaXgX",
"gX=.$X/ ` xXDXJ ' O.nXh.n q -.jXJXHXZX4XvXvXcX~.Z.S.S.S.G.H.S.Z.Z.S.S.S.D.] D.C.ZXjXcXcXSXsXcXxXO z n s xXSX` ` cXDX) )  .7XN.aX",
"iXkX;XJ _ P 6._ '  .vXy.| x 4.nXcXcXcXSXZXSXvXC.C.C.S.S.G.S.G.C.Z.S.S.Z.C.wXC.1.GXcXSXcXSXsXxXfX@ t | 0 zXbX~ ( K  X_ / | hX6.aX",
"kXgX$X~ ` P 2.] ( M xXh.n x -.dXcXcXZXHXGXGX/ C.C.S.1.S.S.Z.C.S.1.S.Z.H.C.D.C.C.wXSXSXZXJXxXlXnX@ q n 0 xXSX/ _ ) '.1.( | hXm.aX",
"kXhX%X~ _ 5.( xX~ n fXm. .x M.zXwXcXZXGXHXGXA.C.P.S.K.H.5 G.G.Z.D.S.S.Z.S.S.3XC.C.JXcXcXZXtX&XcX+ t x 0 hXxX( ' 5.( lX/ +.jXgXaX",
"kXhX@XJ ( ` ` / / b SXm. .x |.zXHXHXcXHXHXHXC.C.1.K.H.D.p 2.S.G.D.G.S.S.D.Z.C.C.C.1.ZXSXSXJ.cXfX@ 0 n q xXSX) ( / / / /  .zX=XuX",
"gXkX%X~ ( K '.` / n xXm.x }  XnXHXcXvXGXGXJ.] 5XA.D.S.h f $.S.G.H.H.S.S.S.S.C.S.S.5XGXSXxXSXSXHXO  .n g xXxXJ ( K 0X/ / +.hXhX0X",
"kXkX%X( / K b.KX~ M SXh.t t ].aX3XZXHXGXSXC.1.MXS.S.p p p p i % P.S.S.S.D.A.S.C.S.A.HXcXcXSXSXcX# |  .0 xXSXJ J )  XgXJ +.hXjX7X",
"iX7X$XC K C z./ J  .cXh.t n M.pXcXGXFXZXcX1.C.S.S.S.H.p h i J.D.A.H.D.S.S.1.NX{.NXA.SXHXDXhXcXSX# O.| 0 vXSX/ K H '.K K O.0XaX].",
"sX:X$XC J _ V Z J n JXy.t q ].sXGXcXHXZXcX1.C.1.D.D.S.p f l <.D.A.K.S.D.S.FX<XR.R.C.HXSXSXnXnXGX#  .x O vXxXJ H ) Q H C O.hXaX'.",
"hX0X@XC C SXB K J b cXt.n t ].7XHXcXZXvXxXS.D.A.D.D.; p j h o.S.K.D.K.H.F.<XNX5X}.3XnXZXcXxXNXGX# +.t 8 vXxXC K AXI K C O.sXY aX",
"aX0X@XC J ~ J ~ H b ZXh.n q |.:XwXFXcXcXcXD.D.S.D.f p i i 8 o.9 K.K.K.H.NXwXwXwX6X[.[.SXcXxXR.cX#  .t 0 lXbXC J J C J C | hXdXaX",
"aXhX$XB J C B Z C n SX=.n t M.&XNXs vXGXGXA.H.S.D.D.s p p X.U K.K.L.K.NXv.$.[.d.#.Y l.GXGXGX[.vX+  .b 0 4XzXC J ~ V N C  .sX9XaX",
"sX0X@XB J =XvXN C M lX=.z t M.&Xh p .XGXvXKXP.H.H.J.p &.p U Y K.K.L.MX$.R }.!.e.R Y {.$.GX{.*X[.# ..t 0 pXjXH C z.zXA B ..9XhXx.",
"sXsX@XN z.J >.B B n .Xt.t n n.#X| @X.XvX>XP.L.D.D.F.i i i p i L.L.s.}.[.#.$.W.#.R ! $.i.R *X5X*X#  .0 q sXdXC ;.B 6.A B %.=Xy >X",
"4.Q #XB C J #XH B n '.y.z | M.'.+.p g `.`.<XK.L.p p p i h f f T j p.p.$.a.$.#.R #.o.o.,.i.>.5XwX# t 8 0 sXsXC B A 8XL B O.sXU =X",
"uX9X%XC #X0X3 Z B M [.t.n n n.k p - OXT.T.R.W.L.$.i i i i i p p X.p.#.#.$.#.$.#.#.#.i.w.i.p.p.fXO z 7 q 9X7XC 6.hXA Z B +.sX7X=X",
"uX&X#XN B H V gX4 q '.y.x n 4.p g p i [.R.T.R.W.W.h s p k h X.h :.$.$.,.$.$.#.#.#.#.!.$.l.l.a.k.@ | 7 & 9XaXB C C B sXV +.9X=X&X",
"7Xi.;XN C V C N B y f.o.n x 4.{.'.3Xh o.[.`.}.T.5.f Y :.X.Y >.f :.:.>.$.$.$.#.$.! a.i.w.:.l.k.k.O x # 0 qXpXB B N N N N ..=Xg.=X",
"c.f.&XN B H :XB B t v.%.z 7 4.*X8 8 *X}.#.[.k [.}.p i i i h h f 2.,.p.>.:.$.:.:.Q $.i.w.T.k.* l.O 9 % 7 c.:XB B N S N N ..>X].&X",
"R.%.>.N B N B B B 9 d.%.z 7 4.i i ; =X3X4X{.k 3Xp p p p i i p p s l.T l.k.,.>.$.>.v.i.i.p.% % /.# 7 7 7 c.f.N N C C N N %.>X{.U ",
"d.s f.N C 7X@XC B 9 .X%.0 & n.i p d p NXwX>Xk h p f p p h p p h #.X.h T.,.,.a.,.p.l.`.T.T.f % i # 9 # 8 _._.B C hX;XB N +.{.m `.",
"c.s d.N H 6.N OXB U g y.q 7 4.i i p p i p X.m k h p k f k p h f o.X.X.T {.T.[.[.T.k.i.>.i i 8 i . 9 7 0 {.M.B H 5.N #XN @.'.s {.",
"'.s j.N A B aX=XN w g m 0 7 4.p p * i i i i p X.h k k X.j o.j l h p o.h h '.R.[.{.OX3X{.`.R.i i X 9 0 * U s B L P iX7XB %.i M.&X",
"l.U s 4 C 8X7XN B X s * 0 9 -.p h s i f j i i i 8 X.T h X.#.k o.m j T T k X.k 3X3X3X3X% i i p 8 . x q X @. .B B 7X7XA B | 4XU `.",
"p s s 4 N 7XgX>.B . oXp 0 t -.8 i i p h f f i i i s p p s o.R o.l.p.#.o.f.$.f.c.'.v.$ g i i 8 p o t q   i 8 N B 8X0X4.N $ g p h ",
"p T.0 + N B B B N   s s t t -.% p [ i ; o.o.h j p p f k f i p p h j mX#.i.k.v.v.X.w.8 8 i s i i $ t q . >.s 3 N C B B 4 $ -.g g ",
"X.g p + : 2 3 4 4   i i q t -.8 * 8 Q.i i % #.T 0.#.o.k X.w.#.d.w.e.w.f.k.w.k.f i i i p s f n p $ n q . w - . 3 4 4 N B   n g _.",
"m g s # @ . $ O X . m s t t -.8 i $ % i i * - i k.,.$.$.w.e.#.i.w.0.w.w.+.% $ 8 s m k 0.p * * i $ q q X @.g . O X X . . O b &.n ",
"9  X=.s | %.+.U o.q ..* t z -.z g.s p k j f g j p i f 0.o.e.#.0.w.0.w.w.e.#.i.o.2Xh % ! i g p * . b 7 . g | t g n n n X $ & 0 s ",
"& n s 8 * * b g b -.q & n q -.* $ k h k j f k j f h k o.o.w.p.X.0.e.k k s 1Xk f i s i & O 8 * & o 0 0   s 0 PX0 8 & * * a b $ * ",
"$ O   = O X . o 0 X = X b q *.  . $ $ 0 s m k b a m X.f #.%.g &.%.T 9.j j s s.% 0 a 8 X 8 O X $ X 7 0 .   . O O * X X X $ # X X ",
"g   g M M $ * n   n m b q n t & b & *.* M 0 O.O.+.O.g O.M a *.7 n  .n q +.O.b X.n s +.s 0  .n  .. 0 7   g g b g b g 0 * 0 8 * & ",
"s   s b O.      X g s a q 7 b   X h X = @   m s O.r.@ n b   @ o b M  .g M n b g 0 * 8 8 = b m s . 8 *   8 * b = s b t 8 * 0 * 8 ",
"$ . $ s * M O.| . . X * # # z X b g X O.%.0 * s b s s 8 O.  h qX0 0 s $ * 0 s s ! 5   .   $ @ $ . & @ .   . .   O * 0     X $ $ ",
"u...  . . X * * X 4.*.  r.B.h.X 0 *   M *.  g.X X 2X1XO   O.g b O   5.v.Q.  X @ b . s X q BX  . 8XN.b 8X* ..8 n t X i.n b . . 8 ",
"s g = 7   & $   |.  0 $ 0 M b   *   p.0 s 0 O.t b n b b X M 0 a 0 +.g g q 0  .g & a 0 $ q # O 8 q q b b X 7 s v v * - s 8 X & & ",
"a $ . * * 0 & ,XO   # 0 # s *   & i r   . 0 s * 8 b b s q 0 , 1 $ g b g B.0 8 $ q @ & @ 0 2X    v * q 0   8 $ 0 $ @ = = * . & 8 ",
"& $   X @ $ $ X X t yX$ * = 0   X y 9     mXX $ @ 0 8 * . k.^.1   l.1X8 8 X $ * :.* X @ .       * = * & Y.    $ O .   . X * * . ",
"    .     9 O # @ O     .   O     X   .       X X X X   .   . .           O X X     . rXR       @ &   c X @   < .       .       ",
"X # 7 7 7 # @ O   . O O     . 7 @   . 7 # # 5 9 # O . @ O 7 O @ 0 # # O # t X $ # # & 7 # @ O =.  X . $ O 7 8 # X O w @ O @ @ # ",
"O . # O O + # # O   O   . O X .       + O O +   > > > + + # O O # + > + # @ # # O . . O . @         . . .   O O   O . .   .     "
};
