/* XPM */
static const char *wall[] = {
/* columns rows colors chars-per-pixel */
"64 64 184 2 ",
"   c #2F3923",
".  c #33332D",
"X  c #363531",
"o  c #3B3B35",
"O  c #3D3D3A",
"+  c #403F3B",
"@  c #3D4334",
"#  c #3F4835",
"$  c #3F423B",
"%  c #414536",
"&  c #434D36",
"*  c #42423D",
"=  c #48453F",
"-  c #444B3C",
";  c #455136",
":  c #46523A",
">  c #49543D",
",  c #49583C",
"<  c #3E4041",
"1  c #444542",
"2  c #484744",
"3  c #464944",
"4  c #4A4A45",
"5  c #444748",
"6  c #464A48",
"7  c #4C4D4A",
"8  c #504F4C",
"9  c #4D5445",
"0  c #4E5A44",
"q  c #4E514C",
"w  c #4F5B4A",
"e  c #505447",
"r  c #525D45",
"t  c #52524D",
"y  c #545A4C",
"u  c #4C4F50",
"i  c #4E5151",
"p  c #545552",
"a  c #585755",
"s  c #565A54",
"d  c #595A55",
"f  c #59565B",
"g  c #565B59",
"h  c #5C5D5A",
"j  c #605F5D",
"k  c #546244",
"l  c #576B47",
"z  c #56634D",
"x  c #59644D",
"c  c #5B6A4C",
"v  c #5D734D",
"b  c #566150",
"n  c #5B6354",
"m  c #5D6B54",
"M  c #57625A",
"N  c #5D625D",
"B  c #5E6C5C",
"V  c #5E7255",
"C  c #5D715B",
"Z  c #616C56",
"A  c #61635D",
"S  c #69675F",
"D  c #626C5B",
"F  c #627354",
"G  c #63745D",
"H  c #6B775D",
"J  c #657A5C",
"K  c #6B7C5D",
"L  c #5F5E62",
"P  c #5D5F6D",
"I  c #615F62",
"U  c #605F6A",
"Y  c #5E6463",
"T  c #5F6964",
"R  c #5E626A",
"E  c #5F6968",
"W  c #5D7061",
"Q  c #5F6170",
"!  c #636563",
"~  c #686765",
"^  c #636A65",
"/  c #6A6B65",
"(  c #62656B",
")  c #686769",
"_  c #646C6B",
"`  c #6A6C6C",
"'  c #716F63",
"]  c #647363",
"[  c #697366",
"{  c #657863",
"}  c #6A7B64",
"|  c #66716D",
" . c #6A736D",
".. c #667968",
"X. c #6A7A6C",
"o. c #727266",
"O. c #747C67",
"+. c #73756D",
"@. c #7A776D",
"#. c #727A6C",
"$. c #7B7B6D",
"%. c #646571",
"&. c #666D71",
"*. c #6A6E73",
"=. c #6D6E79",
"-. c #706F7B",
";. c #667171",
":. c #6C7373",
">. c #6E7974",
",. c #6E7479",
"<. c #6F7979",
"1. c #727573",
"2. c #787772",
"3. c #737A75",
"4. c #7B7C74",
"5. c #71757C",
"6. c #747B7B",
"7. c #7A7D7B",
"8. c #6B815F",
"9. c #6D8361",
"0. c #748363",
"q. c #768B60",
"w. c #73846C",
"e. c #79826E",
"r. c #7B8B6C",
"t. c #7F916F",
"y. c #6F8073",
"u. c #758275",
"i. c #7B8374",
"p. c #7B8975",
"a. c #76817B",
"s. c #7B827D",
"d. c #7E897A",
"f. c #818276",
"g. c #82837C",
"h. c #88877A",
"j. c #848B7D",
"k. c #8B8B7D",
"l. c #849173",
"z. c #87917B",
"x. c #8A947D",
"c. c #8D987E",
"v. c #93937F",
"b. c #6F7080",
"n. c #747681",
"m. c #767C81",
"M. c #797D83",
"N. c #7B7F8A",
"B. c #807F89",
"V. c #778281",
"C. c #7C8382",
"Z. c #7E8881",
"A. c #7E838A",
"S. c #828583",
"D. c #888782",
"F. c #848A85",
"G. c #8A8D84",
"H. c #83858A",
"J. c #858B8A",
"K. c #8B8E8A",
"L. c #908F86",
"P. c #908F8F",
"I. c #879081",
"U. c #8C9284",
"Y. c #8D9982",
"T. c #8D928B",
"R. c #929485",
"E. c #949986",
"W. c #989C87",
"Q. c #92948B",
"!. c #98978B",
"~. c #95998B",
"^. c #9B9B8C",
"/. c #8B8C91",
"(. c #8F9190",
"). c #8C9291",
"_. c #949391",
"`. c #949591",
"'. c #969992",
"]. c #9A9A91",
"[. c #9B9C93",
"{. c #9FA18E",
"}. c #A3A293",
"|. c #A1A198",
/* pixels */
"5 7 7 6 6 1 1 * * 1 1 3 7 3 7 7 7 2 q 7 2 1 1 O o o + * + O o o 1 p p p p 8 8 2 * - 4 7 2 * $ O 1 7 7 O O $ 1 1 1 1 1 6 1 1 3 5 ",
"i h ! / / / o.o./ t 3 y b z z b x n s 2 7 p p j / @.f.4.4.A o 4 g.K.T.Q.R.R.G.i.0 k #.i.i.4.+.+.f.G.7.3 7 )  .1.3.4.4.4.4.3.Y 5 ",
"T.].[.[.[.^.W.^.Q.h A z.z.l.l.l.q.r.X.7 ` Q.].]._._.P.J.G.1.1 A T.K.J.C.3.s.s.3.0 D U.Q.~.~.Q.U.~.'.F.q ` T.U.T.T.Q.[.[.[.'.C.i ",
"`.(.(./.J.A.u.u.3.t ^ X.....} G V J ..s 1._.(.K.H.B.m.-.*.) 9 ` J.H.V.<.:.5.:._ 3 N 3.s.C.a.>.X.X.3. .7 ^ 9.8.a.C.C.V.V.a.3._ i ",
"J.6.5.5.5.,.:._ ^ t D ..] ..{ { { ..[ 7 ! 6.a.A.M.b.%.%._ ~ 9 ~ 6.:.&.&.,.:._ ^ 7 A ] _ ;.;.:.| E _ ( 7 D J { 3.6.<.<.&._ | N 7 ",
"H.:.5.n.n.n.5.&.) t n ] ..3.w.u.>.>._ 4 A :.6.n.-.=.%.%.` ) 2 h | _ *.=.*.] T ( t N T Y ` >.m.5._ _ ^ 3 ! | | :.,.,.<.;.;.| h i ",
"V.;.:.n.n.5.5.*.) 4 s ]  .3.#.3.1.:.~ t d  .` *.=.=.*.` ` A 2 g ` &.&.*.,.,.` ) 8 p T T ( :.5.:.` ` ! 1 g | _ ( %.Q %.&.` ` d i ",
"^ Y ! ~ ) ) ) ~ A 2 p ~ ~ A A A ! A h t 8 h h h h j h h d 7 1 6 g h d d d h d p 2 3 p g h h N h h h p 1 i Y N h h f h h h d q 6 ",
"s p t 7 2 2 2 2 4 * 7 d p p t t a d p t 2 1 2 7 t p p t p 7 7 6 3 3 1 < O O O * 1 1 3 1 * $ * * * 1 < < 1 1 7 7 7 u 7 i i 7 i p ",
"Q.G.F.i.N * 7 ~ 2.2.7.D.g.g.g.2.d A ) / S / @.g.D.1.p h 4.D.G.G.G.G.G.g.s O s K s.d.i.4.4.#.N 1 N :.2.2.+.1.2.1.7.! u 6.F.G.T.Q.",
"(.T.T.J. .1 ! [.|.}.}.}.}.}.[.F.h 7.Q.Q.Q.].[.[.`.7.h D.T.a.6.V.6.6.a.a.! 1  .w.s.Z.F.T.Q.T.3.p S.T.T.F.K.Q.T.K.F.` u S.(.(.(.(.",
"6.6.6.:.! * A H.J.C.a.S.J.G.C.` t 1.6.:.m.S.J.J.6.~ a S.:.&.;.<.<.:.<.;.Y 3  .:.6.m.6.a.a.3.! p } w.A.6.6.m.6.>.;.N 7 C.V.C.m.5.",
":.&.&.;.! 2 ! :.3.6.6.6.X.:._ d - D :.=.5.5.:.:.:.h t 6.:.&.,.n.5.>.<.:.d 3 ) ;.M.A.N.m.;._ N q >.a.V.6.<.5.m.5.;.d 7 6.;.:.,.,.",
":.&.;.;.! 4 ! 6.6.6.6.5.:.` ^ s # D ^ ,.5.,.*.:.:.a 9  .>.:.,.n.n.<.<.:.h 1 Y _ X.3.m.5.;._ n 7 ] :.;.&.%.%.%.&._ s 7 :.;.&.:.<.",
"&._ &.&.A 4 ~ 7.1.1.*.1.` m b y 7 ^ ^ 5.5.:.:.*.) t 9 B  .&.*.=.5.5.:.` a 2 N V v G ;. .| _ d > T  ._ _ R P R ( _ p 7 ;.| ` ` &.",
"h h h d t 2 d ^ ! ! ! A n l k : - N  .:.) A h h d s r z B h h d d d d p q 7 q w r s d h h n y 9 s s s h d d d h d 7 7 N N h h N ",
"+ O + * * 7 2 * * * 2 y z l k > - 9 d h d p t 0 0 s n m n d h s w 9 9 6 7 7 7 1 1 1 2 7 4 9 9 q q 2 1 7 7 7 7 7 1 1 1 7 3 1 1 1 ",
"* * h )  .1.2.2.4.2.4.#.x c H O.$.f.h.G.G.G.G.A ^ s.j.F.G.G.j.p.J 0 w B ^ ^ ^ Y h x n t 9 0 b D D A h h h h i p ! / ) ! d p t 7 ",
"A ! ].].].].[.[.[.~.Q.i.z F c.~.~.R.Y.E.[.[.Q.h 4.T.T.H.a.a.u.w.K 0 G l.z.T.Q.`.T.z.j.[ e n x.E.W.^.^.Q.Q.s.p  .K.K.G.G.Q.Q.Q.K.",
"p ~ F.C.C.S.H.H.H.S.s.^ r F j.s.s.3.[ D 6.6.+.8  ...3.6.:.>.>.} m , D } ..a.V.V.6.>.X.~ e D E.U.T.T.F.C.C.6.p 1.6.3.6.6.7.A.S.A.",
"p ~ 6._ ;.3.6.5.6.:._ ! 0 D a.3.>.....>. .^ ! t [ ..:.<.;.` ] C x : m G ..a.A.A.6.:. .~ q ^ F.s.H.H.A.V.6. .p ` :.3.a.C.C.7.6.6.",
"7 N :._ ;.6.6.6.6. .T A 7 N 3.>.X.[ } X. .] ~ a [ | | | _ ^ ^ D x : m C ..6.m.m.<.:.;.! 4 ~ 6.5.C.C.m.6.:.) t ) >.a.F.J.S.A.C.7.",
"4 z  .` ` 1.1.1.1.` _ ! 7 h >. .] G G ^ _  .) d _ | _ ) ` ` ` ^ k ; x ] X.:.,.5.,.&.` j 7 ~ :.<.m.M.6.:.| ~ 8 ! :.3.6.7.s.s.4.+.",
"9 0 N h h A A N A A ! h 7 p ! A A A A A N N h 8 s h h h h h d a 9 - 9 N ~ ) ~ ! ! h h p 7 h ^ ! ! ! ! ~ ~ h 7 p ! ~ ! D D m m x ",
"- 3 7 1 * - - * 2 2 7 7 1 7 7 q t t d h h h h p t 4 1 2 = 4 t t p p d h d f p 4 2 2 2 1 2 8 t 7 7 t 7 7 8 7 1 * * 2 3 & & & & & ",
"0.e.s.4. .q * / f.f.2.+.+.#.#.+.p d g.K.Q.Q.Q.Q.G.7.t t 7.L.Q.Q.Q.Q.Q.Q.G.~ 8 a h j h h ! ) ! p p ~  . .1.` ~ h d t 3 0 G H K K ",
"I.I.I.F.S.d 2 Q.G.D.G.G.U.U.j.j.^ ) '.T.T.`.Q.G.j.j.h A [.Q.].'.'.K.F.J.J.! d G.W.^.^.^.^.^.~.) N Q.~.~.[.[.[.].'.s.7 Z Y.x.I.I.",
"s.s.a.a.3.s 2 3.T T ( _ _ | ..X.N ) S.3.m.C.6.3...[ d A F.F.T.F.C.6.6.6.1.p h S.s.F.F.F.F.S.a.N ! s.a.Z.A.M.5.3.3. .7 D d.u.u.i.",
"] ] |  .` t 1 [ T T ( %.&.` | X.N +.a.>.6.A.S.S.3._ t A S.S.s.3.5.M.C.V.:.t d 6.a.V.A.V.V.6.:.s N u.>.V.A.m.*.&.:.~ q N } ] B ^ ",
"..] _ T ) t * ^ _ ^ ` _ _ ;.X.` h ` 3.:.3.a.a.3.>.^ t ! 6.:.:.;.5.m.m.5.` t h 6.>.6.5.5.5.<.:.s Y 6.| <.5.:.&.( _ ! 7 N { G G { ",
"[ ` ^ ] / t $ s ] B z M &.;.| ` h ! :.| _ _ _ ` ` ! p ! :.X.| ` *.:.:.:.~ 7 h 3.<.5.<.5.<.:.` p h 6.` ;.*.&.&.T ^ ! 7 h X.[ { { ",
"n N D v c 3 o > 0 n d n A ! ! ! p s ! N h d d a a p t d A N h h ! ! ! h p 7 s ` ` &.&.` ` ) ~ p p _ ^ ) ~ ~ ( ! ! d * 7 N N n b ",
"o O * & % o o .   @ * 3 7 t 7 1 7 p 7 2 4 2 * 2 1 4 8 t t t 7 2 e d h A A A ! ) h 7 7 t p s s p i p p p 8 8 p 7 7 3 1 7 q q 3 * ",
"o 2 h A S ~ ~ S n r 3 7 ~ 1.1.1.3.7.1.~ 7 7 A f.g.h.k.h.G.D. .0 e i.Q.Q.R.U.Q.T.G.h 7 3.s.s.w.f.g.g.D.S.g p s.D.D.D.G.G.G.G.j.4.",
"* 2.[.].^.E.Q.^.R.s.y t R.^.[.}.[.[.|.T.h d Q.'.K.S.1.:.:.:.] y y s.s.3._ _ :.;.| p s T.J.J.H.F.J.H.a.6.p p K.6.V.C.S.A.a.a.s.6.",
"1 #.U.S.3.3.6.7.6. .q p j.D.s.C.C.S.J.a.h h K.a.3. .( ( ( ( ^ y y s.6. .T _ ;.;.^ q p H.J.J.A.V.V.6.| T 7 p C.;.:.,.5.m.5.<.:.| ",
"2  .i._ Y ^ ` ;.&.T 4 p F.a.;.;.:.<.<.:.d p 3._ ^ ) ` ( _ ( ^ y d a.>. .^ ` :.;.) 7 p a.a.V.6.<.<.:.E ! 7 h C.&.&.*.,.5.5.;._ ) ",
"7 ` 6._ ^ _ ;.5.<.;.- p J.a.` &.&.:.:.:.d 7 ^ T T ^ _ ( ( ^ ) p s 3.:._ ( ` ;.;.) 7 7 | E _ &.&.&.( R ! i h 6.E R ( &.&._ ( _ ) ",
"7 T ;._ ^ ) X.3.6.:.t q 7.:._ ` &.&.;.:.d * N ^ ~ ~ ) _ ^ ! A 7 7 ^ ^ Y Y ^ ` ` ) 7 1 N N Y T ( _ ( Y Y q g ;.E T ( ( ( ! ! ) ! ",
"7 g h p t t t s p t 2 3 Y ! ! ! ! ~ ~ ~ p + 2 t p t t 7 4 2 * + * 7 7 2 2 2 t t t 1 o o * 2 7 7 q 7 7 q 7 i s p 7 7 8 7 7 7 7 q ",
"j h p 7 1 1 1 2 1 1 1 1 1 7 8 p t 7 4 4 2 + o * * + o o O O 1 7 q p p 7 1 O $ * 7 s s t t p t 7 1 1 7 9 6 7 6 < * 1 2 1 1 7 p h ",
"'.Q.Q.G.k.4.8 7 ) +.+.+.2.f.D.G.2.7 7 ` 2.4.f.g.h.2.h o 3 4.g.G.U.R.U.G.S.1.* p G.Q.W.E.v.E.R.S.p ^ d.d.i.i.i.i.g.D.S.f h G.Q.'.",
"S.S.g.g.g.+.t 8 D.G.G.D.s.7.3.3.3.p ! [.Q.D.j.Q.Q.T.3.* h T.F.F.S.S.F.F.H.3.1 s J.J.F.>.^ 6.C.C.N [ p.p.i.d.j.d.S.F.S.d ` '.6.7.",
"&.` ` ` ! ! t 8 6.6.6.:.&.( T Y ^ t ) Q.3.^ _ 3.6.:.! * N S.a.6.>.>.a.a.3.^ * s Z.H.a._ ^ 6.a.3.s D w.u.>.y.>.X.6.6._ p ` 6.( ` ",
"*.*.*.` ! ! p p 1.6.6.,.=.( Y Y ! 8 ) F.1.:.:.1.` ( A - b u.>.>.5.6.6.:.:.! * p  .| ^ ^ _ |  .^ 9 B X.X.X.>.X.:.6.6.^ t ` :.` :.",
"1.*.*.) ! ) a p ) _ *.&.( R L Y ! 8 ) 7.:.1.:.:._ ^ Z > r ] ] >.V.A.C.6.6._ * t ^ T ] :.:.X...D 9 x C C W ] _ &.` ^ d t ~ ` ) *.",
"` ` ` ` ) ) p 8 Y Y ( ( U ( ( ! ~ 8 ! :.:.&.` ` [ D Z > , m B X.3.M.6.6.6.~ * t _ ^ :.6.3.3.[ D 0 w m m C ] _ T Y Y s 7 N ) ~ ) ",
"p p p t t t 4 7 p a d h h L I ! h 4 t N A I ! N n x k > : 0 0 y s h h h p 2 * 1 q p p h h N N z - - - > 0 e t q 7 4 7 7 p p p p ",
"7 7 2 1 1 2 2 7 7 7 2 4 7 7 8 2 2 1 2 1 2 * * 2 4 > r k k r y y p 1 O o X O * 1 1 $ O o o $ % % @ @ o $ 1 1 1 < O O < 7 7 7 7 7 ",
"d p 8 ` 4.4.f.f.g.h.g.g.3.p 4 ) 4.f.g.f.f.4.f.4.s n j.l.c.R.E.^.Q.1.1 O  .k.k.k.k.f.4.+.! 3 $ z m m n N Y Y N 6 O i h ~ ` ~ ! Y ",
"K.` h '.].Q.Q.Q.Q.Q.R.G.7.h 8 G.'.'.'.T.F.s.4.3.h / Q.U.G.F.F.S.S.6.7 q Q.G.R.Q.R.G.k.j.s.h 7 j.c.x.Y.R.Q.T.T.N p J.T.T.Q.Q.x.Q.",
":.! j _.K.3.:.:.` ) ) ) ) a t F.F.F.F.C.6._ T ) d ) H.6.3.1.6.C.S.6.p s s._ ;.:.<.&.( T Y q q F.Z.Z.a.6.6.3.>.p p 6.>.a.C.V.3.1.",
"! A d K.F.1.5.6.5._ ! ~ ) p t g...u.u.u.>._ _ _ a h :.^ ) &.M.J.J.6.t p  .Y ( 5.5.*.&.( Y 2 q s.6.m.m.<._ >.>.s q :.:.3.3.X.^ ^ ",
") h d K.S.6.5.5.&.) ^ _ ) a y i.G G { ..] ] _ _ p p  .T ;.6.J.J.A.:.t p _ Y ( :.:.&._ T N * q X.| m.M.n.( ( ` p 7 _ _ _ ] D B ^ ",
"` h p s.6.` ` ( ( ) _ ` ) s e } F m m D ^ ~ ~ ! t p | _ ^ ) :.:.` ~ t 7 Y Y T ^ ` &._ ) d $ 0 ] T 5.m.5.` E ) s i T ^ ^ D V m D ",
"N p 7 d z y p a d d d d a 9 r n x x x z y e 8 4 1 3 p p p 7 t t 7 4 1 * 2 2 7 q t y t t 2 o - s h ! ) ( Y ! ! p i g s x x n z d ",
"h d d d s p 7 2 7 7 t 7 2 q y y r 0 , 0 0 y s p 7 q 7 1 O o 1 2 2 7 7 7 q 1 * $ - : @ X . . . o o O O * 1 3 3 6 1 $ $ & , 9 9 s ",
"U.R.!.Q.Q.G.! 1 s 1.2.4.7.s.d.i.0.H y } r.j.T.Q.T.K.S.s 1 ` g.G.R.R.R.G.G.F.! O h 2.+.+.o.' o.S 7 O !  . .+.1.1.1.` N 0 9 O.f.U.",
"G.T.K.S.C.C.! 1 7.'.[.[.[.{.W.c.t.w.x p.d.U.T.Q.D.3.:.s * s.j.s.i.s.s.s.6.3.h O 2.F.H.F.K.Q.Q.Q.^ 3 K.T.T.U.G.R.R.R.I.D y U.U.U.",
"u.a.6.:.:.:.! 1 7.K.F.a.6.C.s.u.#.^ s i.u.s.C.6.:.( ( p *  ._ _ ` ;.1.6.;.` p + 1.6.6.3.C.A.6. .g 7 7.>.:.&._ &.3.a.>.n b j.a.a.",
">.5.<.&.&.` ! 2 7.C.3.] | >.>.:.:.N p s.>.:.:.:.&.( _ p * _ Y _ 3.6.6.6.] ^ t + 1.3.>.6.V.M.6._ h 2  .` :.*.*.,.<.6.1.s N j.>.>.",
";.| &.&.&.` ! 7  .3. .X.>.6.:. .` h 8 6.:.;.&.*.&.( ( p 1 ^ ^ :.6.6.3.3.X.^ p * 1.| ` :.6.m.<.^ d 3 [ _ *.*.=.=.` G ^ p h H.>.:.",
" .` ` ` ` ` ! 7 N  .] :.1.1.:.` ` A 7 ;.:.;.` &.*.` ) t 1 ! ^ :.1.1.:.:.:.) t 1 [ _ T _ <.6.| ^ d 1 ^ T _ =.5.=.] F D q i 3.;.;.",
"a d d d h N p 2 p h n A A h A ! A d p ( _ ! h p p t t 1 + t d h h h h h a t 2 1 N ^ T ^ ^ ^ A N t 3 N h N ! ( ! n c h 7 6 s s p "
};
