/* XPM */
static const char *north2[] = {
/* columns rows colors chars-per-pixel */
"64 59 249 2 ",
"   c #050404",
".  c #0B0503",
"X  c #0D0906",
"o  c #070708",
"O  c #070909",
"+  c #0B0B0B",
"@  c #070808",
"#  c #130503",
"$  c #1B0503",
"%  c #130A06",
"&  c #1B0A06",
"*  c #130D09",
"=  c #1C0E09",
"-  c #0F100C",
";  c #131206",
":  c #15110B",
">  c #1B130C",
",  c #1C190B",
"<  c #1B1507",
"1  c #0E0E10",
"2  c #100F11",
"3  c #0F1010",
"4  c #141313",
"5  c #1A1612",
"6  c #1B1914",
"7  c #1C1C1C",
"8  c #171818",
"9  c #230503",
"0  c #240A06",
"q  c #2C0906",
"w  c #210D08",
"e  c #2B0805",
"r  c #330503",
"t  c #3C0603",
"y  c #340A05",
"u  c #3B0B05",
"i  c #350D08",
"p  c #23120B",
"a  c #2B160C",
"s  c #221B0D",
"d  c #2E190E",
"f  c #321A0E",
"g  c #3A1D0E",
"h  c #34140C",
"j  c #211711",
"k  c #241C13",
"l  c #2A1D14",
"z  c #251E1A",
"x  c #341C10",
"c  c #3A1E12",
"v  c #1F201B",
"b  c #24220B",
"n  c #2C290C",
"m  c #31290E",
"M  c #36360E",
"N  c #2C2215",
"B  c #23221D",
"V  c #2D231A",
"C  c #292615",
"Z  c #322316",
"A  c #3C2112",
"S  c #332914",
"D  c #32261B",
"F  c #352A1D",
"G  c #3B2C1D",
"H  c #3A261C",
"J  c #3D321C",
"K  c #3A3712",
"L  c #1E1E21",
"P  c #1F2022",
"I  c #232324",
"U  c #2A2624",
"Y  c #2A2A25",
"T  c #262629",
"R  c #272829",
"E  c #2C2D2C",
"W  c #292726",
"Q  c #332A22",
"!  c #3B2D22",
"~  c #322C2B",
"^  c #2F302E",
"/  c #3E3123",
"(  c #32322C",
")  c #343226",
"_  c #2F3030",
"`  c #333333",
"'  c #383938",
"]  c #2F2F30",
"[  c #430B04",
"{  c #4B0D04",
"}  c #420E08",
"|  c #4B0D08",
" . c #4F0602",
".. c #530B05",
"X. c #5B0C06",
"o. c #5A0E09",
"O. c #550F0B",
"+. c #4B130B",
"@. c #471309",
"#. c #53130A",
"$. c #5C130A",
"%. c #5B190B",
"&. c #591D12",
"*. c #650D03",
"=. c #670D07",
"-. c #64140B",
";. c #6B140B",
":. c #62190C",
">. c #6D190C",
",. c #6A1105",
"<. c #72160B",
"1. c #74190D",
"2. c #7A1A0D",
"3. c #791507",
"4. c #6D1209",
"5. c #412313",
"6. c #442D1D",
"7. c #482718",
"8. c #582517",
"9. c #42341D",
"0. c #4A311D",
"q. c #5F311D",
"w. c #6E220E",
"e. c #66200E",
"r. c #74210E",
"t. c #79260F",
"y. c #752610",
"u. c #7C2511",
"i. c #7B2B12",
"p. c #732A11",
"a. c #732E16",
"s. c #442F23",
"d. c #443424",
"f. c #4A3525",
"g. c #4B3926",
"h. c #44362A",
"j. c #46392B",
"k. c #4B3B2B",
"l. c #4A3729",
"z. c #543A24",
"x. c #523D2B",
"c. c #573827",
"v. c #463B33",
"b. c #543B31",
"n. c #693A26",
"m. c #43440F",
"M. c #494915",
"N. c #5B4A1E",
"B. c #54412D",
"V. c #5B442E",
"C. c #564324",
"Z. c #4A4234",
"A. c #544332",
"S. c #5C4632",
"D. c #5F4833",
"F. c #5A4B37",
"G. c #4F402E",
"H. c #61442E",
"J. c #67492B",
"K. c #75442D",
"L. c #644C34",
"P. c #694D33",
"I. c #614D39",
"U. c #6A533B",
"Y. c #6A5136",
"T. c #74593D",
"R. c #7B5B3D",
"E. c #765537",
"W. c #774F36",
"Q. c #3E4041",
"!. c #464846",
"~. c #565755",
"^. c #4E4F50",
"/. c #755C42",
"(. c #7B5D42",
"). c #6F5A40",
"_. c #7D6145",
"`. c #7D6449",
"'. c #776346",
"]. c #811C0D",
"[. c #891D0D",
"{. c #881E0F",
"}. c #842611",
"|. c #832B12",
" X c #8B2A13",
".X c #8C3316",
"XX c #8C3519",
"oX c #883917",
"OX c #953B1B",
"+X c #983719",
"@X c #88240F",
"#X c #A13C1C",
"$X c #843623",
"%X c #97441A",
"&X c #8D4119",
"*X c #AA421D",
"=X c #AF511E",
"-X c #8C5633",
";X c #A24B2B",
":X c #83603D",
">X c #826344",
",X c #836649",
"<X c #85694C",
"1X c #8D6C4C",
"2X c #8B6845",
"3X c #916D4B",
"4X c #906540",
"5X c #94724C",
"6X c #9A764E",
"7X c #896E51",
"8X c #8D7355",
"9X c #947453",
"0X c #9A7653",
"qX c #9B7955",
"wX c #957A59",
"eX c #9D7D5A",
"rX c #957955",
"tX c #A17E5A",
"yX c #A27C55",
"uX c #AD7348",
"iX c #9B825E",
"pX c #A4825D",
"aX c #AA845E",
"sX c #AB8759",
"dX c #AF8458",
"fX c #9D8564",
"gX c #A58461",
"hX c #AA8662",
"jX c #AD8A65",
"kX c #AE8D69",
"lX c #A38A65",
"zX c #B28D65",
"xX c #B28F69",
"cX c #B5936C",
"vX c #B9956D",
"bX c #BA986E",
"nX c #B69165",
"mX c #B69570",
"MX c #B99770",
"NX c #BC9A73",
"BX c #BD9C77",
"VX c #AF906A",
"CX c #C19D75",
"ZX c #C09F78",
"AX c #D19B67",
"SX c #C4A27B",
"DX c #CAA271",
"FX c #DBB07D",
"GX c #D49A62",
/* pixels */
"z U I U W ~ ` Q 4 ~ W U B V B 4 7 I 8 7 E I I W W W T T W T T P T E T W R T P W R T 8 W T T 7 7 I I L L P P 7 4 I E W T L L R + ",
"H f.s.c.b.x.b.~ z b.x.s.f.s.~ I ~ ` ` ` ' ` ` v.' E ^ E ^ E ` E ` ` _ ` ' ' E ` ` ] 4 E ` ` W W ` ) E R E _ E 7 ` ` ` ` E Y ` + ",
"  * . & p p > > p %   @ @   @ + : 4 4 4 5 + @ +         + + + + o   + + + + + +       + + + + + + + @ o + 3 + + 3 + * p +       ",
"l K.7..     . . .   j T.! :   . + 4 * +     I ~.L       @ + @ 4 E 4         I ~.7               o 4 Q.^.7 o + +         4 ' I   ",
"7.q.7.& + > : 4 + @ Z J.! B + 7 I v B 7 + + I E 7 1 + B v B B E E I 4 4 @ 4 7 ' 7 + + B I B I v 1 P ` !.L + 4 7 7 7 4 + 7 ` I   ",
"B B + . * V B 7 +   z ) I 4 + I ` ` ( 7 +   4 ` 8 + 4 T E ( E 4 4 E ' E 4 + 4 I 4     I E ` ^ I + + 7 ^ 4   + I ^ ' W 1 + 7 W   ",
"v.h.8   + + +     o j.S.E 4       5 :     + E ~.R +   @ + + +     3 7 4   + I ~.` 1   + + 7 + +   3 ^ ^.W +       > 4 + 4 ' ~.+ ",
"h.~ 8 + k k 4 7 + 4 Z.h.E 4   + + : X 5 @ 8 ' !.' 8   4 + + 5     4 4 7 + 7 ' ^.Q.W   4 4   + 1   7 ` !.' 7   4 5 : 7 4 7 ' !.+ ",
"* 5 5 Z G F Q Y 6 U 5 % 5 I + 4 7 V C B 4 7 8 % 7 I 4 7 B B 7 4 7 W E E 4 I ` > 5 I + 4 6 v 6 7 + 7 4 > 6 I 7 W ) ) Y 7 8 I :   ",
"> * # 5.d.Q U ( 5 4 6 m > : + U Q V ) ( 4 5 5 d 4 + 4 Y ( ( E + 4 W ` E 8 4 6 N ,   o 7 ( Y Y E + @ 4 S k 4 + U ) ) ( R + : N @ ",
"+ % $   + + +     . + 4 * . .   3 3 4   . . + + O # # + 4 +   . .   .   . # * 6 5 # #   + o @   . X + 4 4 . #   + + +   # # :   ",
"9 i } e & # $ $ $ #   . # q i 0 & & & 9 y 9     . e y 0 # # 9 i i #   . e q # # # u } y $ # $ 0 0 0 & % # 0 0 # . . # 9 } y #   ",
"} #.{ i 9 9 e q $ # .   . & e e 9 $ 9 9 @.} 9 e # u u 9 $ r | } } e 9 $ { u $ q q } } i e 0 0 q q 0 $ . # $ # # # $ $ 9 } { | # ",
". # h % & q . # # % % % % # %   . q   % a . # # # $.+.    . # # . . . . -.{ . # # . % g . q 9 . . # = = = % . . . & 9   f w #   ",
"% % f X e u . % # = p & > = =   # +.. = d # = = # # . # % % % % % % % . . . # = p = = c + u e   . * p > p p X % . i u   d > % . ",
"p = .   # y q 9 $ $ # # $ $ 0 $ 0 y . # = p p p w = p a f f d f d p p = % = > = a d w *   9 9 # # # # # # # $ 0 i } r . # & p . ",
"# = = X $ w.| $.;.;.>.>.1.-.-.#.%.:.# * = = = % = p p p p p > > = = % % # # % # % = = = . u w.{ | >.-.#.o.;.;.;.O.u.#.  = = =   ",
"D d.f.V $ t.#.$.1.<.2.[.1.>.1.$.e.r.$ F f.l.k.k.k.k.l.f.d.d.d.d.d.d.k X = % . G l.f.d.s.5 u i.:.#.-.].2.1.2.;.X.$. X#.. H f.d.* ",
"L.T.c.D 9 .X1.$.1.2.1.2.1.2.2.X.w.r.$ d.(.7X<X(.<X,X`._.,X<X<X>X1X(.z.= p = > S././.<X,XD { .X-.>.-.1.2.1.1.<.-.-.|.+.> x.L.(.z ",
"8XeX1Xk.$ OX2.<.,.2.2.2.1.1.;.-.u.}.0 ,XjXBXkXpXNXcXcXcXvXMXNXjXcXxXL.p d = k <XxXpXcXvXd...#X;.2.2.1.<.<.1.<.;.<.+X#.> 1X0XcX! ",
"7XhXcXU.$ XX2.-.8.<.].2.2.#.i ;.}.@X0 eXNXcXcXcXcXcXcXcXvXcXcXcXeXMX`.p f a Z cXMXcXxXcXh.{ #X<.&.8.<.|.oX;.@.@.<.+X$.j jXkXhXQ ",
"7XzXcXU.9 +X,.T.2X=.1.1.].-._.w.u.}.& 8XvXcXcXcXcXcXMXcXcXcXzXvXcXMX'.p f f Z cXBXmXmXNXj.u +X..8Xn.=.;XdX;.8.'.+.+X#.z xXgXgXQ ",
"9XcXcXL.9 +X*.lXW.,.]. X[.*.1Xn.>.u.& rXMXcXcXcXcXcXcXcXcXcXjXMXcXZX`.a g f Z zXMXcXmXBXk.[ +X#.iX%.3.;XuX].>.6X8.+X#.k hXxXkXQ ",
"9XcXvX'.9 XXX.R.dX<.<.y.;.e.sX8.>.y.& wXNXcXcXzXcXcXvXcXvXvXcXcXcXCX/.a A x Z xXmXcXcXMXj.[ +X..rX:X*.X. .*.$XsX:.#X#.l jXxXcXF ",
"9XcXvX8X$ |.1.X.1XE.J.5X6.R.J.X.y.r.& wXBXNXMXqXcXcXvXcXcXcXcXvXzXcX/.p f a Z cXBXVXcXcX/ t XX*.&.lXx.W.4Xf.8Xn.4.#X$.F cXxXcXD ",
"wXvXnX`.# .X1.@.& Z K.-Xn.A a %.}.}.q eXNXBXcX3XaXzXcXcXcXcXcXcXhXhXL.p f d N hXcXkXeXcXj.[ OX-.u f H.-X-Xz.l g :.#X$.N xXjXhXV ",
"wXvXvX<X# .X%.p x dXyX2XdXaX5.x r. X0 wXcXNXhX2X1XcXcXcXcXcXcXVXcXSX,Xw g f l eXeXrXR.zXk.{ *X@.f H.CX0X0XAXE.l a OX#.l zXpXqXV ",
"9XcXcX7X$ .X:.& D.'.dXFX9X_.x.0 y.y.& rXNXMXcXjXcXcXcXcXcXcXcXcXcXNX(.w f f l tXjXkX9XzXB.{ *X$.c 8X).DXFX2X1Xl q OX+.z jXmXNXF ",
"8XzXzX`.$ .X1.8.F.V L.T.x.6 j.+.r.r.& eXBXmXNXbXvXcXcXcXcXcXcXcXcXbXT.a g f l cXZXcXcXSXA. .*X3.K.Z.Z L.T.! V P.*.OX#.z xXMXMXD ",
"<XcXcX/.9 +X<.n.nXP.z.> c.x.bX&.r.u.& fXSXBXmXcXMXMXMXMXcXcXaXeXhXNX_.d 5.5.Z vXBXcXxXZXA.[ *X*.1XfXz.l > z.,XnXX.OX$.l xXcXcXD ",
"8XzXcX'.9 XX1.&.T.J.0.H 6.P.`...u.}.0 iXZXMXVXkXmXcXcXcXcXvXyX0XMXSX>Xx 5.c H pXjXpXxXCXA.r OX*.c.'.z.6.6.c.>XP.X.OX$.N cXmXcXD ",
"9XzXzX/.9 XX>.;.| d H g.z Z +.3.|.}.0 iXZXcXMXMXcXvXbXcXvXaXyXyXeXSX_.f g f Z tX9X1XcXSXF.r XX-.*.h l l.g.D 5.$.;.i.{ N xXMXMXD ",
"9XcXnX/.$ oX:.;.1.$.+.#.#.-.].1.i.|.& wXNXMXSXcXvXcXMXvXMXcXcXcXcXSX(.d c f Z zXxXjXxXCXF.e +X;.>.<.#.@.+.+.;.2.;.oX#.N xXmXmXD ",
"rXzXzX'.$ oX:.$.-.1.2.2.2.1.2.-.y.|.& eXbXjXcXvXNXvXMXvXMXcXcXvXcXNX_.d A 5.H xXcXcXjXvXZ.t +X>.-.1.2.1.1.<.-.1.;.OX#.l zXcXcXD ",
"rXxXcX'.$ oXr.<.-.<.<.<.>.-.1.;.y.y.& eXMXhXhXZXZXNXbXMXvXcXcXvXzXcX/.w x g H cXcXcXcXZXF.t OX-.;.>.1.1.1.>.-.2.1.%X$.l jXcXcXD ",
"eXcXzXU.9 OXy.;.$.-.1.1.$.-.-.X.oXy.w rXBXNXcXcXNXjX1XjXzXjXvXzXjXvXT.p A a G MXcXcXhXcXA.} %Xe.X.-.1.1.2.>.>.2.;.%X$.> pXeXpXQ ",
">XzXaXB.y u.oXi.$.$.1.1.$.o.o.a.oX;.a lXBXMXMXvXvXtXpXvXcXcXcXMXmXNX/.a 5.d Z pXhX3X>XpXk.u }.oXp.X.>.1.2.>.-.u.%Xi.[ > tXqX2Xz ",
"9.R.aXx.e +.{ oXi.o.>.1.o.#.oXi.[ -.a 7XxXNXjXzXbXvXvXcXcXvXcXcXcXcXT.> c f Z hXcXhX9XzXk.r { { oXi...>.1...i.=Xi...{ j tXjXxXV ",
"Y.5XJ.g.& = 0 $.oXoX<.<.>.&Xi. .w w p Y.5XNXpX4XpXcXcXcXvXcXbXvXcXnXT.= x p N cXvXvXcXCXI.$ p t =.oXa.$...p.OX>.t w $ j qXkXvXF ",
"9XyX2X3X6.6.p r -.|.OXi.%Xw.X.9 x.! T.zXhXvXvXpXzXvXMXMXvXcXvXcXMXZX_.p f = l hXzXzXcXcXpXd.H.c [ ;.|.oXoXoX..t X g.H Y.hXjXjXD ",
"(.yXzXzX>XP.A j h { w.oX$.r 9 s.1X9XzXNXNXvXvXzXaXaXcXpXjXcXjX1XpXZX_.a c a l gXzXjXhXjXxXpXT.V.k i X.XX%X;.y = k.<X_.hXjXhXjXD ",
"G ,XaXqX5XtXP.V.H $ #.1.t = f.,XpXaXhXtXhXNXcXjXjXMXcXjXxXzX1X9XhXvX/.p 5.f l hXcXjX9XaXhXjXeX>XH.k q -.;.t = V.,XhXjXkXjXhXhXN ",
"E.E.E.:X>X5XR.,XP.l 0 | # z.1XpXjXjXzXpXpXxX1XzXzXzXzXxXvXpXeXjXxXeXx.= x d l 5XaXkXhXhXhXpXjXgX9XR.j i r * V.,XrX9XhXkXeXrXjXN ",
"C.N.K J.3X4XJ._.9XY.H * V.3XzXqXtXxXhXzXzXzX2X0XjXjXzXzXqX6X4X9XaX2Xf.= d a p >X6XhXjXzXzX0XtXgXhXeXE.N l R.qXaX2X(.hXjX9X3XzXD ",
", m b G f.6.m G G B.f.H k.U.S.B.x.V.x.S.I.B.S.D.D.S.T.S.6.V.g.B.L.f.l = p = X G D.L.V._.U.S.U.x.l.f.g.s.! L.L.P.x.U.U.D.d.B.B.> ",
"p f a a d d f = a c p f f a d a a a f p w x 5.A A A c x x a f f f d d 5.A A f a c x c A A 5.c f f f d f f a a f f d a f a d f . ",
"p f a p a a x f d d d d d d x f a f d f f c A f g c 5.c c f f x d l d f f 5.c A c f f d l x x f x f f d d d a a f c x c d a f . ",
"p a a a a a a a = d d a p a d d d f d a d f f p a f d x f f x x x x a a f f x x c x f x d d d d d f f f d d a x d d f x l d d . ",
". X # # % X . .   . X X X X # # % = * * # # .   . . . X # # * * % % # # . # # # * * * % # # # # # # # % % % % * # # * * % # #   ",
"> N , X * j D l N l j 5 X * 5 5 N z > : k D N k N > k > X * > k G N N z z : > >   : > k k k N k : . : > 6 z N N z N * X > > z @ ",
"d.d.g.n d.A.A.k.F.A.k.g.N > 9.l.I.l.l J x.x.g.J B.f.k.g.N F k.B.A.d.B.l.g./ g.j.> 9.d.d.d.d.k.h.V N C.d.d.j.g.g.g.k.Q s 9.d.k.> ",
"F d.g.S B.B.f.g.g.g.A.A.g.N 9.g.f.G k S f.f.G G B.A.k.k.l G k.g.d.d.d.G f.B.x.x.N J f./ G J d.l.k.F B.g.d./ d.d.F d.h.N C.g.d.> ",
"k h.! > N f.d.d.g.B.k.B.j.N l.k.G G > , d.k.A.D.V.k.g.l.z F d.D f.d.d.f.k.f.B.S.j F f.d.f.d.F 9.d.z j.h.d.k.C.d.F h.F F B.D d.> ",
"> F k * j G C / k.k.B.A.D > G / d.g.N s l.d.d.f.g.l./ f.k k C.d.F ! F d.f.d.F ! > d.g.d.g.9.9.g.D : ! / / d.F d.k.d.> > g.N F > ",
"- n n M b b , N N k N l * . * , k k > : > j k N s > : > * ; n l > : * > k j > X   : , , S F N k *   > > > > 6 , s < K C > 6 :   ",
"n K K m.M.m m K ; > F z z x.F X J g.d.d.F m , : S d.g.! k.Z * V / F s ; X N d.d.g./ G J C ; N G j.G.J N N * . k d.S m.J N K m   ",
", n m m.m.K M.n < F ! ! ! ! ! N k ! / ! d.9.Z j x.f.d.G d.N N Q / x.9.N 5 x.f.! d.! D ! G > f.f./ ! ! ! G D > d.d.G F F d.F k   ",
"; n , n n , m.b n K s b k D D l * l D Q N k > * N ! G F N > 5 N z l N j * N D j D / k z l > l j N N F F N j : N k V l N k N S   ",
"X ; * ; ; X b ; < , < , ; + : X X : * > * : * X : : > > * X + > * * > X . > > * > > * > * . * * * * : * * . . : * : * : * * ;   "
};
