/* XPM */
static const char *pug[] = {
/* columns rows colors chars-per-pixel */
"15 16 162 2 ",
"   c #27170D",
".  c #25150E",
"X  c #2C100A",
"o  c #2E150D",
"O  c #31160D",
"+  c #3C120B",
"@  c #38140D",
"#  c #39160D",
"$  c #3B160C",
"%  c #3A160D",
"&  c #3B140F",
"*  c #3D150C",
"=  c #361A0F",
"-  c #38180D",
";  c #3E1A0E",
":  c #2C1810",
">  c #2A1C13",
",  c #2F1C12",
"<  c #321711",
"1  c #331D11",
"2  c #341D10",
"3  c #3D1C10",
"4  c #391F14",
"5  c #352217",
"6  c #362217",
"7  c #352519",
"8  c #352618",
"9  c #36261C",
"0  c #3F2E22",
"q  c #45160B",
"w  c #44130C",
"e  c #42140C",
"r  c #47150C",
"t  c #47140D",
"y  c #4B1108",
"u  c #48120A",
"i  c #4F130A",
"p  c #48140B",
"a  c #4B170C",
"s  c #4A170D",
"d  c #4B170D",
"f  c #4D170E",
"g  c #431F0E",
"h  c #451D0D",
"j  c #4A180C",
"k  c #491B0D",
"l  c #49190F",
"z  c #481A0F",
"x  c #4C1A0F",
"c  c #4B1C0D",
"v  c #4B1F0E",
"b  c #4C1D0F",
"n  c #4D1E0E",
"m  c #4C1E0F",
"M  c #511409",
"N  c #56160B",
"B  c #51160C",
"V  c #56140C",
"C  c #55170C",
"Z  c #54170E",
"A  c #5B150B",
"S  c #5A160C",
"D  c #59170E",
"F  c #511B0F",
"G  c #57190E",
"H  c #521C0F",
"J  c #511F0E",
"K  c #5B190E",
"L  c #5F190D",
"P  c #5D1A0E",
"I  c #5F1C0F",
"U  c #491F11",
"Y  c #4C1C10",
"T  c #4E1F12",
"R  c #571D11",
"E  c #581B10",
"W  c #5F1A11",
"Q  c #5C1D10",
"!  c #5C1F13",
"~  c #63190E",
"^  c #62180F",
"/  c #62190F",
"(  c #601A0F",
")  c #631B0F",
"_  c #651A0E",
"`  c #651B0E",
"'  c #651A0F",
"]  c #651C0D",
"[  c #661C0F",
"{  c #6A1A0D",
"}  c #6C1C0E",
"|  c #6F1D0E",
" . c #611A10",
".. c #641B10",
"X. c #661D10",
"o. c #641E13",
"O. c #6A1D11",
"+. c #681E10",
"@. c #6B1E11",
"#. c #6B1F11",
"$. c #6C1E10",
"%. c #6C1E12",
"&. c #701E11",
"*. c #711F13",
"=. c #44200E",
"-. c #432116",
";. c #492112",
":. c #422A1C",
">. c #402D1D",
",. c #412D1E",
"<. c #432F1E",
"1. c #4A2C1C",
"2. c #502415",
"3. c #5A2512",
"4. c #5A2815",
"5. c #44321F",
"6. c #682111",
"7. c #602A14",
"8. c #662B15",
"9. c #682E15",
"0. c #702213",
"q. c #752313",
"w. c #433221",
"e. c #433222",
"r. c #433324",
"t. c #4B3A2A",
"y. c #503524",
"u. c #523727",
"i. c #543C2A",
"p. c #4A3E30",
"a. c #55422F",
"s. c #5B432B",
"d. c #58442F",
"f. c #4B4032",
"g. c #4F4130",
"h. c #534433",
"j. c #524534",
"k. c #514536",
"l. c #574734",
"z. c #694A33",
"x. c #6E5037",
"c. c #6B5139",
"v. c #6B543A",
"b. c #6F553D",
"n. c #705037",
"m. c #5C4F40",
"M. c #836747",
"N. c #81694A",
"B. c #886D4C",
"V. c #907455",
"C. c #917755",
"Z. c #9F825B",
"A. c #A4845D",
"S. c #A48760",
"D. c #A68660",
"F. c #B39063",
"G. c #B49166",
"H. c #B89369",
"J. c #BA9568",
"K. c #B8966A",
"L. c #BC976A",
"P. c None",
/* pixels */
"P.P.P.P.P.P.P.P.P.P.P.P.P.P.P.",
"P.P.P.P.*.#.] $.) #.0.P.P.P.P.",
"P.P.P.q.L r c J n j V $.o.P.P.",
"P.P.6.B $ 4.9.8.7.3.j w o.S P.",
"P.P.I $ = 4 z.n.x.u.< $ y *.P.",
"P.*.r : , a.K.F.L.S.:.2 X .._ ",
"P._ + 1 5.C.G.K.H.A.c.5 o f | ",
"P._ + - d.m.l.Z.C.j.h.0 $ q | ",
"P.#.p 2.B.p.j.r.t.f.g.b.Y d { ",
"P.) e -.S.v.s.8 <.i.N.M.; F A ",
"P.) d * y.e.<.9 8 <.e.1.$ E M ",
"P.P.L d j O . 5 > . 3 c R K P.",
"P.P.N #.R n h =.g ;.T Q ] P.P.",
"P.P.P.V ) G Y c j x Q  .P.P.P.",
"P.P.P.P.P.y V W ) S i P.P.P.P.",
"P.P.P.P.P.P.P.P.P.P.P.P.P.P.P."
};
