/* XPM */
static const char *s[] = {
/* columns rows colors chars-per-pixel */
"64 64 178 2 ",
"   c #000101",
".  c #010D3A",
"X  c #01143C",
"o  c #000D4A",
"O  c #001643",
"+  c #011A45",
"@  c #00164A",
"#  c #011B4C",
"$  c #011D53",
"%  c #00175A",
"&  c #001D5A",
"*  c #092041",
"=  c #02224E",
"-  c #162646",
";  c #192C4F",
":  c #022254",
">  c #0A2550",
",  c #0D2853",
"<  c #01235C",
"1  c #03295E",
"2  c #152D56",
"3  c #1F365A",
"4  c #212B4F",
"5  c #26314B",
"6  c #283854",
"7  c #263B5B",
"8  c #283E58",
"9  c #011E62",
"0  c #012463",
"q  c #022A62",
"w  c #042A61",
"e  c #012864",
"r  c #022A64",
"t  c #012966",
"y  c #022967",
"u  c #022A67",
"i  c #012A65",
"p  c #022C67",
"a  c #022C64",
"s  c #042E65",
"d  c #022A65",
"f  c #012368",
"g  c #012569",
"h  c #012769",
"j  c #01266A",
"k  c #01276F",
"l  c #01266B",
"z  c #022969",
"x  c #032B69",
"c  c #022A6B",
"v  c #012A6B",
"b  c #032C69",
"n  c #022E6B",
"m  c #022F68",
"M  c #012B6F",
"N  c #022A6F",
"B  c #01296D",
"V  c #032E6C",
"C  c #012E6E",
"Z  c #042E6D",
"A  c #022B6C",
"S  c #092D6B",
"D  c #053067",
"F  c #05316A",
"G  c #05316C",
"H  c #04316C",
"J  c #0A326C",
"K  c #012671",
"L  c #012B72",
"P  c #032E72",
"I  c #012D71",
"U  c #002A77",
"Y  c #022D74",
"T  c #002D74",
"R  c #022C73",
"E  c #012E7A",
"W  c #033172",
"Q  c #053071",
"!  c #023177",
"~  c #023677",
"^  c #033274",
"/  c #093374",
"(  c #023179",
")  c #033779",
"_  c #01377F",
"`  c #03337C",
"'  c #09367B",
"]  c #04397C",
"[  c #0A3B7C",
"{  c #3A455B",
"}  c #35486F",
"|  c #023583",
" . c #043881",
".. c #043A84",
"X. c #083D85",
"o. c #02368A",
"O. c #043C8B",
"+. c #083F8B",
"@. c #043E91",
"#. c #064183",
"$. c #0D4186",
"%. c #06418D",
"&. c #09438C",
"*. c #0A488F",
"=. c #064393",
"-. c #094593",
";. c #064894",
":. c #0A4994",
">. c #074798",
",. c #074B9D",
"<. c #0A4B9A",
"1. c #0A4CA0",
"2. c #0F53A3",
"3. c #637083",
"4. c #6F7488",
"5. c #6E7989",
"6. c #7D838B",
"7. c #7A889C",
"8. c #9D9D9B",
"9. c #A29E9A",
"0. c #A3A29D",
"q. c #8A95A3",
"w. c #95A1AA",
"e. c #9CA4AC",
"r. c #A7A6A4",
"t. c #A8A5A6",
"y. c #A4A9AD",
"u. c #ADABAD",
"i. c #A2AAB6",
"p. c #B2AEB5",
"a. c #ADB8BF",
"s. c #B6B7B0",
"d. c #BBB9B7",
"f. c #B7B5B9",
"g. c #BAB6B9",
"h. c #BEBCBD",
"j. c #C1BEBF",
"k. c #C3C2BF",
"l. c #BEBBC1",
"z. c #C4C3C3",
"x. c #C8C7C4",
"c. c #C6C8C5",
"v. c #CACAC6",
"b. c #C9C7C9",
"n. c #CDCCCB",
"m. c #D0CECD",
"M. c #CFD0CA",
"N. c #D2D2CE",
"B. c #CDCFD1",
"V. c #D0CFD4",
"C. c #CFD3D1",
"Z. c #CBD4DA",
"A. c #C3D2DA",
"S. c #D5D5D2",
"D. c #D9D7D5",
"F. c #D7D9D5",
"G. c #DADAD6",
"H. c #D7D7D9",
"J. c #DDDDDA",
"K. c #E0DFDC",
"L. c #DEE1DC",
"P. c #E2E2DE",
"I. c #E8E7DF",
"U. c #E4E5E1",
"Y. c #E8E6E7",
"T. c #E7E9E3",
"R. c #E9EAE4",
"E. c #E7E7E9",
"W. c #E7EBEB",
"Q. c #EDECEA",
"!. c #F0EFEB",
"~. c #EDF0ED",
"^. c #F2F1EC",
"/. c #EDF2F4",
"(. c #F4F5F2",
"). c #F8F6F2",
"_. c #FDFCF4",
"`. c #FFFFFB",
/* pixels */
"                                                                                                                                ",
"X : + $ + # # + # O # # = 1 $ : $ 1 : # : < $ 1 1 : p # t 1 p : : p < 0 0 0 t : A < # 1 s : < q : : $ 1 : # < # @ O # : # : +   ",
"+ O O # # m # X 1 # # # 1 t h F q t V p h m t : 0 t t t v t P Q ! 0 t l 0 j v w L 0 < F < t 0 t : 0 1 : : : 1 : $ O # $ # + $   ",
"# # # = + : + < # < $ q : 1 m 0 A A 0 G G A A v t h h v Z ! v < v v h j A h ) m : 0 1 0 v m 0 H $ 0 : t < $ : $ < : # # # = O   ",
"+ + + # # : $ # # t $ 0 1 : h v h ) P 1 X.~ q & v % A j A P t  .Y A h A Y l j L ( A f v < t t ~ & t m v & : : # : 0 + # # $ #   ",
": # = $ q $ : $ w $ 1 < h < 1 h A j j v ` P A W P ) j P t L 0 j P j f A j 9 Y ( ( j U & q A h ! P A W 0 A p t 1 $ # < : : # :   ",
"X # O 1 $ t & : : & v 0 $ v f t 0 ( U A U ) U f W ` ( P  .P 0 & ( U L ` l 0 v  .^ v h l j ! Y j v j v h : f q @ $ $ # # $ $ #   ",
"+ # # 1 < # $ t $ : j 0 t W ^ 0 K P E ` | U l L ) j P ) P l ! ` L Y ) h v l Q  .P P K P v | W Y U ( A Y v A v # 0 @ $ : % $ #   ",
"1 # + : $ : h < 0 v v t t A ^ j U Y ` *.[ ` U ..U | Y U ` Y A j 9 Y f l P j ! f A h L ( A Y P j U U A A 0 0 m h & < < : $ : @   ",
"+ : = : : 1 0 m q f P A A | W % P L | ` O.O.` O.O...! L ` l U 9 j W X.! o.U =.^ U ] Y ! | |  .P A ( v L t ) < t t < q $ $ : #   ",
"1 = $ $ : : & h v Q h E A 0 ! U % P %.O.| ..| ( | ` ` Y U ` j j j ` v L ` f f Q ` l A K  .l U ..# ( j A # A q f A t & : $ # #   ",
": 1 $ t < 0 t v v t h l ` L ( U A O.! U o.&.` K U Y U ` o.A Y ..` m ` | K ( o.` K ` A j A ( ..X.K P l < A f t 0 A : A v $ 0 $   ",
"w # q $ 0 A : ~ A t 0 ` ..` ` L 9 .. .| o.U X.Y U U ..` =.U | v .. .Y | X.| |  .K ` U | P O.=. .f ..P A j l j A v q f & 9 p #   ",
"# t V v P 0 < h ~ A A ` Y A %.A ..O...| ` ^ O. .| ` ` | | O...! ` | Y ..Y ) O.=. .%.O.Y o.! ]  .o.X.` v ! | Y 1 A t j t $ 0 <   ",
"D a 0 ~ l $ 0 t ! P P ! ( ..` ) f ` ..=.O...A L E ^ @.&.h w.J.c.c.D.Z.:  .O.| ..| ` O.` ......0 L P ( Y Y ! A A A ` t W : & v   ",
"1 : : P h 0 A 1 W ( L ` Y ` Y Y O.A v ( | %.O.` O.W `.h.n.m.P.S.z.D.u.J.G.K.%.%. . . .X.` ..` o.l < o.( Y ` P U < A V 0 0 $ 0   ",
"1 p < & ! P G f l Y | | =.` O.| | ..&.:.O.$.`  .- J.J.R.S.U.G.b.S.U.J.G.S.U.D.3.O.%.o.O.`  . .f l Y ( U ..P | A P h A t v f m   ",
"H m : A v U 0 L j l ` ..` ) U ( O.( U ` O. . .$ U.R.J.k.P.S.S.m.Q.J.J.S.P.J.F.T.7 :.U ` U o...| ` j A P | L P ( ` ( L ^ : l &   ",
"m 0 s h 0 f Y v ) ..=.l ` Y l l O.` ..` P O.[ J.P.J.S.J.S.R.P.D.J.n.n.P.D.J.n.g.G.S ` | P ( U l | K ` U ` j A P f ( h h 0 & 0   ",
"^ A h v m A ~ 0 ` O.| U | | Y U U O.O.=.o. .n.D.P.J.J.K.T.n.P.J.S.b.Q.t.m.S.P.N.z.z.| ` h O.` o.o.` O.U K L ` ( h ! ] Y f h 0   ",
"0 0 & m f A v ` ! ` | ` | E ` ..=.| U O.=.Y S.S.G.n.J.m.J.i.) o.L ..4.S.J.9.k.R.j.L.U | o.o...| Y | ` | U l l  .f A ) P ! t d   ",
"$ v A v h P t ` m ` |  ...` ` ` ` O.` ` ] * P.G.z.n.P.b.(.:.X.O.$.( ..6 U.F.G.P.m.S.S.;.o. .o...X.| E ..( ( ` m A ! 0 A v P 0   ",
"1 h ( 0 | t j L j ^ Y Y o...-...O...` O. .(.G.K.S.J.R.P.` X.` -.=. .U O.S.J.n.S.T.P., =.` X.@.@.....o...` U O.l ` ! Q ^ A ! v   ",
": W v A j P P Y L ! f =.O.=.O.O.( O.Y O.| Q.R.D.u.b.G.P.4 O. .O.O.E O.O._.1 E U X.X.N O. .L K O...( -.` E P U ` ` P v A h 0 0   ",
"F W 0 G v h P ( P ( ..O.O.L =...| ..O.X.l Y.J.G.n.J.P.P.P.$.X.O.=.X...-. .%.O.| X.` ) -.` ..` E O.` ` ` E U U ) ( t ^ G Q 0 <   ",
"F $ m A ! h j | P #.& | ` O.O...O. .` ..:.@ J.G.D.S.P.S.J.J.R.8  .` ..` o.E @.` ..(  . ...( Y ` X.O. .....O.`  .` l ) t d 0 h   ",
"1 ^ c 0 v f & ` A ..U U U ` ` :.:.X.O. .=.U S.J.M.N.G.P.G.D.N.h.J.G.} | `  .O.O.@.| %.` =.O.O.| | E O.U .. .U ! o.] | V Y A j   ",
"V 0 0 X.$ v h K ( E O.%.! 1 ..O.;.| O. .O.O.!.L.S.N.G.P.z.R.D.S.G.U.J.J.N.o <.O.@.` o.O.L ` =.@.` L E U ` K !  .| P L v A v Q   ",
"] 1 1 t Y 0 ( U ` ..=.O.` o.o.X.O.O.@.O.X.>.) J.J.G.G.J.F.m.P.J.z.D.N.k.S.K.J.. O.@.E Y O.O.&.L =.| | ` U O.) ) ..O.j ( t P v   ",
"1 : j j f W A U A l | h  .| ` O.O.X.o.1.o.@.O.%.m.S.J.P.G.D.J.J.D.P.P.J.G.G.m.J._.| =.( U X...=.K O.K O.` U ) ` O.` | L j j &   ",
"q 0 j L ( L P ` ..` ....@.X. .+.| o.=.o.O.o.O.| ..{ b.Q.T.J.J.P.S.G.T.J.P.U.J.D.b.).X.O.@.` ^ =.o.U o.'  .! %.L | ` ) Y m f j   ",
"1 t 1 t ` ~ L ( P  ...| O.| o.=.o.>.O.%.O.| <.` ` O.-.& S.I.U.U.K.P.S.J.G.n.r.m.J.P.P O. .` ,.O.| ..` (  .X.%.|  .Q A l ] ) 0   ",
": 1 # W l ] ` ..` ` ( X.O.O.O.X.| .. .-.O.=.U =.=.X...| =.` h P.S.S.U.J.K.J.U.J.K.b.v.O.E X.| o.@.O. .| ..` | A ( ! @ v h A v   ",
"m v 0 ..A L U A ` ` U L ` ` ` @.O.@.o.-.=.O.o.:.%.%.| O.X.=...-.-.d 0.v.z.n.U.U.P.S.U.=.` N (  .O.@.=.o. .U U Y L U j ( P q v   ",
"0 A h X.j ( | O.` ) ( Y Y X...` ` U =.<...Y X.O.O.O.` @.O.@.=.O.O.O.` 6.k.N.N.J.G.m.S.O.&...=.<.O.O.=.| ` o.( E ` ( A Y U ! 1   ",
"w A W h ( f ( ..! j L %. . .` O.| X.` X.O.O.&.: l.b.S.@.=. .=.<.<.( O.=.b.N.N.R.P.x.S...=.=...| o.c o...U l E ..` ` ( ..U h :   ",
"1 1 # 0 ! ) % K Y L Y | Y X.-.o.( X.| =.7.n.J.S.G.U.D.^ ..O.o.O.X...O.X.N.N.N.S.P.J.J.o.<.$.O. .` | | ` O.` Y j U ] h L & t v   ",
"< ~ 1 0 : ] ! ) `  .P ` | O.@...O.X...-.#.J.D.P.n.b.G.n.O.$.O.` O.O. .U 8.d.b.G.D.D.U.,.O.A %.O.O.| O.` ! ` P U ` ! Z A A A ~   ",
"v q 1 w P | P ( ] | %.| O...o.` o.| X.X.| P.s.D.K.z.N.n.x...-.O.%.` %.S.k.N.n.J.G.J.x.O.%.$.=.` O.%...O...Y l X.^ ) A l 0 m A   ",
"1 : : j 0 P P ` U K ` & %.Y <.A X.o.| ..| W.v.b.n.G.J.v.F.b.f.z.H.z.j.v.D.P.G.U.J.k.<  . .o... .U ` ` O.o.| ! K ( j A j & P &   ",
"v ^ : 0 v A j K | U Y ..` ] ..` | Z %.%...X.f.b.N.b.J.P.N.n.S.S.n.J.J.D.G.J.S.N.U.z.O...L U ` | l U ` ( Y O.` P U Y ) $ v h %   ",
"< 0 < t f P U ( ..K ` ! | Z ` Y j o.`  .O.O.^ x.G.m.S.P.S.S.D.J.D.N.n.S.G.S.J.S.L.P ( Y E L ..U | U ( U ) ) U h Y ] ( t A f $   ",
": h H h A t L Y ( ..| | l ^ ..Y Y -.<. . . .U U S.S.x.S.z.S.h.b.S.G.n.G.m.P.n.b.) &.U o.E o...l o.` U ) Y l K ] ` ` Y h % h t   ",
"p t w [ ]  . .A ) U ( c ` U ` <.O.E | 2.=.X.%.` ..^.h.n.b.n.S.n.h.b.G.z.S.S.y.X.%.P  .| E U P &.` ` j ` ! ( A ..P A Y Q t A $   ",
"1 $ p A ! Y ` < L ^ P ..U ` %.( o.] L ` O.( =...] O.%.: ^.m.d.g.S.J.c.Q.F #.....X. .` | ` o.%.O.O.( X.) A A  .P P : W t v s t   ",
"d A : A Y $ h v t h ` ..` | ` ` o.( j Y E ^ ..@.` ..O.#.| U Y -.-.X.A ! ;.....L X.( ^ L ` O.X.-.O.` ( P ` 9 P h v P m v W t j   ",
"w < ^ % A $ v v A 0 )  .A ..O.A =.` ` ( %.%.l o...=.` #.` Y `  .X.O.` Y ! ..A ..` ..` L | | ` o...| ` ` ` Y A A ) A Q A m L t   ",
": : 0 ^ A W 0 ` f j ) Y Y o...` ! t | ..U ( | o...U f ..U P ! f Y ) U U ! Y ....L L P ` j ` | | ..` U L ( K j j ( A ) t < # %   ",
"w : # 0 t < h W A L  .A U A ) U ` ` L ` | ..` ` P L o.o.) P | `  .O. .E o.O...| | E U U ( P ) ( O...E 0 L j Y P j P h v < : &   ",
"1 : 0 : ` A h P ~ v A U A | U v O.U O.E |  ...` Y ( ..&.O.O...O...| X.U | Y o.| X.] | L j v  .v ( Y l h ` Y L ) A A t 1 & $ v   ",
"a : : < v t j h h l 9 l v t | j U ` X.` A n.S.P. ./ F.J./.X.7 ).X.U.O.C.z.L.D.] S.` S.# ( | U ! f A V ;.( P v ~ P ^ : < : : #   ",
": t 1 $ 0 t < A ] h f Y m L P ) ) U Y | > ^.[ % ^ J.5.^ F.` ; ^.( p.P ` E.e.X.J J.` P.. v ` U v : < P h h l A V P m 1 $ $ w %   ",
"< : : : 1 0 : p v q # v P ! 0 Y ) A A Y L J.J.A.f J.% ` l.^ 3 _.' b.W ] /.q.A X.K.c.n.O ) U  .` L v v ! m f v v h 1 v : # : #   ",
"O : = : : : W v A q f 0 ) $  .h j v ` ` Q $ G B.^ J.5 ~ n.] 2 ^.[ S.P ) /.w.A d J.` B.O j P d Y A A A & 0 j 0 j & < t 1 F 0 :   ",
"+ $ < $ < 0 1 0 H j t A A A t L A L ` X.^ V.S.(.L J h.b.Z.L A C.J.~.X.~ /.q.] P n.^ U.X v ( ! G A W v v 0 h H % m 9 j # : : $   ",
": : # # $ # : v : h h $ m t ! 0 & W A P ( G ^ ) h  .P [ Z ( P ! ] Z Y 0 ..&.! X.#.A W ! A p A m t & h v 0 v m 0 V 1 : D $ : $   ",
"O # # # $ < 0 1 1 0 t h j 0 P t ! P t 1 j j V ! v h ^ t V ! W # < v h v X.j ! P P P h A 0 1 ^ t ) m h 0 < 1 h A F F # $ # # #   ",
"+ q : : # : : $ & 0 p h t < m h ~ m t V P A P ! A Y 0 m < h A m A 1 ( P ! l ` A m v 0 ^ < G $ q A A 1 0 a 1 < $ A q # # # # @   ",
": = # : 1 : : # $ 0 $ 0 A v A A m < & t h ! ^ 0 0 t 0 ] : 0 < A ! q W 0 ! j t P P 0 A Z ~ 0 A t $ < & < # m : q 1 # # + # # #   ",
"# + # # O + $ 1 : # q A d t t & G < 0 < v v h : A < V 0 w p 0 # h h W t A ^ m < q t & 0 t ^ v 0 ! < 1 t $ < q # : < + # $ $ #   ",
"+ O O 1 + # + O O $ $ 1 w : 0 0 & < F m A : & f ^ A v d p w $ h 0 1 h 0 t $ $ 0 h < t H & j t < % & # 1 : # < # w # O + O < +   ",
"+ # + O # : $ + O < # # O q : $ 0 $ 1 1 0 0 0 0 q 0 m W v t m 0 0 0 v 1 0 0 h $ < q $ % 0 1 m # m 0 $ $ # : @ # # # @ # # : #   ",
"+ O O # # # : # # O # # $ # # # # $ $ & & 0 1 < : < q t $ h & < & < $ $ : 0 : t t : : 0 O 1 : & $ 0 # # : : X # # # # + + O +   ",
"X O + # : # # # O # : # $ $ # # O 1 $ # 1 : $ # @ : $ : # 1 @ : $ $ : : 1 $ 0 : : $ + O # # # O @ # & < $ < = $ O + # : O = +   "
};
