/* XPM */
static const char *so[] = {
/* columns rows colors chars-per-pixel */
"64 64 233 2 ",
"   c #040303",
".  c #0B0604",
"X  c #0D0906",
"o  c #0E0B09",
"O  c #140504",
"+  c #1B0504",
"@  c #130A06",
"#  c #1B0B06",
"$  c #140D09",
"%  c #1B0E09",
"&  c #150708",
"*  c #1E1007",
"=  c #16100B",
"-  c #1C120C",
";  c #1E1610",
":  c #1F1813",
">  c #220604",
",  c #230B06",
"<  c #2B0C06",
"1  c #240D08",
"2  c #2B0D09",
"3  c #320D07",
"4  c #3B0E07",
"5  c #330E09",
"6  c #3A0F09",
"7  c #221107",
"8  c #23140B",
"9  c #2B150B",
"0  c #24180F",
"q  c #2D190D",
"w  c #2F1807",
"e  c #35110A",
"r  c #3C120A",
"t  c #331C0D",
"y  c #3B1D0E",
"u  c #351007",
"i  c #221610",
"p  c #241A12",
"a  c #2B1D14",
"s  c #2A1E18",
"d  c #331D12",
"f  c #3A1E10",
"g  c #371710",
"h  c #3B200F",
"j  c #37200F",
"k  c #2E2116",
"l  c #2E2118",
"z  c #332316",
"x  c #3B2213",
"c  c #342419",
"v  c #3A261A",
"b  c #37291B",
"n  c #3D2A1C",
"m  c #3E2D20",
"M  c #3F3223",
"N  c #460E07",
"B  c #44130B",
"V  c #49150C",
"C  c #4B150B",
"Z  c #441A0D",
"A  c #4D190E",
"S  c #431007",
"D  c #52160C",
"F  c #54190E",
"G  c #5A1B0E",
"H  c #59160D",
"J  c #4B1A10",
"K  c #541C11",
"L  c #5B1D11",
"P  c #631C0E",
"I  c #6F1F0F",
"U  c #641D11",
"Y  c #6C1F10",
"T  c #442513",
"R  c #452A15",
"E  c #4B2B15",
"W  c #412618",
"Q  c #432C1D",
"!  c #4B2D1A",
"~  c #4B2515",
"^  c #5C2112",
"/  c #552D19",
"(  c #592616",
")  c #44301E",
"_  c #4C321D",
"`  c #53331D",
"'  c #5C341D",
"]  c #5F3817",
"[  c #51220F",
"{  c #632112",
"}  c #6B2313",
"|  c #672A18",
" . c #732514",
".. c #722A15",
"X. c #722D1B",
"o. c #7B2A16",
"O. c #61371D",
"+. c #7D341D",
"@. c #71210E",
"#. c #432F20",
"$. c #453222",
"%. c #4B3422",
"&. c #4E3927",
"*. c #533622",
"=. c #533925",
"-. c #5B3B24",
";. c #5D3D29",
":. c #563B28",
">. c #532D22",
",. c #623D24",
"<. c #623E2A",
"1. c #693924",
"2. c #7A3C24",
"3. c #743924",
"4. c #5B432B",
"5. c #5D4531",
"6. c #624027",
"7. c #64432C",
"8. c #6A452D",
"9. c #6D492E",
"0. c #66462B",
"q. c #734325",
"w. c #73442B",
"e. c #734A2D",
"r. c #7D4B2E",
"t. c #7D4228",
"y. c #6C4730",
"u. c #6E4A31",
"i. c #644B33",
"p. c #744D33",
"a. c #794E34",
"s. c #704730",
"d. c #765234",
"f. c #7B5235",
"g. c #7C5439",
"h. c #795A3C",
"j. c #6C5032",
"k. c #7C613B",
"l. c #795E42",
"z. c #822D18",
"x. c #83331C",
"c. c #8A391F",
"v. c #87371C",
"b. c #93371D",
"n. c #A43D1A",
"m. c #853620",
"M. c #853921",
"N. c #8C3C23",
"B. c #883722",
"V. c #913E24",
"C. c #9A3E23",
"Z. c #B3441F",
"A. c #884629",
"S. c #964429",
"D. c #954D2E",
"F. c #994C2D",
"G. c #9A4225",
"H. c #835535",
"J. c #845A36",
"K. c #8A5A35",
"L. c #825639",
"P. c #855A3B",
"I. c #8B5D3C",
"U. c #8E5332",
"Y. c #9C5533",
"T. c #9C5934",
"R. c #9D5E3A",
"E. c #96593B",
"W. c #8E502F",
"Q. c #A44322",
"!. c #A4492A",
"~. c #A45A34",
"^. c #B34C29",
"/. c #8D613D",
"(. c #94643D",
"). c #9C633C",
"_. c #98693F",
"`. c #A3643D",
"'. c #A5683E",
"]. c #AB6B3F",
"[. c #A86036",
"{. c #8E5E41",
"}. c #8D6342",
"|. c #866549",
" X c #946541",
".X c #966A44",
"XX c #9C6C44",
"oX c #9C6D48",
"OX c #976A48",
"+X c #9F714A",
"@X c #9D7147",
"#X c #A26C44",
"$X c #AB6D43",
"%X c #A26C46",
"&X c #B36E44",
"*X c #A27147",
"=X c #A4744A",
"-X c #A9754C",
";X c #A7784F",
":X c #AB7A4D",
">X c #AC7946",
",X c #B27D4D",
"<X c #BA794C",
"1X c #A77C52",
"2X c #AC7C51",
"3X c #A67450",
"4X c #B27D52",
"5X c #BD7E55",
"6X c #C57B4D",
"7X c #C67F54",
"8X c #B5834F",
"9X c #AE8154",
"0X c #B38255",
"qX c #B98554",
"wX c #B58559",
"eX c #B98659",
"rX c #B6895C",
"tX c #BC8B5C",
"yX c #BC8956",
"uX c #BE8E61",
"iX c #BC9263",
"pX c #C18E5E",
"aX c #CC8F5E",
"sX c #C1905F",
"dX c #C18F61",
"fX c #C49363",
"gX c #C99665",
"hX c #C99966",
"jX c #CB9B6A",
"kX c #C89668",
"lX c #D19D6C",
"zX c #D7A975",
"xX c #E3A96C",
/* pixels */
". Z F V J K K F ^ A { ^ 9 A K + F { G K A G C L F K V ^ L D C Z Z L L L A D u L A Z B B 2 Z Z r B r 5 6 r 6 r u r r r 5 u 2 < . ",
". , . , 1 , 1 # e 1 2 , 1 O # , 1 , # 3 . 1 < , 1 r & 1 1 , # u + 1 < , O < + , 1 , , 1 , , , 1 2 O , , , 1 9 # , 2 + # e # , . ",
"  < C 3 1 # , 6 e # + # 2 { 1 , + 1 # G 1 1 + 1 1 G , 1 & , 3 D # # 1 < u r # # 1 < K 2 1 + , # F 1 , # , + F 1 < + < & } 2 # . ",
"  r . 4 5 5 r 9 & 2 r S e < 2 1 r S 2 K e < V B C r , e 6 r  .A u 2 B r | D + 5 6 S u e < 5 S B Z + , 6 S C U r , 6 B Z C # < . ",
"  . U 5 & 9 # } < # , < #  .5 O 2 + ^ } 1 # u , L { , # r # B A , , < & G K & , < , ^ Z 1 1 , J U 5 + , 2 r A 5 , < , 2 B r O . ",
". Q.D + r A 5 L < 2 r L } V < u B D  .{ + r A L P { # u r G H F < S A K U o., r D C o.{ < r D C  .A 9 r F L D F & r D A K ^ # 5 ",
"   .B + P o.O } + D  .z.B C & o.o.N.A ^ < o...z.G Y & ^ } v.r C O {  .z.r  .O A v.X.V D . F U | 4 { +  .b.o.+ o., ^ o.o.O P . 2 ",
"  C.4 u r ^ } { # 5 V B } G # r D C { F , u r r P ..O 5 # D @. .9 u e D { G.1 2 e A P { + u F F G U & r C Z r b.Z u r r , Q.S 3 ",
"a + u Z U } + O r D G G . O u F } } t # e C L L ^.# # D A U n., H r r  .} + ..2 G P P . { B U } } , | B D A 5 + , u ^ L ^ | . < ",
"O 2 & v.b.  , 9 + } G.  , 2 ,  .Q.9 1 e 1 ..Q.~ , Z # V.^.+., 5 r ^ G.N.B B < u b.x.< e < K Q.^ y u 1 B Z.C.. < < > b.Q.O < 2 + ",
". 1           .   .       . .     .   +       .   1   .       9 . .       1 .     .   + . . .     1 .       . #           . &   ",
"  . . % . @ X . X X X X . . 7 % X X X . . . . X X . X . . . . . . . X X . . . . . . X . . . X % % @ . X @ @ @ @ X X X @ 9 % . . ",
". . . Z @ % 7 * 7 % 7 7 * $ X - % X @ @ . & & & @ X X . % @ @ X . . X . X . @ @ @ X & @ X X @ t $ & @ % 7 # 7 7 7 7 % 7 t R . @ ",
". % . * X T h h T T T x t 7   @ . & 7 8 0 0 @ * 7 * * % % 7 9 7 7 9 % 0 9 * % % $ $ % % * 7 % @ @ X 7 q t t t t t h y q + * & % ",
". 7 @ 7 8 R ` _ -.*.*.! R 7 % $ . @ 9 9 9 q 7 9 t T 9 q 9 t 9 9 9 9 9 9 9 t 9 9 9 @ 9 9 q q X - $ t z R ` _ *.*.*.*._ *.q.7 7 % ",
". q X q v .XXX=X*X+X.X*XJ.q 9 % @ . . . @ . X $ . $ $ - $ $ X . $ $ @ . X . @ X @ . $ X X X - - $ t 8 }.f.oX;XoX.X9X+X.X] - 8 1 ",
". * p - z *XoX*Xe.=X=XoX.Xw.%   X @ z ;.t _ ;.-.;.;.;.6.6.;.-.;.6.<.0.0.6.-.-.-.-.` ,.-.! _ % 7 @ t !  X*X=X;X;X*X*X X@X@ X 8 7 ",
". ! 8.` r.>XqX,XqX0X8XK./.;.. . . @ n ;X:X=XoX.X(.*XXX*X*X2X*X(.=X;X;X=X2X=XXX*XoX:XoX#X#Xe.- X . . *.u.f.tXyX0X>X>X,X! x t *.k ",
"X _.d . e * t e r e e f B 9 @ 9 0 x -.XX2X;X2X0X2X-X).;X;X=X;X9X:X4X2X=X2X*X2X*X*X>X*X=X-X2X` 9 q O t * 5 y r e e r e # 9 * I.8.",
"o .X8.n + + 1 2 2 1 , < 1 n & t 7 ` K.(.0X:X:XeX:X:X2X0X-XeXeXeX0XyX;X=X2XyX-X2X;X:X:X;X=X*X X0 t @ -.& 1 1 , e 5 , 1 , . -.oXJ.",
"X .X.X-.> < B B C S u 3 u _.@ x 9 -.:XyX_.yXeX0XeX0XqXyX:XtXfXeXtXyX0XwXtX0X-X0X0X;X).uXH.=XoXt d X (.% r 5 S C C V 6 r , (. XL.",
"@ *XoX-.< C 6 V C C 5 < r *X% 9 9 *.wXyX0XtXyXeXeXeX0XuXfX4X#X0XtXfX0XeXtXtX-XwXtXeXeX;X#X;XoX9 t & /.$ S B B C C C 6 5 2 /.I.f.",
"@ +X X,.C 5 S C C Z C S r oX@ t q 0.yXtXtXtXtXtXtXuXtXfXuXtXtXuXfXyXeX0X0XtX4X0X2XfXyXeXXX;X=X9 t * oX@ C S S C C B C B + .X.XK.",
"X oX;X,.S r A C C C S C r oX7 x 7 8.sXyXpXdXfXuXtX0XdXgXtXtXtXfXfX0XdXtXm.M.x.x. .tX0XyXeXtX*Xt x - *X& C r D D C C B C , *X*X_.",
"X eX2Xf.4 V B C D C S S r H.7 x t 9.tXtX`.`.$XfXtXtXpXpXdXgXdXgXfXtXqXN.N.x.+.m.m.+.eXfX0X2XXXd d - K.# C S D D D F r C 2 (.2X,.",
"X 2X:Xd.r F Z D F D C S r -X& R y e.T.).).'.].'.kXgXfXfXpXfXfXgXfXfXN.M.m.B.x.x.m.X...).wX0X=Xx t % *X# C D C D F D D Z 2 0XI.K.",
"X (.2Xf.A F D D F F F D r 0X7 x t 0.).$XfXfXhXhXgXgXjXkXhXjXqXfXhXqXV.m.V.x.c.x.+.M.S.tXwXrX;Xt t * *X+ C G C D G G F S 2 0X2XoX",
"X ;X;XJ.C F F F F F F D u #X# T t d.yXpX).#XfXtXgXgXhXgXkXgX:X,X).$XV.N.V.N.N.M.V.N.m.-XuXfX(.q x % 0X& S F G D G D F V , eX=X*X",
"X .X0XJ.A D G &X5XS F D u ;X% x 9 0.tXfXtXfXfXtX,XkXfXgXjXfXgXfXpXc.S.S.N.N.V.N.M.N.+.x.uXtX.Xt t % 0X# C G G 6X<XN F G > yX4X(.",
"X -X2XJ.F G | F L F D L r 0X* T t 9.yXfXkXsXfXfXfXfXfXjXhXhXhXgXgXc.F.S.N.N.S.+.N.N.N.G.A.=X3Xf d % 9X# G G H D C F L G , 0Xt.(.",
"X #X;XK.G G F '.$XN H G r 2X1 f t p.fXsXfXpXhXhXfXfXkXkXkXfXjXfXfX$XF.N.S.S.!.S.c.G.N...1XuX0Xt t % ;X1 U ~.K #X$XD ^ D > 2XA.1X",
". 4X:XK.G 6XT.J D &XD G B 0X7 x t 8.fXtXqXtXtXjXfXhXlXkX XdXhXgXfXkX~.Y.Y.D.^  .2.3.3 gX;XtX-Xf x % 2X2 U A.#XB 4 $X^ C , 0XA.#X",
". q.0X/.D <XS ].`.' F F V 0X7 t x -.qXfXfXtXfXhXH.lXjXjXL.gXhXgXfXgXY.Y.Y.F.D.[.F.D.W.v fX4X=Xd x 7 =X1 F 3.t.$X#XA.F F > 0XwX=X",
"X D.0XK.F F P #X$X].V V Z 2XO y x 9.tXpXfXfXfXjXhXfXtXhX XJ.gXkXfXfXkX~.T.`.D.Y.T.U U.yXc R ;Xq T 8 2X# G T.D '.$X<X2.G < >X=X*X",
". | dXY.S F t.H G C J D Z 0X% x T 0.eXfXsXfXhXkXlXfXhXf. X=X XkXfXhXgXgX`.R.~.`.~.eXA.0XzXiX. t T % 2X@ D G C D F K K D 5 ( =X).",
"X e.R.0X2 G F $X7XC G D u 2X7 x t 9.tXfXpXfXgXoXkXpXrXg.fXoXJ.oXfXfXgXsX4X0X).4XpXfXuXtXi.rX0Xt h @ 2X& B F L 6XaXC F A > Q.8X8X",
"@ 0X3X/ r G F F D G G B < 0X9 t t e.tXtXeX2X9.+Xu.yXf.2X;XlXL.s.;XgXtX4XtXfXtXfXwXtXtXtXQ p =X0 q @ 0X1 C F F D D D F r O 9X<XW.",
"o =X4X,.B A F D G F G u < 2X9 t t s.;X.Xs.8.p.8.-.-.p.xX<.8.9.-.;.8.tXtXtXqXyXpXtXqXiX=.%.l p q d @ ~.# 5 D F F G D F r + wXF.9 ",
"  Q y 3.B r D D G F r C < 0X0 h h 6.;.d.s.L.9.*.uX8.s.<.7.;.-.;.<.6.8.fXfXtX4X0XtXa c l - 8 - d x . G O C r C D F C r B , :X-X|.",
". gX2XL.S B D D F C B C ,  X9 x R v 0.u.u.8.8.u.s.e.p.8.6.<.7.<.-.8.8.7.a.2X0X'.:XfX0X! d._ b f h @ + . C r C C D D u B , >XA.K.",
". 2.2Xf.r L B D G B B r > 0Xd 9 y Q d.s.p.;.;.u.p.s.8.<.<.8.g.7.7.8.u.7.f.8.}.wX0XeXs c % p p d t @   . 6 V r D C 6 V r , ~.>.-.",
". }.'.f.r A Z r C B V S 3 <.9 T q Q p.9.p.8.a.8.u.u.7.6.y.4.7.;.y.y.7.a.p.a.8.8.}.. a p i p - d t @ 6XO r S r 6 C C C Z # 2.1.-.",
"X }.z.9.D D C ^ L K K B < 8.7 t 9 =.p.a.p.p.! f.a.s.8.u.u.u.8.s.s.a.a.f.s.a.a.a.8.s.p Q -.v - q d % ;X9 F D F I G L L Z O ~.t.8.",
"X @ L.8.B u A A V C B C e p.7 t t *.d.g.3.X.f.a.g.g.p.a.p.d.u.8.y.a.L.L.L.L.f.f.a.p.a l c i - 9 t % oX% C B C Z r r B r e X.E.w.",
"X a  X6.r W V R V D 8 1 e f.8 t w _ } J.R.H.f.P.L.g.P.P.f.g.p.a.p.L.L.J.I.J.f.I.c a a i ; i - d q . / # 5 r V e / A r r , 0.= ! ",
". p a K O 9 e -.,.Z T ` 9 r.d 7 t %.L.e.H.P.K.P.I.L.P.f.a.I.g.L.P.J.J.I.P.P.d.L.:.g.a p $ a p q 9 . 1.7 d 1 B ' *.3 ` W $ w.q.% ",
". $ = % g b.O.oXD.7.8.! :.OXa t # $.a p 8.X.J.J.I.I.I.}.I.}./.g.L.L.P.f.:.:.0.p.0.&.i i ; i p t 7   s.a 0 z _ t.e.O.X.@ -.w.p 8.",
". _ <.3.f 4.8 W.P.f.x.g.L.L.& 9 X $ a.-.<.8.( 9.J.P.P. XI.I./.L.J./.y.7.<.=.p.7.:.d c n z a p 9 *   L.w.r.Y.7.a Q p.;.v 3.& -.;.",
". a p.w.! I.K.I.f.% $ W I.f.R 9 0 c L.s.p.y.p.8.u.8.9.f.I..X{.7.7.7.<.8.e.k p 7.a p i n v i $ _ * z a.p.x.r.9.a.'.L.- 0 a T y.;.",
". n x Q z Q $.n z p Q - / 8 R 7 $ i u.9 a.g.*.P.L.J.I. X/.L.P.f.P.d.d.n P.a.a a b i i a a i @ 0 - q v 9 p t z ! W Q v ! = 0 d d ",
". v x R R Q %.%.! ` ( ' T f d t 9 @ a a *.0.x a.*.p.9.(./.a.L.J.p.L.L.%.8 c a a a - a a i i % -._ _ d R W Q *.*.w.W.=.% z % - - ",
"  x t R T h T ' E ! R T T 9 q 8 0 X t q E T x R ! ' x ` E R O.O.` ! ` R E E R O.y t t t 9 t @ 7 a $ $ t x t y ~ T x x x T R x t ",
"  7 - % 9 9 9 9 9 q 9 9 8 % 9 M - X q 8 9 9 q t q h t q d q q 9 x 9 9 q d q d * 7 7 9 9 * * . a - - @ 7 8 9 t q 9 0 8 0 0 9 % - ",
"  7 8 7 7 9 9 # 9 9 * 7 9 % 9 @ 0 . q 9 q 9 9 9 * 7 7 j 9 9 9 7 9 7 9 % 9 7 7 * $ * 7 7 9 - . * @ - % 7 * * 7 7 7 * 7 * 9 * * # ",
". $ - - $ . - - - - $ - - $ . X $   X @ - - * - - i i p . @ 8 - - - a @ $ 8 - 0 - 8 - - i - X X . X $ $ $ $ . - - = $ $ = X = $ ",
". $ $ $ $ ) c _ Q n - n c -   a - $ ) a j.z @ |.i.R *.l.h.8 = . @ @ @ - $ R %.m $.$ h.$.a c ; 8 0 $ = i a p X c Q a - o a b z = ",
". 0 a f.% - z - i c p & k o 1X%.$.8 n $.4.p =.n l.n %.n a 8 =.n %.#.n c - c - Q v - v n a 8 ; :.=.l.; $ - @ % z i.8 9.z k l c - ",
". Q c =.=.@ 8 %.p 8 - p p p %.%.b i a a n $ v n a *.=.k n . n n n %.&.b . c - v p d.a c i c - %.i.n ; v i l.n a a z z $ z z a - ",
". n m n p - 8 4.k.7.k b p p d.Q -.i - a $ p.a i Q c Q - ) % n Q i a 8 n $ d X . $ - @ i - = % $.%.$.i c 8 b n n #.n b - p i $ $ ",
". p a * - $ - a - = - i i - $ $.z c i n u.- $ p - p p - = i @ - p p p - n %.b Q c v i 7.a p @ i.%.c = - 4.i - n c p - p 5.%.8 @ ",
". i n d.;.v %.a - z $ - - X @ n c 8 a $.Q &.% 8 - - i a d.#.) %.h.8 p p - a b a z d = Q ; p n $.n k - $.- - ; - p = . = = - - p ",
". 5.$.c n l c @ 4.Q a p p @ i Q n p i c #.v c a a a b i Q Q n c Q z = =.$.$ - n c $ $.a i p %.- z 4.- k a k = b a :.p c i a a l ",
". - c z a a p = - k n 8 - $ k - k m - p a a 8 p k ; p $ i p p p z v u.z k a n - - @ - $ ; - 5.b ; p o a k z p c @ 8 a a ; p - - ",
". - $ - - - $ $ - c v a $ . a p - k = 0 8 o % ; a - p o i - 0 a 8 - p - a ; = @ * $ - - $ $ $.@ a - X - - - = - X a - - - ; $ - "
};
