/* XPM */
static const char *south2[] = {
/* columns rows colors chars-per-pixel */
"64 64 243 2 ",
"   c #030101",
".  c #0B0503",
"X  c #0E0906",
"o  c #0E0A08",
"O  c #0A0708",
"+  c #120604",
"@  c #140A06",
"#  c #1A0C06",
"$  c #140C09",
"%  c #1B0E09",
"&  c #1A0404",
"*  c #1D1007",
"=  c #15110B",
"-  c #1D110B",
";  c #1C1310",
":  c #220D06",
">  c #210F09",
",  c #280805",
"<  c #320D08",
"1  c #380603",
"2  c #24120B",
"3  c #2A150C",
"4  c #25180E",
"5  c #2E190E",
"6  c #221007",
"7  c #31170D",
"8  c #331A0E",
"9  c #3C1C0E",
"0  c #341607",
"q  c #231710",
"w  c #261A11",
"e  c #2C1B12",
"r  c #2B1913",
"t  c #341C11",
"y  c #3A1E12",
"u  c #2D2115",
"i  c #2E2318",
"p  c #342214",
"a  c #3D2114",
"s  c #3C2213",
"d  c #33241A",
"f  c #3C2519",
"g  c #37291B",
"h  c #3C2A1A",
"j  c #3C2915",
"k  c #35210F",
"l  c #3D2D20",
"z  c #4A0402",
"x  c #4D0A05",
"c  c #440905",
"v  c #5C0C05",
"b  c #550A04",
"n  c #48190C",
"m  c #5B140A",
"M  c #401F10",
"N  c #6B0D05",
"B  c #6C130A",
"V  c #681409",
"C  c #781709",
"Z  c #740D06",
"A  c #432415",
"S  c #4A2615",
"D  c #442815",
"F  c #4B2A16",
"G  c #422618",
"H  c #442B1A",
"J  c #492919",
"K  c #4C2C1A",
"L  c #532D1A",
"P  c #542815",
"I  c #49331D",
"U  c #53311C",
"Y  c #5B341D",
"T  c #4D2A0F",
"R  c #63381F",
"E  c #772211",
"W  c #4B3423",
"Q  c #4E3A24",
"!  c #473424",
"~  c #533723",
"^  c #5D3621",
"/  c #533A25",
"(  c #5B3C24",
")  c #533B2A",
"_  c #5A3E2B",
"`  c #593F30",
"'  c #633B24",
"]  c #663B23",
"[  c #5C422B",
"{  c #59432A",
"}  c #5C4431",
"|  c #6C4323",
" . c #62442C",
".. c #6B452C",
"X. c #6C4A2C",
"o. c #664A2B",
"O. c #734926",
"+. c #764E2C",
"@. c #794D29",
"#. c #794825",
"$. c #7C512B",
"%. c #76512A",
"&. c #634631",
"*. c #644933",
"=. c #6B4C34",
"-. c #674834",
";. c #734E34",
":. c #794E36",
">. c #6D533B",
",. c #685336",
"<. c #745236",
"1. c #7C5433",
"2. c #74553B",
"3. c #7B563B",
"4. c #7B5A3D",
"5. c #7A5938",
"6. c #7E6238",
"7. c #775941",
"8. c #7C5D42",
"9. c #745740",
"0. c #7F6145",
"q. c #7E6049",
"w. c #831B0C",
"e. c #8A1809",
"r. c #921C09",
"t. c #841C11",
"y. c #8C220D",
"u. c #99230E",
"i. c #8B2313",
"p. c #832313",
"a. c #942511",
"s. c #9C2611",
"d. c #962914",
"f. c #81321E",
"g. c #A4270C",
"h. c #A32B11",
"j. c #AB2F14",
"k. c #A83616",
"l. c #B23210",
"z. c #B1421B",
"x. c #83542D",
"c. c #88592D",
"v. c #825531",
"b. c #845B34",
"n. c #8A5C34",
"m. c #835B3C",
"M. c #8B593A",
"N. c #975A39",
"B. c #874B2C",
"V. c #BE5C30",
"C. c #8D623A",
"Z. c #896239",
"A. c #93643B",
"S. c #956436",
"D. c #AA6A38",
"F. c #B5653C",
"G. c #AD713D",
"H. c #CC541B",
"J. c #CD5A26",
"K. c #DC602E",
"L. c #815E43",
"P. c #885C40",
"I. c #846245",
"U. c #8B6545",
"Y. c #856549",
"T. c #89664A",
"R. c #8C6A4B",
"E. c #896945",
"W. c #926C4C",
"Q. c #996B4B",
"!. c #956943",
"~. c #9A7149",
"^. c #916F51",
"/. c #8E7153",
"(. c #947352",
"). c #9B7554",
"_. c #9B7A55",
"`. c #9C7B5B",
"'. c #8D714E",
"]. c #A66B44",
"[. c #A57A4C",
"{. c #AB7D4D",
"}. c #A47546",
"|. c #B5784C",
" X c #A27E5B",
".X c #A67C53",
"XX c #B57B55",
"oX c #A17F61",
"OX c #C07B4F",
"+X c #9E8257",
"@X c #AE814F",
"#X c #B1804D",
"$X c #AD8253",
"%X c #A5825E",
"&X c #AA835D",
"*X c #AB8656",
"=X c #B38554",
"-X c #B58A55",
";X c #B98A56",
":X c #B3865A",
">X c #B68A5A",
",X c #BA8D5C",
"<X c #BB8557",
"1X c #BD915D",
"2X c #B69259",
"3X c #A68361",
"4X c #AA8662",
"5X c #AC8964",
"6X c #AD8B69",
"7X c #AC866A",
"8X c #B28C65",
"9X c #BB8D62",
"0X c #B28E69",
"qX c #B78B67",
"wX c #BE9362",
"eX c #B5926B",
"rX c #BB946A",
"tX c #B99667",
"yX c #B99671",
"uX c #C7895A",
"iX c #C2925E",
"pX c #CA945E",
"aX c #DA8B55",
"sX c #C29563",
"dX c #C59966",
"fX c #C59A6A",
"gX c #CB9C6A",
"hX c #C69769",
"jX c #D89A64",
"kX c #C49771",
"lX c #D3936D",
"zX c #CCA36E",
"xX c #D4A56B",
"cX c #CDA474",
"vX c #D3A876",
"bX c #E3A269",
"nX c #E79B6E",
"mX c #E7B48E",
"MX c #E9C497",
"NX c #F7D7AB",
"BX c #F7E4B6",
"VX c #FEF6D0",
"CX c #FAF8F5",
/* pixels */
"y s t t s a s G s y 9 9 9 $ 8 9 M F F S A A y s A J F S A A F # A S A S 5 s A A G G K P S A G y y K 6 3 6 % t y y y 8 t @ @ 2   ",
"a 8 5 t y J G ^ s s ^ t t - 6 H ! t 8 y y s y Y ^ L Y U U L S U L S A K K A J J J J J J t e Y t t t s y a 8 J t e 8 s y y t t   ",
"G a a J K 3 @ @ 3 8 y t a - L F e A y s L Y Y U G J A s y s a a a G G A A A Y Y K K U G 3 t y r K t 5 y 8 t 5 3 5 5 e t t y s   ",
"# # % % 6 @ % . . @ $ @ % + : 6 6 2 > % : > # % # 6 - 5 3 6 % @ @ @ % 2 2 % > % % 3 6 6 @ # % # % . % # 6 2 6 # @ @   % @ $ @   ",
". . . . . . # . . . . . .         . .                   . .                           .                   . X X $ . X .     .   ",
"( f - ) / $ @   p _ _ Q } )   @ $ @   . @ . . + . @ @ @ @ . . 8 + @   . @ . . + @ + @ @ @ @ @ # X - W h d g Q ) @   W Q ) 4 h   ",
"*.*.) ) ) )   ; Q ) _ _ [ ) @ - 2 @   @ @ + $ $ @ # % @ %   .     . 2 + @ @ . @ @ @ X @ @ @ - % $ p [ _ ) ) Q ) X   Q ) _ _ Q   ",
"&.[ ) &.7. .4 @ [ =.7.) q.} % 3 2 >   @ - % > % 2 2 @ . % # # . @ # 2 @ . % + # 2 6 % % + % > 2 $ *.*.[ <.8.8.[ = H ( &./ 8.)   ",
"&.,.*.8.Y.8.@ 8.[ q.q.q.Y.Y.4 4 2 2   % # # $ p . @ 3 8 t e 3 X 3 3 3 2 2 2 . 2 6 @ # # @ 6 2 3 @ &.9.8.8.8.q.T.% 2  .4.8.7.*.  ",
"T.4.8.8.I.0.h *.T.Y.T.8.I.7.= 2 % % . - $ .   # # % % - $ $ % @ - % # @ # - # # $ O ~ . % $ @ - X *.q.q.I.I.Y.T.. @ 4.4.8.8.8.. ",
"Y.8.8.8.8.4.. I.T.T.I.q.Y.8.- 2   *.h s c.x.x.#.x.#.@.@.@.@.+.' ' @.x.x...X.$.x.n.S.c.| A 4 e % . *.8.I.I.Y.T.T.. + 7.8.8.8.8.. ",
"I.8.8.8.T.Y.[   q.3XY.8.R.8.w 5   $ 6 @ D D D a s t G D K D a 5 t s a D K D D U K U U K $ $ ; @ X *.T.T.8.I.T.T.r   T.8./.2.2.  ",
"Y.8.8.T.Q._ X.  L.R.8.8.Y.L.e 8 6 .     2 * 6 2 2 - - 2 * = @ = 2 6 - % @ @ 3 5 5 5 2 -       6 @ <.Y.I.T.I./.>.! e _.^.4.T.8.  ",
"R.R.8.- p Q W Q u . ^.R.6X8.u t 6 %   . U O.$.x.C.b.$.v.O.| | T x.c.C.C.Z.C.~.n.A.b.0 L s   + 2 $ U.~.Q. XY.% H o.h 5 # 4.R.).  ",
").).;.$   @ . . # .  .3X4X7Xd 3 2 2   . | 1.v.v.C.n.@.!.n.S.$XG.}.{.{.}.}.~.S.[.}.Z.$.1.p   2 4 % I.W.R._.T.$ @ . . .   <.`.7X. ",
"_.(.).& 1 V B B c , Q.4X4X4Xd t 4 5   @ {.=X;XiX<X,X$.>X,XwXsXsXsXwXwXsXsXwXsX;X1X-X!.$.p . 4 3 - I.T. X).` m V m m < n % 2. X  ",
"W.^.& B m t.i.i.x C . Q.4X4Xd t 3 4   # #X1XiXgXQ ,X[.1XwXwXwXwXcXwXsXwXfXfXsX .1X>X,Xb.a + 3 3 % m.Y.).Y.P x i.a.d.p.1 c -.I.  ",
"rX7.V y.i.a.a.s.w.w.C 4 .X&Xu t 3 3   @ iXsXdX. = Y.wXwXwXsXsXwXwXwXwXwXhXwXZ.# >.-X,Xb.D % 3 5 @ 5.Q.&X. N z a.s.h.r.v N . ;.  ",
"qX=.x m b N Z Z b z 1 4 U.&Xg y e 5   - iX,X=X/ / @ sXwXwXwXwXwX,XwX,XwXsXhXp h r 1XwXS.D > 3 5 @ 1.{.:X< c x V N N N 1 V : 1.. ",
"8X*.C a.a.g.CXe.a.C V 4 m.&Xg G t 5   # ,X;Xi H $ -XwXwX,X1X,XwXwXsXwXsXdXsX*X@ d $XwXC.D # 2 3 # v.|.uX, r.v l.mXk.g.1 e.: c.. ",
"cX3.w.a.N.J.l.J.f.d.x 4 M.sXp S t 3   # ;X=X- H =.,X,X1XwXwXwXwXY.%XfXwXwXwX>X  u g 9Xx.H # # 6 # D.|.jX, i.v lXr.l.mXz s.+ B.  ",
"cXI.N e.XXh.BXH.hXj.C t |.hXp S 3 3   : sX1Xf ! 1X;X-XwXwXwXcX4 . @ H fX-X,X,XX h - wXn.G # % 2 & D.jXbX< l.B uXVXNXlXv i.+ B.  ",
"<X3.i.r.XXz.MXH.F.s.C t uX<Xp n 4 5   2 hXsX( ( *X,X,X,XwX  % 2.% o.+ .   X >X= I pX,Xx.p # # 2 # D.pXjX< h.B nXNXK.mXz t.+ N.. ",
"gX3.C s.F.MXH.V.N.u.N 4 OXuXs P 3 y   # sX,Xp b.4.wX,X-Xo.= hX2 2 }._.dXpX;.sXw g iX;X@.G # 3 3 # D.uXjX: u.v MXJ.OXlXz a.& ].  ",
"cX5.C s.i.u.BXZ r.r.C e uXuXp P 3 s   # ,X-XwX3.8 fXsXsX .wX-X  <.9X8XkXfXwXI o.{ =X=X@.F > 3 7 & G.pXjX< r.z l.mXz.h.c r.& |.. ",
"vX<.x v z b V V v b 1 r uXuXp P 3 s   : sX,XsX= Z.X 4 e wXwXE.  _.eXwX_.. tXe f fXdXsXx.U 2 3 2 # G.pXbX< N x v B B b 1 x + ].. ",
".X=.B w.a.h.j.h.y.B x - |.<Xp P 5 M . 8 gXsX1X-X=   }   : (._..X%X.X.X8.5 g . ,X,X,X,Xx.U 2 8 8 + G.pX<X: t.v g.j.j.r., V   M.  ",
"dXqX. v b s.d.t.x m , _ ].9Xt P 8 9 . 8 gXiX;X>X    . u gXzXhXwXgXhXd 3 = .   H ,X;X,Xx.I 2 8 3 + D.XXD...1 b s.g.u.C 1 z K Q.  ",
"cX9XB.@ , , < < & . N.M.9XkXp P 3 9   3 sX,X! e e [ . xXdX:XrX,X3.I e @ - ~ - g . dX9Xn.j > 2 2 + A.<X<X].n : , 2 , , + < B.Q.  ",
"vXwX!.L .   @ @ . 3 M.!.9XrXp S 2 G   2 iX,X  ! - [ >.vXvXvXzX'.&Xo.~ sX@ l e h h . ,X1.p # # 8 # C.:X:X<XA.. + @ # @ . v.v.Q.. ",
"~.9XN.r $ $ e = @ * M.U.qXkXu G 2 3   3 sXsXo e p = {.~.-XhXhXdXcXwXgXwXsX  p = u   ,X1.p # % t % E.*X*X,XM.. . @ % .   m.<.:.. ",
"kX:XM.M.<.<..  ...M.m.P.W.Q.w A 2 3 . 3 dXfX{ H f +XxXvX  dXdX*X:XrX  vXsX4.e . @ vXwXb.D # 2 t % I.W..X*X3.L.A . 2 W =.;.3.U.  ",
"kX).tXA.M.M.6 t :.;.;.eX&X&Xw G 3 5   3 sXsXdXr   y . X $ >XzX2XU.(.. . X e   4   ,X,X1.H % % 4 @ I.8X8X5Xm.3.3.+   =.<.3.U.5X. ",
"yX4X0X[.A._ .   <.;.R.8X4X4Xe s 3 3   3 sX1X1X X. .   VX. ..*XrXo.0.. VXo   o.  %X,X;X%.H # # 4 @ Z.).8X8XyX1.3..   ;.<.3.8X8X. ",
"rX4X4X4XU.*.t.  I.(.0X0X0X0Xg G 3 3   3 iX;X;XsXeX3   . u f @ ! . [   X = - Q.  ,XC.;Xv.I % 6 3 @ R.8X5X8X8XrX!.t.  <.L. X&X4X  ",
"0X4X5X5X0X>.p.  4X&X4X4X5X0Xg s 3 5   2 sX$XgX:XzX:X.   / I - . @ / _ . . xXsXp dX:X,Xb.s # 3 2 @ T.8X4X4XrXeXqXt.  3.4X%X3X4X. ",
"eX4X5X5X8X2.E    X%X4X4X%X4Xe s 3 8 . 3 dXwXsX4 gXsX$ ' [ { [ / _ [ / f <XpXdX,.gX! >X1.e # 3 e @ 0.&X4X5X5X5XeXB   4.5X3X3X3X. ",
"eX8X4X5X5X_.W *.4X5X&X&X4X5Xe A 5 t . 3 gXwXwXq gXgX . .[ / { / / [ 2 / ) pX2Xr ~.f >Xb.p # 3 t @ I.%X&X5X5X5X8XW ,.T.4X4X4.4X. ",
"Y.(.7X4X5X4X<.<.6X4X5X4X5X3Xu t t t   2 ,X-X-X,Xo 4.o.( / $       ! Q W   -XE.>.>X-X=X1.p # 6 3 # 4.&X5X4X5X5X6X3X2.6X4X4X4X3X. ",
"eX4X%X&X5X5X8X8X5X&X_.4X5XY.p 3 2 5   3 ;X>X>X:XtXt =.{ { . ! + *.$ / W   *X  {.=XD =X1.p # 2 3 % Z.%X4X4X4X4X5X4X4X&X4X5X6X4X. ",
"eX5X5X4X5X4X4X4X4X X_.(.W.%Xu 3 4 5   6 ,X>X- *X$X[.  u   / ) / ) p @ @ u   {.=X=X;X;XC.8 # 2 e % I.&X%X%X4X4X5X4X4X4XW.).5X(.. ",
"%X4X5X4X5X4X6X6X0X5X5XoX4X4Xd t r t   6 iX>X2.Y.$XgX    O @ $ $ $ w $ p rXO :X9X>X,X,XC.( @ 2 3 # U.4X%X%X%X5X5X5X5X5X).8.4X%X  ",
"eX`.6X).%X6XeX3X4X4X4X4X4X%Xi 8 4 8 . 3 sXwX,X,XsX[ @ Q xX+ 2 2 # - sXsX= 6.+ _.I ,X-X1.t @ 6 4 @ I.&X&X4XI.4XeX5X5X5X4X3X%X%X  ",
"0X%X0XeX6X6X6X6X5X4X4X4X&X Xi 8 3 t . 2 ;X;X>X:X  - *X= zX>X,X;X=X|.!.X $X) - - 4.-X$X1.e @ % 2 @ I.&X4XL.6X4X5X4X4X5X4X3X4X3X  ",
"yX4X4X4X4X4X4X4X4X4X5X0X5X5Xw 3 3 t   % ;X-X-XI.@ 6 - = X W.,X;XfXr - s . @ 2 f 1X>X-Xb.e @ 6 2 @ 4.&X%X4X4X4X4X4X4X4X4X4X3X5X. ",
"6X%X&X5X4X4X4X4X4X5XR.3X0X6Xe t 3 3   @ =X-X| % zXt @ {.6 $         X # X p jXe W E.,XA.p @ 4 4 @ =. X4X%X4X5XyX4X%X%X(.T.).3X. ",
"%X(.2.0.5X4X4X4X3XT.6X6X4X7Xr y 3 3   . [.{.Z.p  .$X$ gXK # <.Z.1.  ^   -.~.$ = 4 *X;Xn.j % 3 5 % 2.).%XE.4X5X6X5X3X_.6X`.4.4.. ",
"T.5X). .4X5X%X5X3X(.&X4X3X/.e t 3 3   # #X{.{.@X( $X$ ~.,X,X;X,Xe { -X$ 5.[.,.,._.=X<X%.H % 2 t 6 2.(.%X=. X4XeXT.4XT.5X8.[ 4.  ",
"8.2.).o./._.4XL.7X2.8.(.T.2.u t 2 6   # #X@X=X$X{.{.*X#X=X-X;X. 3 [.- [.>X-X=X=X:X=X=X%.5 @ # 5 - 8.4.I.2.(.`.4.T.5XR.4X=.=.2.  ",
"q - w q - $ 4 e p 4 4 - = q @ t 6 4   @ }.b.-X{.{.{.[.{.=X=X;XS.-X=X$X@X-X$X$X{.>X}.#X$.e . 6 2 - # e e @ - 4 = $ q 4 4 - - =   ",
"^ ' ] ] Y s ] ' F #.K U J G . y 2 3   @ !.@.A.n.n.{.[.{.@X@X=X-X@X-X-X.X{.{.{.~.@.A.C.$.t @ 3 # @ t U U ^ ..^ U K K D G J K J   ",
"5 t t y t 3 3 2 2 2 2 2 6 % . y 3 3 . @ O.| +.+.#.%.%.$.x.x.$.x.x.x.$.O.v.#.%.$.+.+.$.%.p % 3 4 @ # @ 3 3 8 8 7 y 3 3 > 2 3 t   ",
"3 6 5 3 3 2 3 3 3 3 2 3 2 r . t 2       : # % 2 % % > 2 - % $ $ @ % % $ @ @ 6 4 4 2 4 2   . @ 3 @ @ 2 2 3 s 8 7 2 3 5 3 3 5 2   ",
"            .             . . 8 @ 4 % 2 G G H Y Y G K J a K 8 s y S F G A K A Y A K F s . - . 2 # . . .     . . @ +   .         ",
"2 6 % @ $ % 2 6 2 + 6 # # > @ 8 . X .   @ # > 6 6 6 # # @ # - % # % % @ # * # # # # % %       6 # 2 # 2 # @ - # 6 3 6 2 % 6 %   ",
"G s 2 S e A 2 7 y > F A a G @ 3 2 @   . + @ @ @ X @ @ + @ @ X . . X . . X . . @ X X @ $ $ @ @ 3 @ : s y A % G s 8 G 5 S A A y   ",
"G G G D t s A A y # F A G G @ 3 2 4   @ @ @ - # @ # % % # % % . @ @ @ # @ # . @ @ @ $ @ % 2 3 3 @ # y A S K F G G a ~ G s A G   ",
"A > s 8 s G G s t . G G s 8 @ 7 3 3   @ @ # 6 2 2 2 # 4 2 2 % + : 4 2 6 # > . 2 6 % % @ @ 2 # % @ 2 a A G 6 A 5 p y % a 3 s G   ",
"3 2 3 2 6 y t 3 5 + 8 p 2 6 @ 5 3 3   @ # # # # - 2 > 6 4 > 6 . : # > # - @ . * # % # $ @ - @ # @ # 3 8 2 % 8 t t t - 5 6 2 2   ",
"@ @ . . . @ @ X . . .         + @ @ . . @ . . . . . . X . . . . . X @ .   . . . . . .     . . @ . + @ . . . . @ @ $ @ . X . .   ",
"^ ' ' ^ ^ ' ' ' ' U K ' a t | K U Y J G K L R Y Y Y U U Y Y ^ Y Y ' Y Y Y Y Y Y ^ Y U K - K Y ' S   G H K ~ ^ Y ] ' Y Y U K ^   ",
"t 8 y y y 2 G G 8 y t 3 r r G t G a s p e t t L R J ' Y R Y Y Y | R Y L ' ^ ' ] K t s 6 2 D y G 3   3 2 4 3 y A s L F S 7 8 y   ",
"G a G t s 4 s t t a y G G t J 8 y s t # p f H G a f H s s 5 t t 5 y 3 t y t y a a H 8 t % D G 8 t   : y t t t 3 5 t $ 3 e W G   ",
"@ @ $ @ @ X $ X X X o X o . $ $ o X X X o X o @ @ X X X X X o . X . X . . X X X X . X X X @ $ o X . X X X o o $ o $ X @ X @ $   "
};
