/* XPM */
static const char *wall7[] = {
/* columns rows colors chars-per-pixel */
"64 64 221 2 ",
"   c #020301",
".  c #080703",
"X  c #050A02",
"o  c #0A0C04",
"O  c #0D0D09",
"+  c #110E05",
"@  c #100F09",
"#  c #061201",
"$  c #0C1304",
"%  c #061A02",
"&  c #0C1B02",
"*  c #0F1108",
"=  c #111405",
"-  c #131A06",
";  c #1A1A06",
":  c #13140B",
">  c #19170C",
",  c #151A0A",
"<  c #1A1B0C",
"1  c #181912",
"2  c #1C1C12",
"3  c #211D0D",
"4  c #211E14",
"5  c #0E2303",
"6  c #152703",
"7  c #152305",
"8  c #16220A",
"9  c #1C240C",
"0  c #1E2B0C",
"q  c #1E3005",
"w  c #1E2312",
"e  c #1F2811",
"r  c #22250D",
"t  c #232A0D",
"y  c #292A0D",
"u  c #203004",
"i  c #24320D",
"p  c #2B310E",
"a  c #33390D",
"s  c #232314",
"d  c #292617",
"f  c #242B13",
"g  c #2B2B15",
"h  c #25241A",
"j  c #262B19",
"k  c #2B2C1C",
"l  c #302C16",
"z  c #312E1B",
"x  c #263213",
"c  c #2B3313",
"v  c #263814",
"b  c #2C3B14",
"n  c #2D331B",
"m  c #2C391A",
"M  c #333515",
"N  c #323C14",
"B  c #33331C",
"V  c #323C1B",
"C  c #3A391B",
"Z  c #2D2C21",
"A  c #302F24",
"S  c #2E3321",
"D  c #343422",
"F  c #393623",
"G  c #353A23",
"H  c #3B3C25",
"J  c #383729",
"K  c #3C3B2A",
"L  c #3F3D32",
"P  c #403D1A",
"I  c #413E28",
"U  c #413F31",
"Y  c #374615",
"T  c #35431B",
"R  c #3A431D",
"E  c #36491A",
"W  c #3C4A1D",
"Q  c #3B4424",
"!  c #3D4923",
"~  c #3C4826",
"^  c #3D422B",
"/  c #474E1C",
"(  c #424425",
")  c #414B24",
"_  c #43442C",
"`  c #434B2B",
"'  c #4A492B",
"]  c #524B29",
"[  c #485626",
"{  c #46522A",
"}  c #4B542C",
"|  c #525D2D",
" . c #454332",
".. c #4A4734",
"X. c #454A31",
"o. c #4C4B34",
"O. c #4A4738",
"+. c #4C4C3A",
"@. c #514D34",
"#. c #514E3A",
"$. c #4C5333",
"%. c #4E5537",
"&. c #525533",
"*. c #5B5737",
"=. c #545B34",
"-. c #54543C",
";. c #545B3B",
":. c #5C5B3B",
">. c #625D39",
",. c #546231",
"<. c #5A6332",
"1. c #586637",
"2. c #5B643C",
"3. c #66683C",
"4. c #68743D",
"5. c #70713E",
"6. c #585744",
"7. c #5C5B44",
"8. c #625E43",
"9. c #615F4C",
"0. c #5D6244",
"q. c #626444",
"w. c #636B43",
"e. c #64644B",
"r. c #696749",
"t. c #65694B",
"y. c #6B6B4B",
"u. c #726C4A",
"i. c #697343",
"p. c #6B7743",
"a. c #6C734B",
"s. c #73734E",
"d. c #76794A",
"f. c #686652",
"g. c #6C6A52",
"h. c #726E54",
"j. c #6E7152",
"k. c #6F7952",
"l. c #737454",
"z. c #757A52",
"x. c #7A7B54",
"c. c #75745A",
"v. c #7A765C",
"b. c #747A5A",
"n. c #7C7C5C",
"m. c #797660",
"M. c #7D7B61",
"N. c #827C5B",
"B. c #817E63",
"V. c #7D8355",
"C. c #7C815C",
"Z. c #7E8362",
"A. c #84885E",
"S. c #968C58",
"D. c #A18A5F",
"F. c #838363",
"G. c #888765",
"H. c #858963",
"J. c #8C8C64",
"K. c #858369",
"L. c #89866B",
"P. c #8B8B6B",
"I. c #958A67",
"U. c #918C6C",
"Y. c #8C9268",
"T. c #94976D",
"R. c #8E8C72",
"E. c #918E73",
"W. c #8C9272",
"Q. c #949374",
"!. c #999572",
"~. c #959975",
"^. c #9B9B76",
"/. c #969379",
"(. c #9A967B",
"). c #9D9B7C",
"_. c #A19D7D",
"`. c #9DA27A",
"'. c #A4A27E",
"]. c #A2A97C",
"[. c #9D9D83",
"{. c #A19E81",
"}. c #A5A283",
"|. c #A9A685",
" X c #A6AA85",
".X c #AAA789",
"XX c #ADAB8B",
"oX c #B1AD8D",
"OX c #B5B28D",
"+X c #B2AE91",
"@X c #B5B292",
"#X c #B9B695",
"$X c #BBB996",
"%X c #B9B699",
"&X c #BDBA9B",
"*X c #BBB9A4",
"=X c #C1BD9C",
"-X c #C2BEA0",
";X c #BEC0A2",
":X c #C5C29E",
">X c #C5C2A3",
",X c #C9C5A5",
"<X c #CAC7AA",
"1X c #CCC8A8",
"2X c #CDC9AB",
"3X c #D1CDAD",
"4X c #D5D1AE",
"5X c #CFCDB4",
"6X c #D2CEB1",
"7X c #D5D1B3",
"8X c #D9D5B5",
"9X c #D9D6BA",
"0X c #D9D6BB",
"qX c #DCD9BD",
"wX c #E0DCBE",
"eX c #DEDBC2",
"rX c #E1DEC4",
"tX c #E0DDCA",
"yX c #E5E2CB",
"uX c #E5E3CC",
"iX c #E9E6D2",
/* pixels */
"oXR.9.J 1 . : 4 3 > . . o     1 A 6.K..X=X%X/.f. .2 . 1 F o.-.#.#.Z @ O . : Z 6.M.}.oX/.f.L 2 o   : > .   . . o     . O h ;.A.(.",
"7X3X>X+X/.+.k F B s < s > . Z /.@X>X3X8X9X7X3X>X@X).+.1 O.8.r.8.h.7.A . +.(.+X>X2X3X8X6X,X%X).c.2 2 z 3 = o : 4 o h g.L.|.=X2X6X",
"qX8X2X>X&X(. .g M l s 2 @ 2 B.=X2X3X9XrXyXqX8X2X>X&X(._ U 8.y.y.v.f.Z K }.,X2X3X8XqXqX9X3X,X&XoXf.2 4 d g s d < 4 N.OX=X2X8XqXrX",
"qX8X2X>X&X|.e.d 3 s < + : 6._.=X,X3X8XyXuXrX8X2X>X&X|.q.k B I @.+.H D z.|.=X,X4XqXyXuXrX8X,X=XoXU.F < r g g s 4 -.^.&X,X4XwXuXiX",
"qX8X,X&X@X[.e.s : 2 < o < q.^.oX$X:X3XrXyXqX8X,X&X@X_.e.B k H X.^ G  .e.G.|.$X2XqXiXiXrX6X>X&X.XP.F O 2 h d 2 B q.^.$X,X4XeXuXuX",
"8X2X&X+X}.P.6.:         < o.n.T.^.|.$X2X7X7X2X=XoX}.P.q.d . o O o : B o.q.A.^.%X6XeXeX9X<X%XXX^.c.k         o k ;.Q.OX=X,X7XeXqX",
"=X&X+X.XQ.b.-.2   .     o H q.x.F.I._.XX%X=X%X.X).Y.b.7.n . . .   . > G } q.n.(.%X>X,X>X$XXX/.n.6.d .   . . . w -.L.}.OX&X,X2X,X",
".X|.}.(.F.e.X.w . o X .   g $.q.N.D.I.L.^.'.^.P.n.a.7. .k o < : o   $ f W 1.i.n./.}..X|.^.P.f.o.F s . . . . . O ` l.!.|.+X@X+XoX",
").).).E.c.;.n :           2 H $.d.S.S.n.A.A.x.y.7.;. .D j o $ X .   . 9 f ) ,.i.s.n.F.N.y.:.K d s 9 .         . S ;.n.!.}.|.{.{.",
"(.).E.c.7.K h : . X X     > Q } | 4.d.d.i.w.i.=.^ D D k s . $ #     . 0 f g G ` 1.q.y.s.3.H n d w < o         . j ^ y.A.P././.E.",
").L.O.h 4 2 2 , X &   .   < n V m f ( } $.&.&.g = O : 2 s X & & X     , 9 f f < B =.1.3.[ r > < < , $ $ X X   . s G o.7.-.g.K.E.",
"U.#.o       . o # $   . . , o X .   o c <.3.M .         : $ # X X X . $ X X .   o Q <.{ 9 .     . X o 6 & X   o w : : : @ h -.N.",
"8.z .       . = X X X X . = .         r W C =         . > $ X $ X & - X           < R c $         o : & 5 & X , -         . D u.",
"D s F D s h n c $ # & # = ; ; o o t r p : < . = 9 , < V n >   - & $ 9 8 = $ - 0 ; = $ o o - , : w B D G $.$.D Z f 2 : : 2 < 2 D ",
"o : ' o.H H H f $ X X # = = : , ; f y ;     . r c M B ` H K _ %.,.^ g r i 0 Y Y i X     ; R V B ` q.Z.).|.Q.Z.j.-.o.o.&.>.( : O ",
"  . : : o o o o         . . . X X . o o     . = o : H ;.t.c.A.F.Z.b.q.H V i - = $ .     . < < ` l.~.#X2X5X>X@X`.F.j.w.&.F g o   ",
"              o : > : $ X           . .     . . . n ;.z.H.^.|.XX X).P.i.` V ; . X       . o Q x.}.&X2XqXrXrX7X&X|.Q.B.y.D < o   ",
". . o   :  .9.v.j.;.Q j 2 : O .   . = o . . X - r Q w.V.T.OX,X2X,X&X.XT.w.^ s o ; o . . . 9 &.P.OX>X3X8XyXuXeX2X%X|.(.L.7.z @ . ",
"< > o : 8.^.+X%X Xb.1.` j w 2 > o . = - , o , 9 b ( ;.z.^.=X9XqX8X2X=X^.l.$.b ; $ = ; . . , Q z._.@X:X6XqXeX9X2X%X.X}.Q.e.s < s ",
"3 : + B x.)..X&X;X[.b.2.{ k h 1 > $ = = $ = o = t B _ 7.Y.$X9XqX8X2X&X).z.` c $   . = o . . g =.C.^.@X>X2X2X<X=X+X.X).P.e.: o 3 ",
": < < ' l.K.Q.XX<X*XR.a.4.{ m j f - X $ o $ . . 0 V ` =.l.'.&X>X=X%X.XQ.a.` 2 .   X $ X   X x ~ 3.F.}.@X@X@XoX|._.(.L.n.7.: @ > ",
"  . < _ 0.j.C.^.%X*X XA.p.| Q x < *             , Y [ ,.p.A.~.).^.^.Q.b.;.Q < .           . f n } y.U.}.{.(.Q.P.L.F.g.t.O.:   . ",
". . : H %.2.t.Z.).XX`.A.3.<.H c < 8 X           $ t b ! =.2.z.C.M.M.c.0.{ b , .             8 c ) :.n.E.R.K.F.F.n.e.e.8.I :   . ",
"= . * D $.;.p.a.H.T.Y.z.4.<.' g e 9 . X X       - 0 9 m ) } 2.i.l.j.2.^ W f $               8 b T ) _ 9.c.v.H.n.+.D D H d o o : ",
"    * Q { $.4.p.d.z.x.d.4.| [ T 0 , X           o 8 , < f b ) =.w.2.T r ; $ o .             o $ $ = o 2 ..s.V.( o   . o . . o o ",
"X   O S ! { =.1.4.2.q.:.=.=.) N i 0 o X & $ X   o X .   . X 9 } <.W o         . X X X   . X .         . P 3.=.2           o   # ",
"% X * n n Q M n ( _ o.+.^ V C c < 9 $ $ & $ # X X           9 W Q p .         = = $ = : # $ - - X $ , < M H n < : O o > C g $ 6 ",
"X   > m 8 * o o < k I ' s o o o $ : $ - $ # & $ = - $ , f c v , 0 ; , , ; - , , o $ 7 - X , 9 9 t b N N < o o s ( ( _ >.u.I 1 X ",
"O   2 :         . s H V $       . * w b v 0 8 0 7 9 r Y R [ T . . X r g c f f > 9 f b 9 , 9 - - , , , t =     ; M h 1 k F O. .O.",
"Q.0.X.h o . . o . = 2 : o   O j V ` o.=.| ~ G V f 8 9 0 c b 0     . = o < v T D $.2.2.+.` G f O     . = =     = o : J 9.L..X=X>X",
"6X&XP.6.F j g Y r . . . < j G ^ X.;.w.t.0.;.&.` ( C 0   $ 0 0 . . . X 9 V T K o.y.C.Y.n.a.;.~ n $   o 9 , = + < f o.Z.|.>X3X8X8X",
"8X2XXXm.-.~ V x r       < Q X.#.0.a.V.H.Z.x.3.=.} { Y , o t p = $ . 0 Y V Q $.w.H.]. X`.Y.z.;.Q f o - 0 r 9 9 x ! 0.K.XX,X4X8X8X",
"8X4X=X).j.X.x $ = .     w Q o.q.a.z.F.T.~.F.a.2.| | W r o ; p r = , y N V ` =.w.C.]. X X^.H.t.` j < $ , , r , x { w.P.oX,X4X8X8X",
"qX8X>XXXF.,.m , o .   . w V } w.y.l.Z.W.~.W.C.w.=.{ R p $ X X o $ X , N W { ,.i.k.Z.R.).~.Y.l.X.m , o , r 9 : < G 0.L.oX>X7XeXrX",
"eX6X=X.XZ.%.n , o $ X . - m ) 1.w.d.A.P.Q.T.C.0.,.` m i $   X $ $   $ x V H } =.0.g.C.J.J.H.s.$.c -     . X . : Q w.H..X=X6XtXuX",
"7X>X@X{.c.X.n , . - $   . j Q | 5.a.V.H.Y.A.V.p.| | [ 0 o           # i T ! [ ` X.-.w.w.y.z.i.( f ,           $ Q 2.A.'.@X>X5X9X",
"%XXX}.E.t._ n >   $ o . . w m Q } ;.i.a.y.0.;.<.! W E 9 o           . t Y Q ) { ~ J &.2.:.w.o.B s ,           o n &.x.!.|.XX+X%X",
"{.).(.K.t._ n <   . .     8 x b Q ,.3.3.=.=.} Q R T c - .           X i N n Q | [ G { <.=.$._ R f ,           X n } d.J./.).(.(.",
"(.)./.n.e.O.J 1           > f b N V ( ' { ' R c t x r ; $           # 8 v g c W [ R [ ` Q n f f f < . .   $ X . c } i.g.f.B.R.E.",
"/.R.7.K _ ^ G 2   X .   . - o . X . = b ! / t . . X X . X X & $ $ . X X $ $ o , p W [ G 9 o X X o ; $ X X $ # o f g D d 2 J g.U.",
"!.7.: . o O o o . o .   X o         . c R c 7           $ & & 7 $ X X           ; T W N o         = # X # # $ * *         @ 7.!.",
"n. ..         o         o = = o o , , 0 N p = o .   X - & $ X X & & X . . . X , p p M 0 - o . X . , - & $ & $ , - O . o @ 2 ..h.",
" .k k d 1 2 k r . X X X , t M M M / R : $ o ; P y - - 7 $ X X X X $ . o = 7 a / / = ; $ T W N i 8 = $ X X # - f s M D _ >.*.k J ",
"O 2 &.:.&.&.' s . = r X - 9 t r t t r =     = 3 = X X X X X # $ X . . . o $ t M N X   X 0 r , $ o . . X 5 # # 0 w f z H ' o.< O ",
"  o s s > < - o . $ $ $         . . = =     .           X X X X X           X , 8     . X             & & X   . o o o o : g :   ",
"  . .             & & # X         o , = ; = + .         $     X             . 9 , . o o o .       $ & &     . #         2 k : . ",
"o @ > .       - - e f t q X   .   $ , y y 0 t =         # X . # .   .       . - , + o + ; .       $ $ $ & X X &     . . s I C g ",
"d k 2 . O h K t.F.Q.(.P.j. .2 o o = = y r 9 = o .   o 8 j H +.$.D 2 - .     . X . o o o o     X : D -.M.L.e.X.m :   o : < d C C ",
"g s > h c._.@X>X,X<X2X2X>XXXL.+.O o : ; r t ; o = l ( %.e.n.M.b.f.8.%.S 1 . . . $ o o . . . < G -.F.XX>X2X-X}.K.t._ h : s z C B ",
"4 k h y.%X<X3X8XqXeXqX8X2X&X}.F.K o   X o X .   g } 0.b.Q.{.}.Q.P.B.y.=.n -               o g o.c.XX2X8X8X7X&X.XQ.M.-.O   : 2 1 ",
"    F !.-X2X3X8XyXiXyXqX2X=X|.L.7.2 .   .     : G ;.c.(.$X,X,X$X.X^.Z.0.! x o           . < D #.Y.:XqXrXrXqX2X&X.X(.h.d o . . . ",
"o @ @._.$X:X,X8XrXuXrX8X2X&X|.L.0.g o $ = X o w ` y.P.@X3X9XqX2X&XXXQ.g.$.m *   X . X X $ 2 G 7.^.,XeXuXuXrX6X-X@X}.v.K : : s < ",
"4 < @.(.oX#X=X,X7X9X7X3X-X@X_.F.0.j . o X . o w &.x._.&X2X9XqX8X,X%X).v.#.n $     .   X 9 f ` a.^.>X9XrXrXqX2X%XXX^.v.K O @ k z ",
"o o #.^.|.oX@X&X-X-X=X&X@X.X(.F.0.k . X     . g &.x.'.@X=X<X<X>X&X@X).n.+.j *       X   9 V _ a.^.%X,X<X2X>X%XXX}.U.v. .o X $ o ",
"    O.).'.}..XoXXX.X.X|.}.).E.n.7.G o         f $.z.^..X+X+X+XoX.X}.Q.z.o.g :   # & &   - W } d.Q.oX+X+XoX.X|.{./.B.c.-.: # & # ",
"    U (._.'.}.}.)./././.(./.E.K.q.~ * . X #   w ` s.!.}.}.{.).).).).E.c.o.j f X $ # & . - G =.z.^.}.}.).).).).(.R.M.l.7.2 $ # & ",
"X   O.(.{.^.K.M.B.v.v.B.n.g.m.K.g.` - $ 7 7   f } l.U././.(.E./.).(.L.c.;.G f o & # X   : D ;.n.L.R.E.K.K.E.E.L.K.B.c.-.s 7 6 5 ",
"$   O.B.g.-.D k  .8.h.h.K 1 4 J  .G - 7 u 7 X s $.y.g.6.7.M.R.(.(.g. . .^ H j $ & # #   < ( o.-.O.U 7.h.N.K.7.J J O.#._ : X X X ",
"$ .  .j o .     : @.s.' o       . > , 6 6 & X j s 1 : O : O.U.}.v.2 . . O * : o X       2 w : O o o d r.I.y.2   . o o > :     . ",
"& : K >         : F *.s o       . z c 7 # X , k o         J M./.7.:         h 9 6 # X o 2 o         : o.x._ :         4 9     $ ",
"& J -.*.] H ( ' z : s : d K F I *.>.k $ 6 - D o.&...J  .-.-.K 7.K +.+.K K :.*.j 7 $ X w G ' I k D I D 4 F 2 4 k k Z @.>.k $ $ & ",
"# D #.*.5.3.>.*.B .   . F :.8.u.s.-.Z X 5 - ^ -.u.J.J.J.U.8.@ @ h K._.E.Q.!.e.Z . X X S #.:.u.u.3.>.I o . . C r.c.N.J.8.k $ # X ",
"& * h d h d s > < .     : > 1 2 : O O # & # 2  .o.+._ U @._ o   1 +. .Z h h 2 :   $ X : J K H z s < 3 .     > k k h d 2 @ X X X ",
"X X       . o o @                   # & # # X . .   . > k F o . 1 h o o       X $ # # X   .     . o < .                   X X # "
};
