/* XPM */
static const char *w[] = {
/* columns rows colors chars-per-pixel */
"64 64 190 2 ",
"   c #052E02",
".  c #092E05",
"X  c #053302",
"o  c #0A3406",
"O  c #073D04",
"+  c #0B3B06",
"@  c #0D3609",
"#  c #0E3C0A",
"$  c #143904",
"%  c #113D0B",
"&  c #162C19",
"*  c #193F14",
"=  c #0D4306",
"-  c #0E430A",
";  c #0F4A0A",
":  c #114407",
">  c #144E07",
",  c #12440C",
"<  c #144C0D",
"1  c #194D0E",
"2  c #0E520B",
"3  c #115107",
"4  c #15520D",
"5  c #19540E",
"6  c #165A0D",
"7  c #1A5B0F",
"8  c #164610",
"9  c #184611",
"0  c #164D10",
"q  c #1A4D12",
"w  c #1B471B",
"e  c #1D481C",
"r  c #165311",
"t  c #1B5412",
"y  c #175A11",
"u  c #1C5C13",
"i  c #1F5E18",
"p  c #1E5C19",
"a  c #214A1C",
"s  c #215616",
"d  c #205416",
"f  c #215615",
"g  c #225A16",
"h  c #235D17",
"j  c #215E16",
"k  c #215E15",
"l  c #215D15",
"z  c #215718",
"x  c #21581B",
"c  c #235E18",
"v  c #225D19",
"b  c #2A5B18",
"n  c #16600F",
"m  c #1B610F",
"M  c #1F6013",
"N  c #1D6115",
"B  c #1F6014",
"V  c #1F6116",
"C  c #1E6314",
"Z  c #1E6214",
"A  c #1E6914",
"S  c #1F6218",
"D  c #206015",
"F  c #226116",
"G  c #236417",
"H  c #236716",
"J  c #206415",
"K  c #226415",
"L  c #256B17",
"P  c #236A16",
"I  c #286C17",
"U  c #226318",
"Y  c #206318",
"T  c #25631A",
"R  c #26631A",
"E  c #226519",
"W  c #25651A",
"Q  c #25671A",
"!  c #23651C",
"~  c #27651C",
"^  c #25661D",
"/  c #246419",
"(  c #29661C",
")  c #29661C",
"_  c #236918",
"`  c #25691A",
"'  c #266C1A",
"]  c #26681D",
"[  c #256B1A",
"{  c #28691A",
"}  c #28691F",
"|  c #2B6C1C",
" . c #296D1F",
".. c #296D1B",
"X. c #267217",
"o. c #26711B",
"O. c #2D711E",
"+. c #2B721D",
"@. c #2D781E",
"#. c #31761E",
"$. c #254C20",
"%. c #2F462C",
"&. c #32532D",
"*. c #266422",
"=. c #286620",
"-. c #266A20",
";. c #2B6C21",
":. c #2D7423",
">. c #2E7521",
",. c #2D7824",
"<. c #2E7A21",
"1. c #307025",
"2. c #317523",
"3. c #327B23",
"4. c #397D26",
"5. c #357D29",
"6. c #3E623B",
"7. c #47623C",
"8. c #446C3B",
"9. c #476646",
"0. c #4F744C",
"q. c #54714C",
"w. c #5E7C4F",
"e. c #556A53",
"r. c #5C6F58",
"t. c #557353",
"y. c #587551",
"u. c #348125",
"i. c #368228",
"p. c #3A842A",
"a. c #7A957C",
"s. c #819C85",
"d. c #8AA087",
"f. c #94A58D",
"g. c #93A791",
"h. c #92A890",
"j. c #9DAE97",
"k. c #9DB499",
"l. c #A5B5A2",
"z. c #AAB3A7",
"x. c #ABB7A8",
"c. c #B2B1AB",
"v. c #B7B6B2",
"b. c #B9B7B2",
"n. c #BCBCB6",
"m. c #BEBEB9",
"M. c #C0BFBA",
"N. c #C3C3BC",
"B. c #CAC7BF",
"V. c #C9C8BF",
"C. c #C8D3BF",
"Z. c #C6C6C1",
"A. c #C8C7C3",
"S. c #C7C8C1",
"D. c #CCCBC5",
"F. c #CECDC9",
"G. c #D0CFCA",
"H. c #CED2C7",
"J. c #CFD2C8",
"K. c #CFDAC8",
"L. c #D4D4CC",
"P. c #D6D8CE",
"I. c #D8D9CF",
"U. c #D6D5D1",
"Y. c #D8D7D2",
"T. c #D7D9D1",
"R. c #DBDBD4",
"E. c #DDDED9",
"W. c #E0DFD7",
"Q. c #E0DFDA",
"!. c #DEE1D6",
"~. c #DFE0D9",
"^. c #E0E0D6",
"/. c #E3E3DC",
"(. c #E8E7DD",
"). c #E6E9DE",
"_. c #E8EBDD",
"`. c #E7E6E0",
"'. c #E9E7E1",
"]. c #E6E9E2",
"[. c #EBEBE3",
"{. c #ECECEA",
"}. c #EEF0E5",
"|. c #EEF1E8",
" X c #F3F2ED",
".X c #F9FAED",
"XX c #F5F5F1",
"oX c #F7F8F4",
"OX c #FBFAF7",
"+X c white",
/* pixels */
"9 , , 0 + 1 = 1 : t t , < t t j 5 - ] i T - t u 4 i u V u j Q p t u u U T u t 4 j V t 4 t , D < t t t 4 t < u - 0 8 , # , # , , ",
"# , , 1 , , t 0 < < : q t < < t J U t V t t D ] V ) j u D u t i 7 i 5 1.V u u 4 D D Q < i j i < t t | u t t t v 1 1 1 1 s v d . ",
"8 , , t # t , o , , v < q 4 u j t u i { u u u u < t < H u j g u V u i :.D u u i ^ T < D p < j < t + D g < u < 1 1 < q % 9 t # # ",
"1 9 # 1 4 1 q , 0 - 5 V q p t Q < 4 V | 4 t 4 O._ V u _ | i k V U V _ i >.O.E V D ^ 4 5 t 4 ;.E ^ p t u j t r , c q q , 9 @ % 1 ",
"+ q , , , x < < t t Q 4 D i u < ; J 3 J ' J L M ' D 5 u ,.y J 5 V 7 J _ u 3 ] 4 V Q t E j J | j J ! u - 7 j D + , t t ; , , , % ",
"0 q 9 , , 1 # u j v u t p u D 7 E Q U J u _ V 4.5 ' Q | ' i _ | U u E C u J J V _ i H i D | E i | O.:.O.> u < 0 ) , t 1 0 t 1 9 ",
"t < - , , t t < _ D 4 Q D | _ M _ U O.i 5 u _ +.| y L ' O.{ Q _ ' J _ _ i.J V +.V | _ t t J _ M | | U ] 4 t t ^ v 4 t t 1 t 0 # ",
"t < : s t , t r K < 4 >.i D r D C u V I 5 H >._ @.+.] V E _ Q ; _ | J ' i u J J @.>.J | Q E ] V >.D ' ' u k D 1.u U t - s , t , ",
"0 , - p p U c 4 < i > t u | t _ u A A I u 7 J L J J +.' | D u J V 7 i._ A A :.| | u V Q L u Q M i | T 5 i Q u D 0 4 5 j , 9 t t ",
"q t t p < < t t U 7 < < { H u V < _ M O.T +.u +.@.J M #.A @.C u _ _ 6 | >.M _ _ _ <.+.M A >.A J M | 5 u D 4 < u _ < t x < j s q ",
": 1 p p D Q t T u D 4 u M K J U t u 6 M D 3.3.@.@.K D A 6 +.u J ' <.D _ J 4 _ L M 3.u _ M | +.7 E 4 < u u u > j Q 4 v g j g g x ",
"v < < < V t 5 t < 4 -.i H 6 E S E u 5 _ 7 u | +._ p._ +.y J J A I _ ' ' M m u r O.m o._ 3.<.u 3.u u Q ] i j t u u u : t g t : : ",
"t ;.t U _ v 4 : u V u k Q D >.J J V u M +.u +.4 +.' [ u ' <.6 o.A ' A L u E D | H A u 5.u A ' J i D U E H ' Q ..r t D - < T z t ",
", < t p t u 4 = V 7 J _ Q i J _ ( ' +._ O.C L +._ @._ J _ +.3.o.J 2 C @.7 M _ O.| _ M >.+._ Q 3.' u I D - Q u u 5 i < < < 1 t t ",
", t : : t ) < u Q u u u +.L 7 U Y.E.Y.^.E./.u | +.u A 3.A A.A.D.N.Y.L.Z u u 3.+.I V N./.^.'.G.F.] 5 k V >.M < 4 5 u 2.- u < t 1 ",
"< < < t < > < t J H i u ; 0 +.u I.Y./.m.^.G.q.<.o.A u M p.D.Y.W.(.R.].' C V ' M @.; E.F.E.Z.L.F.M ' D 2.6 5 > j | r u t t t t t ",
"1 v t ;.g j j p m 7 u +.u J >.L m.c.'.L.'.I.L._ u 7 @.<.] E.E.L.^.G.~.M >.3.' ' V h./././.L.F.n.Q | K 2.6 j Q J | u 5 < t 1 1 1 ",
"< u T i Q i p { u L 5 K | J _ | E.E.U.'.Q.R.T._ _ L +.' a.^.R./.'.E./.C.3.+._ 7 >.~.E.^.D.Y.L.D.2.U _ +.H _ | 4 p D >.u b < < 0 ",
"p - t - j | < u 4 u 5 u 2._ u | q.L.Y.(.Y.U.E.P ' _ C Z D.E.^.U./.Y./.!.>.+.J >.u.L.N.Y./.R.N.0.@.+.u _ V u L 6 ..u m | h t p x ",
"< E t < g u 4 5 i J 7 u H 3.| J t U.N.E.F.E./.A ' M +.D U./.[.^.L.R.R./.3.<.5._ +.R.E.G.E./.L.+.O.+._ Q u J A | 2.K 4 > t 1 < t ",
"0 g t p j i 5 D 5 ' u +.+.o.C H _ E.L.^.B.Y.L.( [ J A 5./.L.L.L.L.E.E.~.Q +.>.@.o.Y.U.D.R.R.V.u ' L _ +.6 ;.J D :.D K D Q < < t ",
"U 4 g r ] 5 u 7 A i +.J @.| M 5.7 V.R.D.Y.E.A.8.M | | 5 E.E./.L.E.R.L./.  _ <.+.| R.Y.`./.Y.D.2.2.K 3.+.u K H D u J i :.| g T 1 ",
"4 5 < u > D J Q Q ' 6 +.>.| @.' |  XI.^.R.L.E.OX+.K L ]./.^.^.U.R./.Y.Z.oX>.J C y.E.L.Y.E.^.G.' | D +.3.J 3.M j D 7 5 | i u t t ",
"4 S j i < U P V | _ o.M J >.L H A 9 /.[.A./.(.I.@.+.P R.^.T.Y.~.U.~./.L./.:._ ' {./.A.Y.L.(.q _ u +.L 7 _ L H 7 | | 5 D < 5 < t ",
"u U u j j < M D J 4._ u _ H | C 6 u R.G.^.^.L.D.E | V E.Z.U.E.E.R.E.Q.L.E.J J _ v.Y././.Z.L.) | >.M O.J +.D J u E i E p 5 t t t ",
"i V | t u 4 5 J _ _ u _ ' ' +.M u P U.E.M.L.^.'.+.I T E.D./.Q.I.E.E./.R.R.+ 7 ' E.E.E.G.!.A.E L { E 3.5.L | J i u V | | ) < 1 4 ",
"i E g t u V i < ;.J L J +.J P J J ' U.R.E.Y.Y.D.;.>.z.Y./.'.N.!.[.E.[.E.E.XX>.+.S.E.c.Y.N.R.Z _ @.<.J 3.+.+.D i r _ t u K j v t ",
"S t t 5 5 D { 3 E ' 3 _ D ' u L _ +.XXF.^.E.`.F.a +.R.A.~././.XX{.F.E.Y.Y.L.o.7 ^./.Z.L.L.[.{ o._ | V u J D A u V | j j j p i v ",
"U 1 t 1 _ D | u ' u _ | | u ' O.3.J $.`.Q.L.E.L.(.+.[.[.Y.^.U.w o E.L./.R.E.u 6./.L.E.S.L.&._ +._ 7 +.+.| t Q J 7 Q #.t u x < t ",
"; v j t : _ D r J J J u 7 4 @.3.M | 3.R.F.Q.R./.I.{ P.L.E.E.Y.C ' F.U.U.U./.+.].D.R.(./.E.C M +.H V 7 _ 4 Q k u D Q 4 < < t p v ",
"< r u p u | { 7 i J u O.+.C _ _ J ' 3./.L./.L.Y./.+ A.(.E.L.A.o.+.[.U.L.'.R.l./.Y.E.Y.!.T.J +.m L L | _ u ' u ' >.i t t < c t t ",
"t t u u u U _ _ J 5 u L +.<.<.' ' o.6 L.G.E.R.E._. XE.Q.L./.D.n _ E./.'.Y.U.D.V.L.Y.^.F.A.L 3.' ' 5.I u D | +.i 7 Q u _ r t t q ",
"u 0 < y Q 4.5 7 _ j E T { J L @.@.M @.{.c.L.L.L.}.L.].[.Y.E.r.+.J t.E.Y.Y.V.E.L.!.U.L.D.].+.J +._ +._ j I { u _ | j j s ) x t , ",
"u 4 1 i D t _ 4 u D S +.H u J o.E _ I %.m.E.G.^.L./.R.R.D.T.i ' _ 2.L.Y./.U.D.I.^.].U.E.t.' @.D { | J 3.4 ; J J J V | K < , t < ",
"p t t t H _ V | u D J | _ I _ _ u K ' +.Y.E.(.E./.{.E.Y.L.I.+.' +.' m.E.E.E.^.E./.Y.L.Y.+.X.K +.| 2.J @.3.| Q 5 u J 5 t < 1 v 0 ",
"t 5 t D Q D ..u u _ > L +._ _ | _ C _ E L./.R.E.F.^./.R.A./.| o.@.@.E.A.E.~.R.U.E.E.^.H.p.+.' _ V H J u 7 ' 5 < 2.j 2.L 4 5 t < ",
"4 D 1 : { t u V i D J L ' u +.+.5 +.I i Y.N.F.Y.U.Y.L.L.L.k.J +.6 C 9.L.Y.G.R.Y.F.^.!.|.C ' +.' V o._ 5 u L J j M u i i g g 5 < ",
"r : t 5 < t 4 4 M u u 2.' C +.7 u | ' Q T.F.Y.H.E.E.D.N.L.u +.C L P _ Y.R.L.L.m.~. Xb. X@.M M M u M 6 u ' J T 2.3.5 K T p 5 h u ",
"i i t < p :.D u D u 4 >.5 _ O._ u.@.@.J 5 I.L.L.^.E.E.E.Y.+.@.+.+.6 ' R.R.L.E.L.Y./.L.a ' 7 E A +.O.@.7 >.| 2.u u D M 4 < t t < ",
"p p p < t u 4 ^ D { _ 7 D 7 >.o.6 <.5.2.u R.Y.R.~.R.R.R.!.>.L ' _ 3.>.T.E.L.L.L.E.J.L.O.o.@.>.5.@.O._ ' V _ M u D D D K v < t - ",
"t t i T j T t i < :.D J U J K u 6 L ' C _ E.E./.Y.N.Y.L.R.J +.' +.u ' {.^./.Y.Y.L.Y.Y.C A u J >._ M _ t 4 _ i 5 7 D p g < t 5 1 ",
"t < t S - < v ] 3 V L 7 7 u M u K M 5._ >.D.A.L./.L.Y.L.e <.C 4 I ' | O R.A.F.V.L.G.S.u D ' O.@.u _ ' Q r J J _ u i 4 t t j 1 t ",
"< , < : u u c 5 u 7 V _ | _ V J +.o.L +.7 R.L.L.m.L.E.L.o.+.] J [ u ' | /.S.^.A.M.Y.T._ u _ <.>.{ D u u 4 J u J 5 u t t t : j 0 ",
"< p : < u S 4 u t u Q V u u _ u _ +.+.+.4 * L.b.B.V.R.E.| +.5.u C 7 6 >.U.S.F.L.R.S.q.| _ ' u | i 3.D A _ { X u U T ) t g 1 p 0 ",
"r : < u u U t u 4 u V 5 5 u Z Z V E _ 5.' 6 >.J >._ | M 5 5.' ' J _ @.@._ _ +.' _ < p o._ i.V u @.5 | J E D u u u E t t : s , x ",
"t q : t p t j u u j Q M 4 7 Z J o.u V 5 _ D J | M @.M ' V >.V M >.+.+.u A Z _ | M D 7 +.J E E J D J >.u _ u r 4 u | g < 1 9 : , ",
"< j < t j : = 5 > E | u < 3.J o.M J 4 u 4 M E D J ' J 3.E V L _ D +.Z _ 3 +.O.u u C E Q I 4 u M { 7 J J V u | t p T H < < < : t ",
", - t 1 5 j u u u E ] > _ 6 3 7 V J V _ | J C 5 @.V ' E ' o.m | A C y V u 7 J ' Z V u 4 V u L E { M u >.] J u E i U i p t 0 : t ",
"p t t t , q 4 5 i < 5 J t u V u 2.J u ' _ u _ V J O._ #.A o.D ' ' _ | J _ V E <.J _ _ | u ' | :.7 u D r D _ ( T < < 5 j t z t - ",
"u < q 0 r t x 4 r | K i 4 u J u u J :.,.J J W.o j {.:./.{ l./.(..X7 + /.j.D +X'./.{._ 5 P V 5 D u k 4 u 4 7 1 Q < p c j 1 1 , t ",
"< ; , 4 < < u t q 4 j u t 4 M D 5 u g 5 3 2.x.K.l.L.+.R.A f.{.1 + u R.*.E.| < . (.5 O.K Q ' { J D T < V S < 5 K j T q 1 t 1 , , ",
"- , , ; T 1 1 < : 5 t 5 i < 6 Q Q T t A u M Q U.L./.v '.| d././.p _ R.E., j t , W.D 7 u u J { = H V Q i u r r j : 1.0 - , c q , ",
"q 9 , , t , c t t : - k < u K D u < 2.> u K t R./.9 & XXQ s.|.# ' +.v &.L.t Q r [.D K u E < i u M 4 U _ p | , r p j 1 p < : , , ",
"+ # # , t 1 t 1 < c p - g T u < 5 5 t < 7 +.t R.H.Q L.8 _ g.^.7.w.i R.X T.p J - ^._ o.3 4 | _ 5 u < u u i 1 < 1 1 p c t 1 0 t 9 ",
", # , , t 1 q t t t ^ < 5 D t > Q < 5 U J 4 u = : u X Q ' , X $ X Q T e.v C _ U   Q u < J 7 T 4 h : D i 4 t 5 1 u 0 t < t 1 , % ",
"# , o # , 1 t # t t < < 1 Q g V i < t E V u 4 V k j i _ E E 3 4 < r u 6 u i Q D J u D 4 u Q u T u Q r 5 t 0 p q t t t , 1 9 q % ",
"@ # + @ # q t # < t t t 1 5 r t 5 : E V r E u t < j i r ] E | ) u i K j ^ > u 7 D T D u j y 4 0 < D t 4 t < q , , t c t 1 , , 9 ",
"% % @ # , - q , s 1 1 ( v t t u t < < u < p D Q u p 5 5 2.=.5 u 5 u p D v E Q p u Q t 4 Q u j p < u < 5 5 p t 0 , : 5 , % , @ % ",
"# % @ , , , , < , 1 t t 1 < = < < < u t 5 t < U u t < | = t u i 5 t 5 i u 5 u 4 4 t g u u D D 5 t v < < < < = 0 1 0 1 + # % , % ",
"+ , , , q 9 , , 0 1 q t < t 1 t = 5 < U < O r 4 K V u K < D E > 5 t u 4 7 k E < D i < j t u < < t 0 4 < : u t : , q q o o 0 # 9 ",
"0 # % % 8 9 , , 1 : 1 + t < t t t - u t r < ; t 5 = > p t t 5 < u T : u i t : < < u < t t 4 t < t t < 1 1 - , , t 0 , q % , % # ",
"# , 8 , 8 8 t 1 , t 1 , , < : < - g - t t < u v t t t p t = 1 t j i t v t t < < 4 r j < t 4 t < p 1 t , 1 , # 1 8 , @ # , % 9 # ",
", 8 @ t , , , , o 1 = 1 + , - 1 1 , - , # 1 < , , 1 1 , r X t + - 5 t + 1 5 0 < = x , < + 1 t t t t 1 # , q , . @ % , . o , % @ ",
"o % . , , , @ % % + #   , , # q , # 8 , - - < , < q 1 1 , , X t # q : , , = < - < , + + : - , 1 , , , # , # , # o # % @ 9 . o % "
};
