/* XPM */
static const char *we[] = {
/* columns rows colors chars-per-pixel */
"64 64 233 2 ",
"   c #040303",
".  c #0A0604",
"X  c #0D0905",
"o  c #0E0B08",
"O  c #130B06",
"+  c #1B0D05",
"@  c #130D09",
"#  c #1A0E09",
"$  c #120604",
"%  c #1C1106",
"&  c #16110B",
"*  c #1C130C",
"=  c #161003",
"-  c #1E1610",
";  c #1F1A11",
":  c #210D03",
">  c #241306",
",  c #2B1606",
"<  c #2D1906",
"1  c #24150B",
"2  c #29160B",
"3  c #24190D",
"4  c #2C1A0D",
"5  c #311604",
"6  c #341C05",
"7  c #3B1D05",
"8  c #321C0D",
"9  c #3A1E0B",
"0  c #201710",
"q  c #241A12",
"w  c #2B1D13",
"e  c #341E11",
"r  c #2D210E",
"t  c #3C2106",
"y  c #33220D",
"u  c #3B210B",
"i  c #3A290F",
"p  c #2D2115",
"a  c #2F2318",
"s  c #342214",
"d  c #3A2313",
"f  c #3D2B15",
"g  c #332519",
"h  c #392619",
"j  c #35291B",
"k  c #3C2B1C",
"l  c #342812",
"z  c #3E3118",
"x  c #3D2E21",
"c  c #442306",
"v  c #4E2A05",
"b  c #44250A",
"n  c #4A2609",
"m  c #442B0C",
"M  c #4C2B0A",
"N  c #492505",
"B  c #542B06",
"V  c #5B2D05",
"C  c #532D0A",
"Z  c #5A2E0A",
"A  c #522706",
"S  c #5D3306",
"D  c #54300C",
"F  c #5C330B",
"G  c #5F3B0F",
"H  c #422613",
"J  c #432B15",
"K  c #442D1B",
"L  c #4A2E1B",
"P  c #4B2D15",
"I  c #4B3515",
"U  c #4C3916",
"Y  c #45311D",
"T  c #4C331C",
"R  c #483618",
"E  c #52351E",
"W  c #543B1C",
"Q  c #5B3B1D",
"!  c #563616",
"~  c #643306",
"^  c #6A3505",
"/  c #6C3A06",
"(  c #63350A",
")  c #6A370A",
"_  c #66390A",
"`  c #6B3A0B",
"'  c #733D06",
"]  c #733D0A",
"[  c #783F09",
"{  c #623B1F",
"}  c #673B13",
"|  c #723F10",
" . c #632F06",
".. c #453221",
"X. c #4C3522",
"o. c #4D3A27",
"O. c #523621",
"+. c #533A23",
"@. c #5B3C23",
"#. c #553E2A",
"$. c #482E22",
"%. c #623E22",
"&. c #5A451D",
"*. c #74410C",
"=. c #7C440B",
"-. c #7C4509",
";. c #64441C",
":. c #7B4A15",
">. c #67400D",
",. c #5D4224",
"<. c #5C432C",
"1. c #56402A",
"2. c #5B4631",
"3. c #644324",
"4. c #6A4324",
"5. c #694C23",
"6. c #644529",
"7. c #6A4629",
"8. c #654A2E",
"9. c #6C4A2C",
"0. c #634A22",
"q. c #744C2C",
"w. c #764B28",
"e. c #6C5228",
"r. c #76532C",
"t. c #7B522E",
"y. c #765827",
"u. c #644B32",
"i. c #6B4B33",
"p. c #724E31",
"a. c #6C5338",
"s. c #735332",
"d. c #7C5432",
"f. c #7E5C3B",
"g. c #785A37",
"h. c #7E6331",
"j. c #7A6345",
"k. c #834506",
"l. c #8C4C07",
"z. c #82460B",
"x. c #854A0C",
"c. c #8B4C0C",
"v. c #8A4706",
"b. c #914D0B",
"n. c #8E510C",
"m. c #885006",
"M. c #93530C",
"N. c #9A550B",
"B. c #9C5B0D",
"V. c #9A5508",
"C. c #824B11",
"Z. c #8D5414",
"A. c #965A13",
"S. c #9B5A12",
"D. c #935210",
"F. c #A35D0D",
"G. c #A65C08",
"H. c #A35F10",
"J. c #9D6417",
"K. c #8F611F",
"L. c #AB640C",
"P. c #B4680D",
"I. c #A36211",
"U. c #AB6413",
"Y. c #AB6A18",
"T. c #B56B12",
"R. c #BA741A",
"E. c #BD720B",
"W. c #87582E",
"Q. c #825631",
"!. c #845A33",
"~. c #8A5D35",
"^. c #835C39",
"/. c #8B5E3A",
"(. c #8D633C",
"). c #8C6939",
"_. c #926236",
"`. c #94653B",
"'. c #946A3E",
"]. c #9A673A",
"[. c #9A6324",
"{. c #BC7622",
"}. c #A16E37",
"|. c #C37A18",
" X c #C77C25",
".X c #886644",
"XX c #936641",
"oX c #956A43",
"OX c #9B6D44",
"+X c #966E49",
"@X c #9D7145",
"#X c #9D724A",
"$X c #987748",
"%X c #8F7556",
"&X c #A37346",
"*X c #A3754B",
"=X c #A5794D",
"-X c #AA7B4D",
";X c #AA7849",
":X c #B17E4D",
">X c #A67A51",
",X c #AC7D52",
"<X c #A77750",
"1X c #B07F53",
"2X c #CB841A",
"3X c #C48028",
"4X c #D58D23",
"5X c #DB9F35",
"6X c #E8A530",
"7X c #9D8040",
"8X c #AA824D",
"9X c #B2834C",
"0X c #AE8154",
"qX c #AB8458",
"wX c #B28355",
"eX c #B58A55",
"rX c #BA8A57",
"tX c #B48559",
"yX c #B6895B",
"uX c #BA8B5C",
"iX c #B98657",
"pX c #BC905E",
"aX c #BC8E60",
"sX c #BD9162",
"dX c #BB9364",
"fX c #A28862",
"gX c #C1935D",
"hX c #C8955E",
"jX c #D79E58",
"kX c #C29463",
"lX c #C59B65",
"zX c #CA9865",
"xX c #CBA368",
/* pixels */
". V.C M.M.n.M.l.F.v.F.F.P.V.v.V M.V.M.M.v.V.V.V.V.M.M.N.N.c.*.M.n.*.x.z.[ c.x.x.c.M.c.z.` V.M.c.-.n.*.z.c.c ' -.A v.c.Z *.x./ X ",
". 7 < C 6 u n b b > b u t : 6 < b b 9 C + b N 7 8 S # u m u y c < u n b > M > u M b # M 1 9 b c % N 8 t b t $ b 9 b b b 6 , 6 . ",
". N B / % 6 7 > v.1 u 7 t ^ B 6 u C > =.7 9 N b 7 c.C u u c D ] 2 u c N c C.6 u C N B ~ , c 9 M ^ =.O u 7 7 S =.u 9 b M ( A 6   ",
"o ~ O O n _ _ K.C 4 c =._ + > N F *.` Z.D b _ ( U.P.F M C *.x.z.u C ' _ F M.u D _ *.Y.c.u n ` _ Y.S C C C *.A.Z > F z.*.n A t ) ",
"  C R.~ 9 2 6 V.*.b > , C 3XB n 4 M c.I.( u < M M.F.M < > ( F.F.u 7 < u C |.G b 9 C M.H.G , + < c.T.F 6 7 ` F N.b M b F -.S., b ",
"-.n |.F F C -.6X=.v ^ / ( / S A B c.G.:.M ( -.N.G.n.M F ~ c.B.Z M ( ` D.b J.' F _ n.*.A.*.M D -.*.Y.*.A | =.u I.[ B C c.:.b.7 V ",
":.6 l.> A.F.C 2XF ] F.Y.7 G.O S.R.J.m.k.* U.Y.Y.x.N.% U.T.J.< b.6 A.T.|.+ 2XS C R.|.# 4Xc n R.|.+ U.S B |.I.< T.~ F U.I.< |.B N ",
"x.L.c.C ] x.b E.S ~ c -.I.T.> V F.c.U.-.% ~ / z.L.P.6 S ' -.A.T.S A z.M.u 4XN c C x.b 5Xn Z ' k.C L.>.N ^ -.=.T.n.B 6 ' ( T.V v ",
"z.M _ V M.M.>.6 < x.M.L.1 u F ) B.F.u b 6 x.L.n.+ 7 t c.P.M.R.7 I.] F.I.F c , B I.I.=.m u B M.N.B.2 6 S c.S.n.+ 6 S v.N.-.> 6 B ",
"O S 7 t + , 6 G + 5 c t < 7 c + 5 6 > N t + 5 > 6 m 6 + > > N m B < 2 : 7 M n t O : 6 7 c b 5 $ 7 u c 7 > > 6 , , 6 8 + 6 6 t 6 ",
". O   O   X   %   . . .   O X . . .   . . .   .   , . .   . . + . .   . . O . . . . .       . . .   .   .   .     . . .   .     ",
".   w % X X X   X O X . X   X 1 O . .     . .               .                   .   .       . O O O . . X X X O . X O O 1 +   . ",
"O O H 8 O : 1 1 1 * 1 1 # # X 3 @ X O O O O @ + # + # O X + + O O @ O @ # + O + O @ # @ O O O X @ . @ # # 1 > 1 2 > # % > & X O ",
"d O * X . O O # O # # O + O   . & @ 4 2 1 X > O > * 1 * + * > % > # O 2 2 4 2 1 4 * 1 1 > 4 % . .   + O O O O O O X . . . @ + 2 ",
"8 * J 8 K X.O.E @.O.E E s e { 1 s . > 4 8 1 8 > > > # 1 > 2 > 3 1 > 1 2 1 * 2 2 4 > 4 < 2 1   4 O * > H @.3.@.@.@.E E T 9 8 + > ",
"8   y > T >X-X*XOX,X=X#X9.* Q q O   X . .                   . .   . . . X . .   . . .   . . X # O % 4 T 0X@X-X>X=X=X*XQ.8 * * 2 ",
"w 4 3 4 J ,X0XtX0X,X&X*X~.1 H E s O # (.Q.w.d.q.d.(.`.:X-X&X*XOX*X*X=X&X=X+X*X-X=XXXOXOXXX(.J P 1 2 X W =X=XOX,XOX,XwXXX1 @ 4 * ",
"T d.[.O 4XH {.3X XR.:.{.  > X O @ . % @X~.~.`.&X,X*X&XwX,X>X,XOX,X-X-X,X0X,X,X0X,X=XOXXX*X@X3 # X * @ H R.k  X X|.|.J ;.} [.OXJ ",
"lX,XX   6 < 8 2 1 % X 7   @ 4 2 1 s @.*X~.(.d.`.(.`.,X;XwX,XwXwX-XtXwX,XwX>XyX0X,X0XOX0X-Xr.^.I > 4 d @ > % > % 2 > O + < & OX'.",
"yX0XO.* Z n ) N.c.) ~ b e T s < 1 4 Q.~.OX1XuXiXiXtXwXwXOX_._.1X-XwXyXtXwXyXtXtXtXtXyX>X*X&X*XE 4 e +XT 7 C ) | x.~ n F u +.*X@X",
"tX,X=Xs V F ] ' ' ( C F d +XK 8 1 +.>XwX-X(.wX,XtXwXtXuXuXaXyXuXwX,X`.`.'.yXyX,XyXyXyX*X0X,XOX4.4 d (.t.V C =.] ] ) ] G # @X&X=X",
"uX,X>XK =.=.) =.-.*.=.] d -XH 8 4 Y uX/.wX;X0XyX%.e.uXuXuXwXyXkXyX`.OX_.-X`.`.yXyXuXyXyXwXtX,X7.f J OXt.A =.( z.=.=.` z.# @X0X=X",
"wXwX,Xs C.S [ z.x.) / =.d =XL u 4 @.yXwXyXtXT ~.y.0.;.hXkXwXrXrXuXkXaX`.uXkXuXtXaXuXtXyXaXyX,X7.s T #XQ.~ / z.x.c.=.F z.* wX>X-X",
"-XyXwXk =.( [ z.z.-._ x.H #X3.H 8 @.wXyXwX0XU e.z &.U y.$XrXpXuXuXwXuXuXkXiXuXuXuXtXwX!.0XyX,Xw.8 T XX`.^ [ ) c.c.x.=.[ 1 -X0X=X",
"eX4.-Xh =.x./ z.z.-.x.=.s *X3.H e <.uXyXwXJ 0.W > y h.5.J =XkXuXuXkXuXkXtXuXuXsXyXtXwXsXkX*X*X3.8 J J b  .-.' x.x.z.x.' 1 wX>X<X",
"kX1XiXT ) v.-.' x.z.c./ J >X9.d 4 ,.yXQ 3.,.&.3 2 y.y i 4 J d.pXuXpXpXkXkXuXtXuX,X@X=XuXtXd.4.4.8 d XX`.~ v.=.v.c.z.z.=.2 wX,X0X",
"tXuXwXJ ( x.[ =.c.v.c.~ d ,X9.u s 6.s.;.0.I T &XhXw f 1.y pX:XyXyXuXuXaX*XuX(.sXdXO.8 K ,X#X=Xq.8 d OX].~ c.c.x.c.x.x.] 1 0XtX,X",
"3.wXtXf ` x.c.% * c.x.] s >X7.u d 3.U I W r > -Xk tX<Xe.@Xe.7XJ gXkXpXuX1X~.aXkXu.zXtXwX* wXqXw.8 u #X&X~ c.c.4 @ M.c.) 2 0X>X#X",
"wXuXuXK z.z.B.C.b.c.c.] d -Xp.8 d +.'.gXs =X,X% .XuXtX+.z i 5.0.d.rXkXkXkXuXyXd -XK h w ;X1.Q.q.8 u XX&Xc.M.b :.z.v.c./ 2 -XyXOX",
"OXyXwXE S.M z.y 8 c.} z.8 wX9.d y +.;XgX-XtXqXs * % Q.uX1 y &.U 4 oXiXuXyXyXiXlXp K T s s T tX3.< d XXOXv.Z.x.4 * ` } v.1 -XwXyX",
":XuXtX+.M.F y b b 3 M.k.e 1X9.d 4 s I i yXg.4 &.3 ,.5.gX9X*X8.xXtXgXkXrXyXwX,XyXs .Xs - h f q.7.8 J (.&Xc.1 6 u S.2 b.n.1 wX,X*X",
"].wX,XK =.=.4 < 6 4 z.k.< ,X@.d 4 3 J l ,X> % p y r &.f 8 wX0XiXuXyXwXuXyX'.wXaXzXs d < 1Xd XXQ 4 s OX@Xz.b % 4 u @ k.v.> &XwX*X",
"{ wXuXY S.2 C.8 8 6 C.=.u uXd < d 7.*X,.kX3 O tXO w g.k W aXuXxX@XuX9XyXlXQ.wXy +Xh s K -Xy p.%.2 J @X&Xc.D x.9 < 1 :.n.@ yX,XwX",
"0X;XuXE S.c.=.F ` c.S.N.w ,X3.J d q qXwXtXO +.dXwXyXuXuXyX$X^.y.&.Q.(.0XaXwX0X0XwX.XuXi.% `.oX3.8 H OX:X[ v.N.u :.S.N.x.# wX-X*X",
"uXwXwXK ` c.F.M D N.v.*.e yXg.s 4 6.yXpX0XkX* . uXyXtXeXxXm &.W &.&.I Y eXyXuXrXJ 8 i.K rXt.=X3.4 H *X;X] c.N.4 F C.c.S # =X!.t.",
";XtXwXE ` M.c.c.v.z.v.A H tX9.9 2 % %XwXpXH s #X0X=XdXQ ,.e.W 0.0.,.I 8Xg.uXyX@XuXOX-XtX-XyX,X%.d H #X&X^ z.z.c.N.M.c.( > ~.~.d.",
"OXwXwXW ] M.M.v.n.c.x.) J 0XT u u 8.3 k @.2 q tXyX0Xq.r * J y O 3 f I &.&.s.uXwXuX@X~.=X,XyX&X%.e H #X&X=.N.c.v.c.c.x.~ 8 ;Xd.Q.",
"d.*X-XT M.*.N.c.M.c.z.z.d yX9.u d X f L L 3.Y q.8.tXwXqXXXqX^.OXs.9.> r J i eXyX,XuXyXtX,XuXtX4.d d #X}.x.( c.x.x.c.( c.# -X`.!.",
"~._.uXX.x.) n.c.c.c.F z.J fXQ 8 s 2 w s s % p w 2 .X*Xo.9.j Y yXkX@ Q eXs (.wXyXyXtXwX-XpXuX>X4.d u #XW.' ` ( x.=.M.` z.* -Xd.Q.",
"Q &X~.L ] ] ( z.c.z.) z.4 l P 8 4 % h q * wX>X&X4 d Y 4 + * 1 0XtXwXwXyXwXxX=XyXwXyXwXuXyXwX,Xw.9 d +X`.^ M.` x.x.*.=.) # -X`.oX",
"`.*X*XK ` z.=.z.c.=.z.B 1 O # 8 8 % s ,XwXtX0X@XkX+X1 6.yXwXf.y sX,X9Xi wXW i ).wX,XuXyXyXwX>Xt.8 d .X'.~ -.) ' c.] v.Z 1 -XOXq.",
"yX=XtXX.k.x.` x.=.x.] =.4 K 2 d d % O (.>XyXyXtX0X8.K uXtXtXtXtXh 0XX.4 m 5.d W g.d yX0XwXwX*X{ 8 e oXQ.=.k.D.I.N.M.x.k.8 -X/.Q.",
"&X,X,X+._ -./ ] [ ) / / > >Xw u s * +.@XpX@.I @X-Xd k =X> ,X0XwX. r q :XR l = 4 d W 0X,XeXOX=X4.2 8 ^.`.~ [ F =.x.' ' ^ 1 rX*Xq.",
"9.~.,X9.=.c.` L L ) ' [ < &X1 e 8 % s 8XU ,.Y ).#XwX*XwX  wXwXwX8...>XX . &Xg.R U ,.H ;.wX=X-X{ 1 s .X=X' } ] 2 J ' v._ 4 W O./.",
"oX!.,Xr.M } ) 6.8.u H :.8 >XK 8 2 % 4 # y + * 0.U *XwX&X>XwX~.XXrX9X).@X,X4 # y f U y y 9 =X`.Q 8 d 7.W.e } z.W %.*.P w 4 O.X.T ",
"w.OX`.'.@.s.w.,XwXq.0X(.w.tX7.4 2 & w f <.O * ,.f.gX-X=X,XwX!.d.wX,Xf.2 ,X,XiXr.O 0X8.6.J 0X>X! * s f *X3.(.%.#X#Xw.9.4 d %.T X.",
"9.7.3.-Xd.tX,XyXeX-X-X&XyXs s.4 2 @ * K w e `.T 8X$XiX(.`.`.~.(.wX-X(.XXuXtX>XsXwXyXwX0X0XwX@XE # p 7.,X*X=X&X,X=X-X'.,.@.X.Q.@.",
"@.q.9.`.#X3.6.aXwX*X=XXX0Xf * # O & d * w 2 * & g.W f *XqXOX(.d.d.d.XXd.^.wX,XwXyXwX,X0X=X-X(.# . # 9.OXOX*X*X,X*X=X=X_.d.`.q.X.",
"6.Q }.@.f @.@.@.T =XwXOXT d > : 1 O 1 q.w w 3.* 2 & s OXXX-XOX/.XXOX/.q.d.d.q.g.uX0Xt.=XXXt.3.2 jXd P XX&XwX@XqXE =X,XL T T T +.",
"O.L O.E d.6.@.f E @.OX(.1 s % O @ . % e % s 1 0 2 +.Y K Q.d ^.7.d.!.^./.(.XXXXOXwXt.+X@XOX3.@.2 3 w H d.-X*X^.7.7.d.O.L 6.K s.L ",
"s K Y k K T K L T E k s 1 w W.H P 4 @ 1 % * 4 * % 3 & 4 & % % 3.@.6.7.,.7.s.d.s.6.T W 6.3.+.. H e 9 f @.,.E @.@.@.T T T > K T +.",
"1 1 s 2 4 8 4 e e 4 4 w 1 % 4 q w 1 % 1 4 8 w 2 8 e 8 4 4 4 2 e 4 2 1 2 4 4 2 4 2 4 2 3 4 > + > % k X 4 4 4 4 2 2 > e 2 4 > > # ",
"* # O 2 4 1 8 8 4 1 4 2 2 % 1 . @ * 1 1 4 4 8 e s d 4 s e w 1 O X 1 2 4 1 2 # > 8 # 4 4 3 2 + O 2 % X 4 8 8 4 * # 1 * * * # O 1 ",
"1 1 2 2 4 4 2 8 1 4 8 1 1 # * O 0 @ 1 1 1 2 e 2 w 1 1 4 d d e 1 8 8 8 4 8 2 4 8 s 4 4 w 1 # + . X @ + w 8 8 d d f e e < 1 > > > ",
"@ # % % X & & % * * @ @ @ @ .   O . & * % & # * % @ * * * # @ % * O @ X * * @ - & & & * & * @ . . . & @ . O - * & & @ # * X @ @ ",
"@ @ @ 1 @ ....#.2.x & q * &   @ O . w a.X.u.q 1.X.1.g.<.X.w & 1 s @ O # ..s X.w & j.h g q q @ O % & & g @ @ & X.q j q & @ @ w & ",
". j k j @.@ q 3 - % g.+.3 p i.1.X.p p ..; ..% K p <.#.X.p p g k k k k * * 3 2 ..@ h & w q q X ....X.  * 3 ..<.u.p s s p s 3 p * ",
"#.k ..Y T * @.0 q ..j g g q O.#.<.* q K - * & K h w ..p j q o.X.g ..w * $.1 w %X& @ * & @ @ % o.X.o.o ..2.s g * @ h #.s k j * p ",
"w x Y K w & K ..1 w k & w w K ..a..X. w q @ 9.h X.* o.j q w 0 q - k k O k p s k Y * X.s p @ 2 K k ..& q a j g q o a k ..h p * w ",
"& w p q O j..X$ p & % * @ @ k K k .Xp 8.X.k f.& * - X % u.f.q @ q q & @ k h j K a k w a w - q X.o.o.@ g o * - & j q q k q q w * ",
"2.a.# K X.g h j u.6.q . X @ k #.j * * ..Y w +.k q s @ w k k h h q 7.* * 1 w * w @ * @ p - q - s X.p * k x 1.* #.w & @ @ & * j q ",
"p j g X.j a j j o.p w w w * 2 ..g X.& g w j K K O 1 o w j h h k 1 3 X.w w g 1 * i.s g & & & @ g s w & * p g q @ 1.& p q * h q q ",
"& g * * p 0 q q q @ w * q @ q 3 q q @ - w @ g q w s X p 1 % - p 0 a w q q * * u.q p w q @ * @ g x s q - q q * @ q - - * X & p - ",
"& & * @ 0 * s 0 & . & & & @ q w q * o & w & 1 X @ * @ * % & & % . % * * * & X q - & & & o @ & q q - * & & & & @ * * * & . * * & "
};
