/* XPM */
static const char *west2[] = {
/* columns rows colors chars-per-pixel */
"64 64 227 2 ",
"   c #030101",
".  c #0B0503",
"X  c #0E0805",
"o  c #0E0908",
"O  c #120603",
"+  c #1C0303",
"@  c #140A05",
"#  c #1B0C06",
"$  c #150C09",
"%  c #1C0E09",
"&  c #1E110A",
"*  c #1E1007",
"=  c #1B1110",
"-  c #250504",
";  c #210D06",
":  c #2A0A06",
">  c #220F09",
",  c #2C0606",
"<  c #350B06",
"1  c #3C0B05",
"2  c #3B0B07",
"3  c #241107",
"4  c #24130A",
"5  c #2B150C",
"6  c #2D180E",
"7  c #281408",
"8  c #32160C",
"9  c #3C130B",
"0  c #331A0E",
"q  c #3B1D0E",
"w  c #301007",
"e  c #2E1A10",
"r  c #241A12",
"t  c #351C11",
"y  c #3B1E11",
"u  c #3C200E",
"i  c #352214",
"p  c #3D2113",
"a  c #3D2718",
"s  c #3E2A1A",
"d  c #36251B",
"f  c #3E321F",
"g  c #2C2118",
"h  c #3A2D24",
"j  c #242124",
"k  c #440B07",
"l  c #4D0B06",
"z  c #4C0D09",
"x  c #440A07",
"c  c #520D07",
"v  c #5C0E07",
"b  c #520E09",
"n  c #590F09",
"m  c #43140A",
"M  c #4C120A",
"N  c #411C0D",
"B  c #4F1407",
"V  c #531007",
"C  c #5E1107",
"Z  c #54110A",
"A  c #5C120A",
"S  c #521A0E",
"D  c #411F11",
"F  c #670E05",
"G  c #641106",
"H  c #6C1406",
"J  c #64140A",
"K  c #6C150B",
"L  c #64190D",
"P  c #6C190C",
"I  c #721506",
"U  c #73160B",
"Y  c #79170B",
"T  c #741A0C",
"R  c #7B1B0D",
"E  c #7C1904",
"W  c #6B1A12",
"Q  c #7B1E10",
"!  c #771D11",
"~  c #42220F",
"^  c #5D220F",
"/  c #432313",
"(  c #4B2613",
")  c #452916",
"_  c #4C2916",
"`  c #492718",
"'  c #452B1B",
"]  c #4D2B19",
"[  c #442718",
"{  c #512511",
"}  c #532C16",
"|  c #5A2E16",
" . c #522E1A",
".. c #552E19",
"X. c #532E19",
"o. c #592E19",
"O. c #5E2010",
"+. c #4A311E",
"@. c #55311B",
"#. c #5B321C",
"$. c #5E3117",
"%. c #7E210E",
"&. c #752613",
"*. c #63351D",
"=. c #653A1D",
"-. c #6A3A1F",
";. c #66351A",
":. c #763616",
">. c #6F2615",
",. c #402D20",
"<. c #493727",
"1. c #5B3621",
"2. c #523A24",
"3. c #5C3B24",
"4. c #543C29",
"5. c #593E2A",
"6. c #503221",
"7. c #643A21",
"8. c #6B3D22",
"9. c #723E21",
"0. c #5C422C",
"q. c #5B4730",
"w. c #6E4024",
"e. c #62442D",
"r. c #694A2F",
"t. c #68452D",
"y. c #734324",
"u. c #754A2B",
"i. c #72462C",
"p. c #654A33",
"a. c #6C4D34",
"s. c #664734",
"d. c #734F34",
"f. c #6D533A",
"g. c #6B5035",
"h. c #715136",
"j. c #73543B",
"k. c #7D5C3F",
"l. c #785534",
"z. c #7C5D42",
"x. c #7D6246",
"c. c #821D0C",
"v. c #8C1E0E",
"b. c #881E10",
"n. c #981105",
"m. c #8A220D",
"M. c #83260E",
"N. c #90210D",
"B. c #832412",
"V. c #8B2211",
"C. c #842C10",
"Z. c #8D2D12",
"A. c #8D2C1B",
"S. c #952A13",
"D. c #982711",
"F. c #8C3111",
"G. c #86371A",
"H. c #953514",
"J. c #9B3C14",
"K. c #9B3719",
"L. c #B82F00",
"P. c #A02312",
"I. c #AF3F13",
"U. c #BC3817",
"Y. c #BA2F12",
"T. c #A7421C",
"R. c #814F2F",
"E. c #875E35",
"W. c #BD4625",
"Q. c #8F6A3F",
"!. c #94663B",
"~. c #D34119",
"^. c #815E40",
"/. c #846245",
"(. c #84654A",
"). c #88654B",
"_. c #8C6C4C",
"`. c #876A4E",
"'. c #8E704F",
"]. c #93704F",
"[. c #8D6E51",
"{. c #846950",
"}. c #916E51",
"|. c #947355",
" X c #997656",
".X c #9A7955",
"XX c #957558",
"oX c #997758",
"OX c #9C7B5A",
"+X c #917854",
"@X c #A26B49",
"#X c #A07E5C",
"$X c #A97F55",
"%X c #A77445",
"&X c #9B7F60",
"*X c #A2815D",
"=X c #B38655",
"-X c #A48362",
";X c #AA8A69",
":X c #AB8A63",
">X c #B28A64",
",X c #BA9565",
"<X c #B69473",
"1X c #D8884B",
"2X c #C9915F",
"3X c #F7A55B",
"4X c #C29A6C",
"5X c #CE9E6D",
"6X c #C29E75",
"7X c #CBA474",
"8X c #CCA67A",
"9X c #CDA97B",
"0X c #C6A277",
"qX c #D1AB7C",
"wX c #D2AD74",
"eX c #D0A671",
"rX c #FECE7F",
"tX c #CAA981",
"yX c #D3AD80",
"uX c #D6B383",
"iX c #D9BA93",
"pX c #E3BC8C",
"aX c #E9BA88",
"sX c #FFE592",
"dX c #FEDBAE",
"fX c #FBEAB7",
"gX c #F5F3DD",
/* pixels */
"                    . X . X X X X . .   . X . . X . .   . X X X X . . . . . .     .     . .       . X o X .             .       ",
"  . 0 t t y p y y 0 _ / y / _ ( / p y p / ( 7.0 y / 5 1.y ( } } / ]  ._ ( _ ] ] / ] ] ]  .p / ~ ~ / ] _ / / p t p p p ` ] y $   ",
"  0 6 4 > t y y y y =.y.O p / _ #.u.*./ ] 8 #.#.#.8.8.*.i.8.8.u.t p  .1.] @.] / / ] / /  .} *.6 4 p %X!.y / / / @./ / / y 5 #   ",
"  p / y p p a p t t  .@.  @ $ t e t / / / / / _ _ #.../ / / / / @.#.#.#.1.@.........@.#.7.q 0 0 4 y 5 0 5 # p @.#. .1.1.' / %   ",
"  0 6 5 p 0 6 6 4 @ p / /  .& } =.*.=.8.9.8.8.7.*.$.} } } } @.@.#.#.*.7.=.#.*.#.#.#.#.#.#... ./ 5 / 0 _ / 4 & 6 4 4 t 4 e e @   ",
"                        . . . .         . . . .                                                 . . . . .                       ",
"  . O @ % $ @ @ @ O .   @ #     @ @ @ @ . . O O . O   . . . . . . . . . X @ . @ O . O   @ @ # # @ # 4 #   . @ @ $ @ @ $ @ @     ",
"  . X & % O p . 5 O @   4 &   @ # 5 . G.u   G.m q _ p *.}  .] @./ #.$.} o.#.p p >.^ 5 6 :.X % % $ @ p 4   O & 4 % 4 $ @ X   .   ",
"  @ @ 5 4 . % # 4 > # X 4 0   @ 4 5 X >     k w . $ @ 4 4 4 & 4 % $ & 4 # $ & X M m   . { X 4 % @ @ / 0 . % @ 4 4 @ % 4 O O .   ",
"  O @ 3 #   O   & . @ @ / / . # > 0 @       x -       O . X # # O .         . . M 2       @ 0 4 @ O p y . O O # . # # #   # .   ",
"    .       i       O @ / /   $ # 0 # 4   . z l &.    < - @ O @ X . . + O O # O.x z .   4 % y 4 $   0 6           @ .           ",
"  8 6 0 t 0   q y a 5 . p (   # 0 t t /     v x l Y S.Y G T C L b Z A A K.m.R 1 b U @   / y y / @   p q   t q / 7 & / / y / %   ",
"  q @ y y p i ( / 0 4 X p }   # 0 t 0 _     K c B.c A c.S.S.S.B.B.B.Z.B.%.U c c T T @   y 0 y / X   p (   t y q / @ / / * / &   ",
"  / > y y p 0.6 q y # X / }   4 0 0 0 #.. . Y U v V Z G T T T U T R R U A P b G F.U .   p ] D / $   p ( . q q q . @ / / / ` &   ",
"  ( N q &       O y > @ / }   > 0 ( N $.    I U A U l x U U U T T Q B.n Y z z K C.U .   / _ y / %   / (   / D         / ( / %   ",
"  @ % $ . X $ . . @ @ X u ;.  4 q } u 8.    I Y A R K J x T T R R Y Q c.! k T T F.U O   q _ y p #   _ q   @ O X   @   X % $     ",
"  # % X B V L m 9 O O . / _ . 6 q } _ 8.    I Y z K K T P J Y Y R R R R L 1 R P C.T O   / / y p #   / q   @ . S J C 1 O O O     ",
"  8 7 @ D.T.W.G.A.# 6 . p ... 6 / } ..-.    H T J c b Y U U R R R R ! U L k R J Z.U .   / /  ...&   p q   @ . k D.K.2 V O 7 .   ",
"  m { 4 Y.2XfX@XU.; o.@ ( 9.  5 / } _ 8.    H U K z l R R R R R Y Y T P z U R L H.Y .   / 7._ } 4 . p u   9 . K 1XdX+ V 5 ( O   ",
"  ( q 5 m.5XI.=XY.# ( # ~ 9.  4 / ]  .8.  . I K K c b c.c.R Y Y Y Y Y J c R B.K J.Y .   } 7._ } 4   / q . m   G rXI.1 J { 8 @   ",
"  . O . U.5X1X>X~.@   O 8.=.. 4 / } } 8.    I T Y J c U V.R T T Y R U G J R K K J.U     } *._ _ *   / ~ . .   T sX3X7 c.. .     ",
"  ;   r F T.fX:.n.4 <.. 8 ... 5 / } } -.    I Y c.Y k O l M 1 9 m m B M + V.K G J.U     | ;.( ( %   / q . r.  n L.aXO F /.@ @   ",
"  N   e k k b k - $ 5.. / } . 4 ( } ..8.    I L Y < 3.u.  aXaXaXpXpXdX  @.4 J J J.H     } ;.#.} 4   t }   a.. : A W   + l.% %   ",
"  D   @ H C U P Z @ 0.@ q  .. 4 ( } o.8.. . v.A   6 2.@ {.yX8X7XqXqX8X# % '   w Z.K     } ;.o...4 . p $.  s.  G N.m.z M j.& %   ",
"  q   0.+.      p.t.0.O ( } O 5 q } } ;.  . P.> ' i 2.d 7XyX8XuXuXtX8X7XX a e a   R     } ;.} ..4 . / (   p.a..     . h.z.4 >   ",
"  /   s.a.O d.> e.a.0.. / | @ 6 { } _ *.    N.. +.a 2.|.wXqX8X9XtXyX,X4Xx.6.# ' . m.@   } $.}  .#   / }   a.f.. 3.] . k.;X4 >   ",
"  q   /.h.t . @ h.d.3.X / *.O 6 } } } ;.    v.  a p   4XuX9X7X4X8X7XuX8X9XX 5 a 9 m..   } #.} o.#   5 }   z.j.j.. O a.a.-X4 %   ",
"  (   ).a.p.0.e.a.OX^.X / =.  4 } } } 8.    c.  d a >X0X+Xp.9X$XE.qX<._.iX0.' i < %.    } ( #.*.4   t ..  z.;Xa.s.t.a.^.-X& %   ",
"  (   [.&Xa.2.p.z. X|.% p $.. 4 / _ _ 8.  . c.C   f #   . $ 0X.X/.7X& & . i.X   U c..   | -.} #.4   / -.  _.OXx.s.0.0.OX;X4 4   ",
"  /   }.XX`.d.a.#X Xa.@ / $.@ 4 / ( _ 8.  . c.G >.:XX   h   a.iXiX:XX gXo 6.h P T c..   | ;._ / 5   / ;.  [.OXXX0.0.OXOX).4 e   ",
"  (   OX|.|.oX|.|.}.f.. y } . 4 ( #.} y.    Y A - 4Xi @ $ tXg e & <.<.. @ 5._.A L T .   | -.} } 6 . / /   [.|.|.|.|.|.|.(.& %   ",
"  (   |.oX|.OX|.|.OX/.@ p $.  4 _ _ ..y.    Y L   7XqX. + ' r.    q.a & . 6X9X# T R .   $.=.#.#.5 . / q   [.OX XOXOXOX}.z.& %   ",
"  }   |.|.|.|.|.oXoX).# p ... 4 /  ./ y.    c.P   ,XqX5 0.e.e.r.0.0.0.p.s.7X4X# M.c.X   *.} ..#.4   p q   _.].*X.XOX.XoX#X4 &   ",
"  (   |.|.|. XOX|. Xk.@ p ] . 4 _ ../ y.  . c.P - R.9X' 5.e.e.' t p.s.0.<.>Xg.9 %.c..   $.-.}  .#   t _   _. X X|. X X|.OX5 4   ",
"  }   |.|.:XOXOXOXOXj.. 5  .. 0 } .. .y.    E K J   .X4.5.3.X @X#.. 0.5.4.Q.O C T U     } #.} #.5   y ..  |. X XOXOXOXoX).6 %   ",
"  }   XX|.a./.OX|.XXp.. 6 #.. 6 #.#. .y.    E H T T d ,.e.' d 0.0.r 4.0.s 4 J P P R     _ #.} / 6   / /   |.). Xz.#X.X/./.0 %   ",
"  ..  (.x.'.|._.#X Xg.@ p _   5 ..#.#.y.    I U Y T A O .   0.5.4.4.  . : G K R H.U X   } #. ./ e   / q   z.|.*XOX*X).|.XXt &   ",
"  _   /.k._.|.|.}.OXa.O 0 /   5 #.#.#.w.    H K K P c C 1             S W n Q U F.K .   _ .._ / 0   y N   ).OX#XOX-X*X-X|.e %   ",
"  (   <X|.|.|.oXXX|.g.# p _   0 #.#...-.    H G U U z P K L L L A K J P L b T K H.K X   _ ../  .0 . / /   |.#XOXOX XOXoX`.t %   ",
"  (   oX|.|.|.XXXX|.f.# / ] O t #.@.@.7..   H J J R c R Y U T T Q T U U L A Y U J.K O   } #./ ..6 . y _   |.OX XoX X X|.;X6 &   ",
"  (   OXoX|.[.XXOXa.p.X /  .. t #.@.@.@.  . T K T Y n A c.R Y T U T U T Z c B.K H.v .   / #./ ..6 . p /   [.|.oX|.j.}.OXd.& %   ",
"  /   j.XX|.oXOXOX`.p.X 5  .  6 ..#.} }     G P Z Y l A R Y T T T T U J z c Y J B.G .   / $./ / 5 . t /   z._.OX|._.;X/.z.% %   ",
"  7   a.(.(.)./.k.*Xz.# ] ]   4 #.#.#...    J P R Y b A K T Y T T T T c b v c.G M.G .   ( *./ p e   p /   a./.OX[.z.`.).).@ @   ",
"  O . . @ @ O @ @ @ @ # / /   4 @.@.@.#..   J P R c.c Z L R Y Y Y R U b Z G V.J B.J     ( ( / / 4   p p     . . . . O   . X     ",
"  8 t / p / / p y t 5 X 6 _   * / p  .$.. . T R L T k M A T Y Y R T A b b R U A &.c     / _ p p 4   ] /   6 t y t y 0 t 5 0 @   ",
"  0 y y ] ..( _ 0 [ 5 . /  .. 4 / _  .#.. . K K J U k z A P Y Y Y Z A z z R P A R l     ( ..p y % . t (   0 y y y t.6 p e 0 @   ",
"  0 0 t 0 y / / @.8 4 . t _ O 4 } |  .*.    v C A K z A A n U Y R A b c z Y T J P v .   / o./ p & . / (   4 4 0 y y q 1.6 e @   ",
"  q 0 p 0 0 q y p p 4 . 0 _ . 4 _ } _ *..   A K c T A J K G J K A A T W k R P A L c     / #./ / & . _ (   0 6 0 0 t # y t t @   ",
"  5 5 6 =.] 6 @ 0 8 0 @ q  .  4 / } _ o.O   A Z M m.A n K R A c A P Y b z T J A L z     ( #./ / %   / ( . y y 0 0 w.q q 0 t $   ",
"  $ % &   X X @ X # 4 @ _ =.X 5 0 @.p } @   K A z J x b V.v Y Y b.G A b z K J A b b .   / p / / @   p / . & %   . . $ % $ $ .   ",
"  y y y   4 6 0 @ 5 # . ( -.. 6 q _ 0 ( .   G c : Z   2 V.G T Y J n Z b ; A J z A J .   / p p / @ O / 0   t /   6 4 0 6 0 y %   ",
"  y t 0   { q 0 % y 4 . 0 ..  5 p p y (     n . X     , Q c n Y J J z z     M   # J O   0 / p y # @ / y   5 p # p ) ( / y y %   ",
"  t 0 t   ( 6 5 4 D 5 O y (   4 0 ( q _       . # # X     1 l U G v     @ #   >     O   / / y 8 # # / /   4 q # 0 =.} ( y y %   ",
"  4 4 4   # 4 $ & 6 4 @ p _   % 6 / y _ @ ; % % 0 4 X > .   . l l . % # 4 4 & 6 # # 4   t y 0 4 @ O y ( . % 4 X & 4 t i e 6 X   ",
"  | | | $.| } } } } 0 X / #.  4 4 6 0 D . 0 % 5 q y X 6 # % X     @ & . 5 _ 5 ( / > D   y y 4 4 @ . y / . _ $.| $.q -.-.#.} %   ",
"  & % % # @   . . $ X X / / . @ 4 5 5 y O q y t t p . q t p 4 4 4 4 y t / -.5 t p q t   t y 0 5 @   t 0   @ % # @ . O @ $ % .   ",
"  q y y #./ . 5 5 ' # . t /   $ 5 . 4 y @ 0 y 0 0 5 . / 0 y y 4 5 y y 0 / ;.5 6 p 0 4   8 O = & $   t 0   e p y p . 5 5 0 ] @   ",
"  y y y / / @ 0 q p #   4 t   @ % d @ 6 # 4 4 # t 0 X p 6 4 t 0 0 4 t 5 y ;.@ 5 5 6 %   4   j & # . y 0   6 0 t 0 . 0 t 4 t @   ",
"  D t / / p @ p 5 5 #   4 y   $ $ % 4 4 . & 4 % 5 6 @ 5 4 4 4 % # & > 4 > 0 # > % 4 4   4 &   @ . @ t 8   4 e t 0   4 t p p @   ",
"  0 0 6 6 0 @ 6 4 4 4 . 6 7 . . @ $ X @ . @ @ $ % # @ # @ @ @ $ @ @ @ @ @ 4 # # @ @ $   # $ @ .   7 0 0   # 5 6 0   4 5 5 6 @   ",
"  0 5 t 6 6 5 4 4 5 . 0 0 5 4 % 4 y y / a ) ] ] ]  ._ ] ) ) ] _ _ _ / / ) ] ) / p a p p p p q t . q 0 0 & X 4 4 4 5 5 6 4 5 @   ",
"  5 6 0 0 5 5 5 0 5   q 0 0 a 4 0 y / y t 8 0 y 0 0 0 8 6 6 6 0 y p t 0 0 6 _ 0 0 0 6 e 6 0 t 6 % q t 5 0 X 5 e 4 5 5 y t t @   ",
"  6 5 # 5 t @ e e #   4 a 4 t 4 y 0 p / #...}  ._ 7.#.7.7.#...*.7. . .#._ #.#.y ] #. .p p 0 > t @ 0 4 t 5   4 5 5 5 t 4 4 4 @   ",
"  @ @ @ @ $ @ @ @ @   % % % & @ @ # 4 > # 3 4 4 3 4 3 3 3 3 7 3 4 4 4 5 5 5 5 5 4 4 4 > 3 4 4 % @ # # # #   O @ $ @ @ # # @ .   "
};
