/* XPM */
static const char *wall5[] = {
/* columns rows colors chars-per-pixel */
"64 64 211 2 ",
"   c #020201",
".  c #080703",
"X  c #0B0A05",
"o  c #06070A",
"O  c #0D0C09",
"+  c #110E05",
"@  c #100F0A",
"#  c #151206",
"$  c #191505",
"%  c #1E1906",
"&  c #14120B",
"*  c #19160B",
"=  c #1C190C",
"-  c #0C0C14",
";  c #0F0D19",
":  c #120E16",
">  c #110D1C",
",  c #1D1B13",
"<  c #181518",
"1  c #231D06",
"2  c #221E0B",
"3  c #211E12",
"4  c #201F18",
"5  c #26220D",
"6  c #2B250D",
"7  c #2D290E",
"8  c #332C0E",
"9  c #242214",
"0  c #292614",
"q  c #2E2A14",
"w  c #24231A",
"e  c #29271A",
"r  c #2C2A1C",
"t  c #322D12",
"y  c #312E1B",
"u  c #36321B",
"i  c #3C3618",
"p  c #39341C",
"a  c #150F21",
"s  c #161123",
"d  c #191326",
"f  c #1F1826",
"g  c #1D152B",
"h  c #21192C",
"j  c #211731",
"k  c #241A34",
"l  c #281E36",
"z  c #271B39",
"x  c #2A1D3B",
"c  c #2B2823",
"v  c #312F22",
"b  c #353223",
"n  c #393624",
"m  c #3C3826",
"M  c #3D3A2B",
"N  c #2D223B",
"B  c #423A14",
"V  c #423B1B",
"C  c #413D24",
"Z  c #413E2C",
"A  c #423E30",
"S  c #4B421C",
"D  c #574D1A",
"F  c #61561F",
"G  c #494426",
"H  c #45422D",
"J  c #4A462C",
"K  c #544B27",
"L  c #59522B",
"P  c #454233",
"I  c #494633",
"U  c #4D4A34",
"Y  c #4A4738",
"T  c #4D4B3A",
"R  c #524E34",
"E  c #514E3B",
"W  c #55523C",
"Q  c #5A5539",
"!  c #63592A",
"~  c #645B39",
"^  c #70652A",
"/  c #686239",
"(  c #726937",
")  c #2D1E41",
"_  c #2F2142",
"`  c #312245",
"'  c #34234B",
"]  c #392A4D",
"[  c #3A2652",
"{  c #3D2A55",
"}  c #3F2A59",
"|  c #3F3051",
" . c #402D57",
".. c #422D5C",
"X. c #453458",
"o. c #45315E",
"O. c #452E62",
"+. c #482F66",
"@. c #4A3663",
"#. c #4A3365",
"$. c #4D346A",
"%. c #503F66",
"&. c #51376E",
"*. c #52396E",
"=. c #553A72",
"-. c #5A3F78",
";. c #5A5745",
":. c #5E5A43",
">. c #625E46",
",. c #656145",
"<. c #6A6648",
"1. c #6A664C",
"2. c #726C4A",
"3. c #7B754B",
"4. c #676550",
"5. c #6D6A54",
"6. c #716D54",
"7. c #797453",
"8. c #777358",
"9. c #7D795B",
"0. c #4F4061",
"q. c #574869",
"w. c #5B4475",
"e. c #5D437A",
"r. c #61467E",
"t. c #62497E",
"y. c #655679",
"u. c #7E7A61",
"i. c #82783C",
"p. c #857D4B",
"a. c #827E5C",
"s. c #827D63",
"d. c #89835C",
"f. c #988F5A",
"g. c #A0985F",
"h. c #858164",
"j. c #8C8768",
"k. c #928C66",
"l. c #928D6B",
"z. c #98936D",
"x. c #8D8971",
"c. c #928E73",
"v. c #969274",
"b. c #9A9573",
"n. c #9A9677",
"m. c #9A967B",
"M. c #9D997D",
"N. c #A19B74",
"B. c #A29D7B",
"V. c #ACA468",
"C. c #A8A37E",
"Z. c #654B81",
"A. c #6D5687",
"S. c #745D8E",
"D. c #6F6283",
"F. c #746687",
"G. c #76628E",
"H. c #776290",
"J. c #796492",
"K. c #7D6A94",
"L. c #826E99",
"P. c #867797",
"I. c #85729C",
"U. c #88769F",
"Y. c #8A77A0",
"T. c #8D7BA2",
"R. c #907EA5",
"E. c #A29E81",
"W. c #A6A384",
"Q. c #ABA785",
"!. c #ADAA8B",
"~. c #B0AA85",
"^. c #B2AE8C",
"/. c #B7B28D",
"(. c #B2AE90",
"). c #B6B293",
"_. c #BAB594",
"`. c #BCB797",
"'. c #BEBA9B",
"]. c #9281A7",
"[. c #9584A9",
"{. c #9887AB",
"}. c #9B8BAC",
"|. c #9F90AE",
" X c #A193AF",
".X c #A295B1",
"XX c #A599B2",
"oX c #A99DB5",
"OX c #ADA3B8",
"+X c #C1BC94",
"@X c #C1BD9C",
"#X c #C2BEA1",
"$X c #C6C19C",
"%X c #CAC49B",
"&X c #C5C1A3",
"*X c #C9C5A4",
"=X c #CEC9A5",
"-X c #CAC7AA",
";X c #CEC9AB",
":X c #D1CCA6",
">X c #D2CDAC",
",X c #D5D0AD",
"<X c #D2CFB2",
"1X c #D6D2B2",
"2X c #D9D4B3",
"3X c #DAD7BA",
"4X c #DDDABC",
"5X c #DEDBC1",
"6X c #E1DEC4",
"7X c #E1DEC8",
"8X c #E4E0C7",
/* pixels */
"y n R j._.*X>X4X8X8X7X5X>X#X_.W.h.E b A ] [ { o.#.*.=.t.S.L.T.[.|. X[.Y.K.A.-.*.$.O.{ N E a.C._.$X:X4X7X6X2X>X&X'.).M.5.b b m C ",
"2 = C 9.^.@X*X3X7X7X7X5X-X`.^.B.9.Y w M N ` [ o.#.*.=.t.S.I.T.[.|. X[.Y.K.Z.-.*.#. ._ h Z Q p.z.C.+X1X5X4X2X;X'.).!.v.1.v * 2 2 ",
"9 X y 7.N.^.'.;X5X5X3X<X'.(.W.n.8.M . O ` z l `  .#.=.e.S.I.R.[. X.X[.Y.J.r.*.o.] z z l , G Q 3.k.C.@X;X;X*X@X).Q.E.c.5.e X 9 9 ",
"    9 2.k.C.^.`.#X&X&X_.!.W.n.h.,.b   o z ' ] { | X.X.X.o.q.y.y.F.F.y.w.@. .|  .{  .[ l X p G Q 3.k.B.!.)./.!.W.M.v.j.6.v       ",
"    9 ,.7.z.Q.!.W.W.W.E.M.m.j.>.J e   . h k ) { $.t.A.G.K.L.P.P.].P.P.P.K.A.t.w.#.{ ` h . 0 u i L 2.9.j.n.M.n.v.x.h.6.:.v   X X ",
".   9 ,.7.k.n.m.v.x.c.c.v.x.8.R H 9   . g j z ' } #.=.r.J.T.{..XoXoX{.T.K.Z.=.*.o.] N g   $ 9 5 u G R 1.s.x.x.h.9.8.,.I w   O & ",
"    e Q 1.1.W >.u.s.x.c.6.I v y b ,     g j z ' { #.=.e.S.I.R.{.XXXX[.Y.J.Z.=.*.o.' z d   # = $ # * r W 8.x.s.E M Y U m 3   . . ",
"    r r 9 , @ , P s.b.6.w .   . X O     g j z ' { O.=.e.S.I.R.{.XXXX[.Y.J.Z.=.$..._ j s   X .       . y 2.6.b X . O @ * *       ",
"  . 9 .         r 9.l.U X         O .   d h z ' { O.*.e.S.L.R.{.XXXX[.Y.J.Z.=.#.[ x g >               0 <.W ,         X 3       ",
"  * 9 5 & X & 9 m Z W e , & . X # 5 X   d h z ' { O.*.e.A.L.T.{.XX.X{.Y.J.Z.&.O.[ x g > . O X . X # & = m r 3 , & X # i p X     ",
". r r G L G L 2.Q & * * R R u i V 9 .   a g k ' { O.*.-.A.L.T.{..XXX{.Y.J.Z.$.O.[ x g > X $ 8 7 q V C & O X r Q R G L ~ b &     ",
"  * e q i u m R H .   . y y = * = .     a g k ` { ..&.-.A.L.T.{..X.X{.Y.J.Z.$.O.[ x g > . X # $ $ = 2 O     & r 9 * 9 3 * .     ",
"    . . . . & = 9 .   . .               a g k ' { ..&.e.A.L.R.{..X.X{.Y.J.Z.$.O.[ x h >             X X     .                   ",
"            O e 9 X + . X               > d z ' { O.&.e.A.L.T.[. X.X{.Y.J.t.$.O.[ ) h >           . # + $ + @ &     .           ",
"        .   O r p q = , * .             ; s z ' { ..&.e.A.L.T.[.|..X{.Y.J.t.#.O.[ x g >           . = y y e y =   .         X X ",
"5.T c & . O = * = 0 0 = +       . + = 0 : > k ' { ..&.e.A.L.T.[.}. X{.Y.J.t.#...[ x g < = X .     . O 2 u y 9 * & O * b ;.9.n.v.",
">X&X(.m.5.c O = 9 0 y = & . $ 5 6 i S K < - g ) [ O.&.e.A.L.R.[.}. X{.Y.J.t.#...' g ; c S q 2 #     & 0 Z Z y , w 8.E._.*X:X1X1X",
"1X;X&X'.!.;..   X O O .   $ i i B D F ! h s g k z ' ..$.e.G.U.T.[.{.T.K.y.#.[ x j h j c K i q 6 O     X * & X X 1._.;X>X,X2X2X2X",
"1X;X&X'.(.h.r . . .     @ p V B B D ^ ( < a z { o.%.q.q.q.y.D.F.F.K.D.y.q.0.@...[ ` j c K B t t = .     . .   Z b.'.*X:X2X4X4X2X",
"1X-X#X_.!.x.Z O + + X . 9 i V i B D ( 3.h > j `  .$.e.S.I.[..X.XXXXX}.].L.A.*...[ x g c S 8 7 7 = .   X * * , >.M./.$X=X1X5X7X4X",
">X#X).!.W.9.b X X X . . 3 u i 6 8 B ! / < > j ' { ..$.-.S.I.].}.XX.X[.U.H.e.+...[ x g < t 2 % % $ .   X O O 9 Q n.Q._.@X;X3X5X2X",
"'.).!.W.v.6.m .         9 u 7 2 5 8 B V : > j ' { ..$.e.S.I.R.}.XXXX[.Y.J.e.#...' x d : = # + + # @         & :.v.B.^._.@X-X-X*X",
"!.W.E.v.h.5.I .         9 m 5 $ 2 2 2 = - > j ` { ..$.e.S.I.R.{.XXXX[.Y.H.e.#...' z d - O X . . O * .         W l.b.W.!.(.(.(.^.",
"M.M.n.c.u.1.E O         , J 0 # % $ # + - > j ` { ..$.e.S.I.R.{.XXXX[.U.H.e.+.} ' x d ; X . . X X # X         P h.l.b.W.W.E.M.M.",
"M.n.x.x.h.9.:.*         3 U y $ # X X . - > g ) { ..$.e.S.I.R.{.XXXX[.U.G.e.+.} ' z g > .     X X O X         I h.x.n.v.v.m.c.v.",
"n.5.P Y :.5.:.*         9 U r O .     . o ; g ) { O.$.e.S.I.R.[..XXX[.U.G.e.+.} ' z d ;           .           E s.u.8.;.:.u.x.m.",
"8.4 . X @ * b &         9 9 .         . - ; d x { O.$.r.H.I.R.[..XXX[.U.G.e.+.} ' k d ;                     . W m , * X & Y l.Q.",
";.&       . m ,         , X           . - ; d x [ O.=.r.H.I.R.[..X.X[.I.G.w.+.} ' k d ;           X .       * I &         m u.M.",
"M T T M M 1.7.b .     , b V t & # # .   ; ; s z [ #.=.e.S.L.T.[..X.X[.U.J.e.+.} ' z g >       . + = X       P 1.2.Q M I W W M 4.",
"w h.M.c.v.B.5.b .     w M J L i 6 = X   - ; s z { $.=.e.S.L.T.[. X X[.U.J.e.+.} ' z d >       . $ & X     . T 5.j.N.k.k.k.>.O & ",
", T I c w e , &       X w 0 9 # X       ; > d ) } $.=.e.S.L.T.[. X X].U.H.w.+.} ' k d >                     , T W W I H R J X   ",
", w X X           . X                   ; > g ` { $.=.e.S.L.T.[. X X].I.H.w.+.} ' k d ;               . O O     .   . * r m # X ",
"T v & X . & e P 4.s.j.1.I r & .         ; > g _ { #.=.r.S.L.T.[. X X].U.H.e.+. .' k d ;         O 9 G 2.k.v.u.:.M , . * m U R U ",
"8.:.v . T n.^.@X$X$X$X_.~.b.7.U O . X . - > g _ [ #.=.r.S.L.T.[. X X].I.J.e.+. .' k d -     . 5 G ( f./.%X=X;X&X`.E.T , U ,.<.>.",
"h.5.v A Q.*X;X=X:X:X:X%X/.C.k.7.p . . X : O s ) [ #.=.r.S.L.T.{..X X].U.J.t.#.} ` d ; ;     X V ! p.V.%X,X>X:X=X&X'.n.P H ,.6.6.",
">.I Z h.).*X=X=X,X4X4X>X+XC.k.3.J X   . d j g j z ' ..&.t.H.U.].}.{.U.J.t.$.[ z g g j s     # i ! i.V.%X2X,X=X*X&X'.Q.1.y C U ~ ",
":.;.5.l.^.@X*X%X:X5X7X1X+XC.d.2.G X   . - > k [ o.0.w.q.y.D.L.P.U.P.D.y.q.q.%.o.[ x s -     # 8 S ( g.+X,X:X%X@X'.).W.6.m M W 1.",
"O e >.j.C./.'.`.$X>X,X=X/.k.3./ u .     - ; g ` { #.Z.S.T.}.XXOXOXoX}.R.I.S.w...` g ; o     X 1 8 K d.C.+X$X+X).(.!.m.6.b X O * ",
"X O M s.b.Q.^.^.^.)./.^.B.d.2.R 0 .     - - g ` [ ..*.e.S.I.[..XoX X].I.H.Z.&.{ _ g ; o     . $ 5 V / d.N.C.C.W.W.E.c.9.A . & & ",
"e O w 2.d.b.B.C.b.c.z.k.a.2.R q O       - - g ` [ O.=.e.S.L.]..XoX X[.U.J.Z.*.} ) d -         + % i G Q 3.j.l.v.v.c.j.8.T & b y ",
"& . & Q 8.h.k.j.9.2.2.,.Q C 0 +         - ; g ' { O.=.e.S.L.]..XoX X[.U.J.Z.&. .) d -         . $ q i G Q 2.8.9.s.s.9.1.T & , & ",
"    * ,.8.a.9.1.1.Q Q Q J 0 & X         ; > j ' { O.=.e.S.L.R.|.oX|.[.Y.J.Z.&.} ) g -         . X # 2 u H Q 1.<.W :.,.>.Y O     ",
"    * Q :.:.P r M R Q ~ y X             > s j ' { +.=.r.H.I.].|.oX|.].U.G.t.$.} ) d o               . $ u R Q r & * v I Z X     ",
"    , b & O X . & m <.R O               > s k ' } #.=.Z.J.I.].|.XX}.].U.S.r.$.{ ) d o                 . i L e       . X r X     ",
"    r ,           3 J 0 .               > s j ' } #.=.Z.J.I.].|.XX}.].I.S.e.$.{ ) s .                 . 9 u X         X C *     ",
"X w T R G r 9 9 $ X & X . .           . > s j ' } #.=.Z.J.I.].|.XX}.].I.S.e.$.{ ) s o             . X . . + . # 9 e M <.,.c X @ ",
"c.j.s.,.( / R G q X     . X .     . X $ > a j ' { #.=.r.S.I.R.|.XX}.].U.H.t.&. .` g o         . . . . .     . 0 J W 6.c.8.8.s.B.",
">X*X_.b.7.R 0 $ # .             X # % 6 < a j ' { #.=.r.S.L.R.|.XX}.[.U.H.Z.*...' g - o                       O & 9 7.B.^.@X=X:X",
"1X>X*X/.B.a.b X O           . . $ % 1 8 < a k ' { #.=.r.S.L.R.|.XX}.[.U.J.Z.*...' g ; o                         O ,.~.@X*X:X>X1X",
"2X1X*X`.~.b.,.9 9 X .     . X + % % 1 6 < s k ' } #.=.r.S.L.R.|.XX}.[.U.J.t.*...' j ; O # X .               . # H b.@X*X=X,X2X4X",
"2X,X*X_.~.b.1.e = = # O . . X + $ $ $ 2 < s k ' } #.=.r.S.L.R.|.XX}.].U.H.t.*...' k s < 5 % # + .     . X O $ r ,.B.@X$X=X2X6X6X",
"1X;X@X(.Q.v.1.w . # $ # . . + X X + # = > d k ' ..$.=.r.S.L.R.|.XX}.].I.H.t.*...' z d < 6 1 5 6 = .   . + = = r >.v.^._.$X>X5X5X",
"&X'.).!.W.c.5.r   # = * . . = O . X + # - > j ' ..$.=.r.S.I.R.|.XX}.].U.H.t.*.o.' j ; , 8 5 7 i u &   O = b , & Q k.B.^._.#X-X-X",
"^.Q.W.E.v.s.:.9           . = # X X + # j j g k ` { #.=.A.K.Y.}. X{.T.K.A.*...` k g j h 8 5 q i p *       .     I 9.j.C.!.(.(.(.",
"M.M.m.c.h.1.U ,           . 9 = # # # * g k ` ..o.0.0.0.q.y.F.P.P.F.y.q.q.0.@.#.{ ' k f 6 5 t i p , .   .       b ,.2.j.B.E.B.M.",
"m.m.j.6.5.:.J =     . .   . 0 3 $ + X & h j z { #.w.Z.J.Y.{..XOXOXXX{.T.L.A.w.#.{ x g d 5 0 u p n r O X O X .   b ,.<.2.8.h.c.c.",
"M.x.T e w r b =           X = X .     o h l N { #.$.=.r.S.I.].XXOXXX[.I.G.r.*.#.{ x g f 0 q p p u m *           M :.R M v A 5.x.",
"b.,.@     . . & .         O O           j z _ ..#.$.=.t.S.I.]..XOXXX[.U.G.t.*.#.{ _ j f r y p n n m 3         . b , O .   X M h.",
"h.P X       . y O       X 9 3 $ X . X O j z ` ..#.$.=.r.S.I.]. XOXXX[.U.G.t.*.#.{ _ j h 0 = = 9 n Z w         @ e X         b >.",
"T 9 b M v M ~ Q ,       , H p S t 5 5 = l N ' o.#.$.=.r.S.I.R.|.oX.X[.U.H.t.=.#.{ _ l g X     . & e ,       . M H K G m E Q U 9 ",
"X & R 6.1.9.k.1.;.>.:.M c P b q 5 $ O @ z _ ] o.#.*.=.Z.J.I.].}.XX.X].U.H.r.=.#.{ N l f .       . r W >.8.;.M :.U ~ p.d.b.j.R X ",
"  . 9 v W h.C.^.@X=X>X&X(.v.5.r       O N ` { o.#.*.=.Z.J.U.].{..X}.].I.H.t.=.#.{ ` l f X . , R 7.C.+X;X>X;X#X(.j.<.J Z I I u . ",
"X X O I N.@X;X,X2X3X2X1X;X#X^.h.w   @ e N ` { o.#.*.=.Z.J.U.].{.|.}.].I.J.Z.=.$.o.' N h e U 7.C.`.*X:X1X2X1X>X-X`.B.W O , e 9 . ",
"3 @ b a.^.=X>X3X6X7X6X3X;X&X).B.,.& 9 M ` ' { o.#.*.=.Z.J.U.].{.|.}.].I.J.t.=.$.o.[ ` h m 6.N.`.%X=X2X4X4X2X>X-X@X^.l.m , Z y # "
};
