/* XPM */
static char * floor_xpm[] = {
"64 64 1819 2",
"  	c #050004",
". 	c #050105",
"+ 	c #060208",
"@ 	c #070208",
"# 	c #0B0209",
"$ 	c #1C0915",
"% 	c #2C1422",
"& 	c #341828",
"* 	c #351729",
"= 	c #3B152C",
"- 	c #42152F",
"; 	c #461431",
"> 	c #461531",
", 	c #461731",
"' 	c #451931",
") 	c #421A31",
"! 	c #3F1A31",
"~ 	c #3C1A30",
"{ 	c #3B192E",
"] 	c #3C162C",
"^ 	c #3A152A",
"/ 	c #361728",
"( 	c #321827",
"_ 	c #2F1926",
": 	c #2B1825",
"< 	c #261822",
"[ 	c #231720",
"} 	c #20181F",
"| 	c #1F181F",
"1 	c #221920",
"2 	c #241A22",
"3 	c #291A24",
"4 	c #301926",
"5 	c #341728",
"6 	c #38172B",
"7 	c #3C182E",
"8 	c #3F192F",
"9 	c #40182E",
"0 	c #43182E",
"a 	c #46182F",
"b 	c #47172F",
"c 	c #46162F",
"d 	c #45152F",
"e 	c #44162F",
"f 	c #41172F",
"g 	c #3D192F",
"h 	c #38182C",
"i 	c #311227",
"j 	c #290E20",
"k 	c #200D19",
"l 	c #170912",
"m 	c #0C0309",
"n 	c #070004",
"o 	c #090005",
"p 	c #0B0005",
"q 	c #050207",
"r 	c #090209",
"s 	c #11030C",
"t 	c #200815",
"u 	c #2F1020",
"v 	c #361325",
"w 	c #381227",
"x 	c #3D1129",
"y 	c #45102C",
"z 	c #48102E",
"A 	c #49102F",
"B 	c #49112F",
"C 	c #48132E",
"D 	c #47142E",
"E 	c #43152D",
"F 	c #40152D",
"G 	c #3D152C",
"H 	c #3B142B",
"I 	c #391228",
"J 	c #361125",
"K 	c #321323",
"L 	c #2D1422",
"M 	c #2A1421",
"N 	c #261420",
"O 	c #22131E",
"P 	c #1F131C",
"Q 	c #1C131B",
"R 	c #1B141B",
"S 	c #1B141A",
"T 	c #1C141A",
"U 	c #1C141B",
"V 	c #1E141C",
"W 	c #20161E",
"X 	c #251620",
"Y 	c #2C1421",
"Z 	c #301323",
"` 	c #331226",
" .	c #361328",
"..	c #3A142A",
"+.	c #3E142B",
"@.	c #41142B",
"#.	c #45142C",
"$.	c #47132C",
"%.	c #49132D",
"&.	c #49122D",
"*.	c #48112D",
"=.	c #46112D",
"-.	c #43132D",
";.	c #40142C",
">.	c #3B1329",
",.	c #340F24",
"'.	c #2D0C1F",
").	c #240D1A",
"!.	c #1A0A13",
"~.	c #0E040A",
"{.	c #060004",
"].	c #080004",
"^.	c #0E030A",
"/.	c #1B0611",
"(.	c #270817",
"_.	c #33081D",
":.	c #3A0820",
"<.	c #3D0721",
"[.	c #420723",
"}.	c #490626",
"|.	c #4D0629",
"1.	c #4E062B",
"2.	c #4D0729",
"3.	c #4A0827",
"4.	c #470926",
"5.	c #430925",
"6.	c #3F0926",
"7.	c #390923",
"8.	c #33071E",
"9.	c #2E071A",
"0.	c #290818",
"a.	c #250817",
"b.	c #1F0916",
"c.	c #1B0914",
"d.	c #180812",
"e.	c #160810",
"f.	c #140811",
"g.	c #130911",
"h.	c #120911",
"i.	c #120810",
"j.	c #12080F",
"k.	c #130810",
"l.	c #150912",
"m.	c #180A13",
"n.	c #1D0A15",
"o.	c #240817",
"p.	c #29081A",
"q.	c #2E081E",
"r.	c #320920",
"s.	c #360921",
"t.	c #3C0923",
"u.	c #430825",
"v.	c #480826",
"w.	c #4B0827",
"x.	c #4D0728",
"y.	c #4E0729",
"z.	c #4A0729",
"A.	c #470728",
"B.	c #450826",
"C.	c #400723",
"D.	c #3A0520",
"E.	c #2B0D1C",
"F.	c #210C17",
"G.	c #12050C",
"H.	c #060005",
"I.	c #070106",
"J.	c #180610",
"K.	c #260918",
"L.	c #31081C",
"M.	c #39031D",
"N.	c #3F001D",
"O.	c #41001E",
"P.	c #450020",
"Q.	c #4A0023",
"R.	c #4E0026",
"S.	c #500029",
"T.	c #510029",
"U.	c #500027",
"V.	c #4D0025",
"W.	c #480023",
"X.	c #440022",
"Y.	c #3F0022",
"Z.	c #39011F",
"`.	c #310118",
" +	c #290012",
".+	c #240010",
"++	c #1F000F",
"@+	c #19010D",
"#+	c #14010B",
"$+	c #120008",
"%+	c #0F0007",
"&+	c #0C0108",
"*+	c #0A0109",
"=+	c #0A0108",
"-+	c #090107",
";+	c #090106",
">+	c #0B0108",
",+	c #0D0109",
"'+	c #11010B",
")+	c #17010D",
"!+	c #250112",
"~+	c #2A0117",
"{+	c #2E011A",
"]+	c #33011B",
"^+	c #3A011E",
"/+	c #430022",
"(+	c #490024",
"_+	c #4C0025",
":+	c #4F0027",
"<+	c #4C0026",
"[+	c #4A0024",
"}+	c #470021",
"|+	c #440020",
"1+	c #41001F",
"2+	c #3C041F",
"3+	c #350B20",
"4+	c #2B0C1C",
"5+	c #1C0511",
"6+	c #0E0108",
"7+	c #080206",
"8+	c #0E030B",
"9+	c #150712",
"0+	c #220A19",
"a+	c #300B20",
"b+	c #3A0922",
"c+	c #400320",
"d+	c #44001F",
"e+	c #45001F",
"f+	c #460021",
"g+	c #4D0027",
"h+	c #51002A",
"i+	c #4E0028",
"j+	c #490026",
"k+	c #440024",
"l+	c #3F0023",
"m+	c #3A011F",
"n+	c #320018",
"o+	c #2C0014",
"p+	c #260112",
"q+	c #200110",
"r+	c #1B010E",
"s+	c #17010C",
"t+	c #10010A",
"u+	c #070209",
"v+	c #070006",
"w+	c #070107",
"x+	c #080208",
"y+	c #18010D",
"z+	c #1F0110",
"A+	c #250113",
"B+	c #290114",
"C+	c #2D0117",
"D+	c #33011A",
"E+	c #3A001F",
"F+	c #430024",
"G+	c #480026",
"H+	c #4C0027",
"I+	c #4E0027",
"J+	c #4B0023",
"K+	c #480021",
"L+	c #460023",
"M+	c #440324",
"N+	c #3F0725",
"O+	c #370821",
"P+	c #280417",
"Q+	c #1B030F",
"R+	c #13050C",
"S+	c #0F060B",
"T+	c #1C0613",
"U+	c #1F0715",
"V+	c #240818",
"W+	c #2D091D",
"X+	c #380922",
"Y+	c #400724",
"Z+	c #450223",
"`+	c #470022",
" @	c #460022",
".@	c #470124",
"+@	c #480427",
"@@	c #4A052A",
"#@	c #4D062B",
"$@	c #4F062C",
"%@	c #4E072C",
"&@	c #4C072B",
"*@	c #48072A",
"=@	c #440729",
"-@	c #410827",
";@	c #3C0724",
">@	c #37071F",
",@	c #32061C",
"'@	c #2D071A",
")@	c #290819",
"!@	c #250818",
"~@	c #220917",
"{@	c #200916",
"]@	c #1D0915",
"^@	c #190813",
"/@	c #160812",
"(@	c #160711",
"_@	c #160610",
":@	c #170812",
"<@	c #180712",
"[@	c #1A0713",
"}@	c #1D0815",
"|@	c #220817",
"1@	c #280819",
"2@	c #2C071A",
"3@	c #2F071B",
"4@	c #32071D",
"5@	c #370720",
"6@	c #3D0724",
"7@	c #430828",
"8@	c #48082A",
"9@	c #4A082B",
"0@	c #4B082B",
"a@	c #4B092B",
"b@	c #4B082A",
"c@	c #4D0528",
"d@	c #4C0325",
"e@	c #490123",
"f@	c #490126",
"g@	c #450426",
"h@	c #3E0423",
"i@	c #34031C",
"j@	c #2A0417",
"k@	c #230915",
"l@	c #1E0B15",
"m@	c #2D0F1F",
"n@	c #2F0D1E",
"o@	c #32071C",
"p@	c #38031D",
"q@	c #3E0321",
"r@	c #430223",
"s@	c #490025",
"t@	c #470026",
"u@	c #470428",
"v@	c #460B2B",
"w@	c #470F2E",
"x@	c #48102F",
"y@	c #48112E",
"z@	c #46122E",
"A@	c #45122D",
"B@	c #43122D",
"C@	c #42122C",
"D@	c #3F112B",
"E@	c #3B1028",
"F@	c #381026",
"G@	c #361024",
"H@	c #331123",
"I@	c #301322",
"J@	c #2E1422",
"K@	c #2B1321",
"L@	c #28111E",
"M@	c #27101D",
"N@	c #26101C",
"O@	c #27101C",
"P@	c #260F1C",
"Q@	c #270F1D",
"R@	c #29111E",
"S@	c #2C1321",
"T@	c #2F1322",
"U@	c #371025",
"V@	c #3A1027",
"W@	c #3E1029",
"X@	c #41102B",
"Y@	c #44122E",
"Z@	c #47132F",
"`@	c #47142F",
" #	c #46132E",
".#	c #4A0E2C",
"+#	c #4C0829",
"@#	c #4A0326",
"##	c #4A0025",
"$#	c #4B0024",
"%#	c #460123",
"&#	c #410122",
"*#	c #3E011F",
"=#	c #39051E",
"-#	c #320D1F",
";#	c #2E1120",
">#	c #370F23",
",#	c #3A0620",
"'#	c #3E0020",
")#	c #420022",
"!#	c #460024",
"~#	c #4B0027",
"{#	c #4A0028",
"]#	c #48062A",
"^#	c #43102C",
"/#	c #40132C",
"(#	c #3E112B",
"_#	c #3C1029",
":#	c #3A1129",
"<#	c #3A1228",
"[#	c #3A1229",
"}#	c #391128",
"|#	c #371126",
"1#	c #351025",
"2#	c #351024",
"3#	c #341123",
"4#	c #311423",
"5#	c #2D111F",
"6#	c #2C0F1E",
"7#	c #371026",
"8#	c #391027",
"9#	c #3B1029",
"0#	c #3C122A",
"a#	c #3D132A",
"b#	c #3D142A",
"c#	c #3B142A",
"d#	c #39152A",
"e#	c #3C142A",
"f#	c #43112B",
"g#	c #480C2A",
"h#	c #4A0427",
"i#	c #4E0025",
"j#	c #4C0024",
"k#	c #470023",
"l#	c #440021",
"m#	c #410622",
"n#	c #3C1026",
"o#	c #381427",
"p#	c #391326",
"q#	c #3B0F26",
"r#	c #3E0624",
"s#	c #420024",
"t#	c #440025",
"u#	c #4D0028",
"v#	c #4E0029",
"w#	c #4A072A",
"x#	c #3F1229",
"y#	c #341326",
"z#	c #2A0C1E",
"A#	c #240618",
"B#	c #220717",
"C#	c #230717",
"D#	c #240718",
"E#	c #250819",
"F#	c #26081A",
"G#	c #270719",
"H#	c #280719",
"I#	c #2A071A",
"J#	c #2B081A",
"K#	c #2C081A",
"L#	c #2D091A",
"M#	c #2C0819",
"N#	c #2C0718",
"O#	c #2B0718",
"P#	c #2B0618",
"Q#	c #260719",
"R#	c #270819",
"S#	c #260818",
"T#	c #230818",
"U#	c #210918",
"V#	c #290C1C",
"W#	c #361023",
"X#	c #400E26",
"Y#	c #480625",
"Z#	c #4D0124",
"`#	c #4F0026",
" $	c #450024",
".$	c #450022",
"+$	c #440724",
"@$	c #41112A",
"#$	c #3C1329",
"$$	c #3F0F28",
"%$	c #430627",
"&$	c #460026",
"*$	c #480127",
"=$	c #4B0229",
"-$	c #4D042A",
";$	c #4D062C",
">$	c #460C2A",
",$	c #371225",
"'$	c #27111D",
")$	c #170710",
"!$	c #0A0005",
"~$	c #0D0006",
"{$	c #110109",
"]$	c #15010B",
"^$	c #19010C",
"/$	c #1D010E",
"($	c #210111",
"_$	c #280113",
":$	c #2A0113",
"<$	c #290113",
"[$	c #250213",
"}$	c #210212",
"|$	c #1D010F",
"1$	c #15010C",
"2$	c #12010A",
"3$	c #100007",
"4$	c #0E0006",
"5$	c #0C0005",
"6$	c #090004",
"7$	c #16040E",
"8$	c #280C1B",
"9$	c #370E21",
"0$	c #450B25",
"a$	c #4C0827",
"b$	c #4F0528",
"c$	c #4E0328",
"d$	c #490127",
"e$	c #470025",
"f$	c #460726",
"g$	c #45112C",
"h$	c #441530",
"i$	c #41132C",
"j$	c #430F2B",
"k$	c #480629",
"l$	c #4A0027",
"m$	c #490027",
"n$	c #490228",
"o$	c #4A062A",
"p$	c #490B2D",
"q$	c #46102E",
"r$	c #3D112A",
"s$	c #2B0F1F",
"t$	c #190A13",
"u$	c #0D0309",
"v$	c #050003",
"w$	c #060003",
"x$	c #0F0006",
"y$	c #130008",
"z$	c #18010B",
"A$	c #1C010D",
"B$	c #20000F",
"C$	c #240011",
"D$	c #280112",
"E$	c #260113",
"F$	c #210211",
"G$	c #14010C",
"H$	c #100109",
"I$	c #0B0004",
"J$	c #0F0108",
"K$	c #1D0511",
"L$	c #2E0B1C",
"M$	c #3E1127",
"N$	c #47122B",
"O$	c #4B0E2C",
"P$	c #4C082A",
"Q$	c #4A0328",
"R$	c #480628",
"S$	c #451531",
"T$	c #44132F",
"U$	c #460F2D",
"V$	c #4B062A",
"W$	c #4A0327",
"X$	c #48092B",
"Y$	c #440E2C",
"Z$	c #3B112B",
"`$	c #300F25",
" %	c #1E0A17",
".%	c #0D0409",
"+%	c #080105",
"@%	c #15010A",
"#%	c #1B010D",
"$%	c #1F010F",
"%%	c #210110",
"&%	c #250111",
"*%	c #2A0114",
"=%	c #2B0115",
"-%	c #2A0115",
";%	c #270113",
">%	c #230213",
",%	c #270214",
"'%	c #230212",
")%	c #1E0110",
"!%	c #1A010E",
"~%	c #15010D",
"{%	c #0E0007",
"]%	c #130109",
"^%	c #220716",
"/%	c #321022",
"(%	c #3D1329",
"_%	c #440F2B",
":%	c #490A2A",
"<%	c #4B0328",
"[%	c #4B0629",
"}%	c #481431",
"|%	c #451430",
"1%	c #47102E",
"2%	c #4B0426",
"3%	c #460A29",
"4%	c #3D0C27",
"5%	c #2D0A1F",
"6%	c #1D0616",
"7%	c #10030C",
"8%	c #080106",
"9%	c #120109",
"0%	c #1E0210",
"a%	c #220212",
"b%	c #2C0218",
"c%	c #2A0218",
"d%	c #270215",
"e%	c #240213",
"f%	c #2B0218",
"g%	c #290115",
"h%	c #200212",
"i%	c #1A0210",
"j%	c #16010E",
"k%	c #12030C",
"l%	c #2B0B1D",
"m%	c #3A0C25",
"n%	c #440A28",
"o%	c #4C0329",
"p%	c #4F0028",
"q%	c #4E062A",
"r%	c #4C102F",
"s%	c #4B1432",
"t%	c #461330",
"u%	c #480F2E",
"v%	c #450B29",
"w%	c #390B24",
"x%	c #230416",
"y%	c #0A0107",
"z%	c #0E0107",
"A%	c #12020B",
"B%	c #14030C",
"C%	c #13010B",
"D%	c #16010C",
"E%	c #1C010F",
"F%	c #220110",
"G%	c #260115",
"H%	c #250115",
"I%	c #1C0211",
"J%	c #170210",
"K%	c #13020D",
"L%	c #11020B",
"M%	c #12020A",
"N%	c #110209",
"O%	c #0D0106",
"P%	c #040004",
"Q%	c #070207",
"R%	c #1E0614",
"S%	c #330C22",
"T%	c #420B28",
"U%	c #4C0428",
"V%	c #500028",
"W%	c #4F062A",
"X%	c #4D102F",
"Y%	c #4C1432",
"Z%	c #451330",
"`%	c #4B052A",
" &	c #450B28",
".&	c #220414",
"+&	c #080005",
"@&	c #040003",
"#&	c #10020A",
"$&	c #170711",
"%&	c #130009",
"&&	c #120009",
"*&	c #15000A",
"=&	c #17000C",
"-&	c #14010A",
";&	c #16010A",
">&	c #17010A",
",&	c #16000A",
"'&	c #13010A",
")&	c #10020B",
"!&	c #0D030C",
"~&	c #0B030B",
"{&	c #0D040C",
"]&	c #12060E",
"^&	c #12050D",
"/&	c #0E0208",
"(&	c #070005",
"_&	c #330E24",
":&	c #410E29",
"<&	c #4B0527",
"[&	c #4F0025",
"}&	c #4E0628",
"|&	c #4C112E",
"1&	c #4B1531",
"2&	c #45132F",
"3&	c #4A0426",
"4&	c #380A23",
"5&	c #070105",
"6&	c #0A0206",
"7&	c #0C0207",
"8&	c #10040C",
"9&	c #150711",
"0&	c #13020B",
"a&	c #100006",
"b&	c #0D0005",
"c&	c #0E0005",
"d&	c #0A040A",
"e&	c #10060E",
"f&	c #11050D",
"g&	c #0F0208",
"h&	c #0C0106",
"i&	c #0A0106",
"j&	c #200615",
"k&	c #341024",
"l&	c #401029",
"m&	c #480627",
"n&	c #4B0628",
"o&	c #4A112E",
"p&	c #491530",
"q&	c #44152F",
"r&	c #45112D",
"s&	c #470629",
"t&	c #480027",
"u&	c #460327",
"v&	c #400927",
"w&	c #350921",
"x&	c #200313",
"y&	c #0B0206",
"z&	c #0E0409",
"A&	c #10060B",
"B&	c #10050B",
"C&	c #0E040B",
"D&	c #0F020A",
"E&	c #100107",
"F&	c #0C0208",
"G&	c #0F0107",
"H&	c #100207",
"I&	c #0F040A",
"J&	c #0A0004",
"K&	c #200614",
"L&	c #330F22",
"M&	c #3E0F28",
"N&	c #450627",
"O&	c #47112D",
"P&	c #461530",
"Q&	c #40162E",
"R&	c #41122C",
"S&	c #420727",
"T&	c #430025",
"U&	c #420426",
"V&	c #3D0927",
"W&	c #330921",
"X&	c #200414",
"Y&	c #0F0207",
"Z&	c #13050B",
"`&	c #14060D",
" *	c #12060C",
".*	c #0B0006",
"+*	c #11060B",
"@*	c #11060C",
"#*	c #0F0209",
"$*	c #210614",
"%*	c #3D0F26",
"&*	c #410625",
"**	c #420728",
"=*	c #3A162B",
"-*	c #3B1229",
";*	c #3C0723",
">*	c #3E0425",
",*	c #3C0A27",
"'*	c #330A23",
")*	c #210416",
"!*	c #130108",
"~*	c #17020B",
"{*	c #16030C",
"]*	c #0D0107",
"^*	c #0C0107",
"/*	c #090108",
"(*	c #12030B",
"_*	c #11010A",
":*	c #220615",
"<*	c #3B0F25",
"[*	c #3D0622",
"}*	c #3C001F",
"|*	c #3B001F",
"1*	c #3C0824",
"2*	c #3F132C",
"3*	c #411730",
"4*	c #361226",
"5*	c #370820",
"6*	c #38011D",
"7*	c #3B0423",
"8*	c #390A26",
"9*	c #320A23",
"0*	c #220417",
"a*	c #160009",
"b*	c #090006",
"c*	c #0E0008",
"d*	c #13010C",
"e*	c #12010C",
"f*	c #11010C",
"g*	c #15010E",
"h*	c #14020F",
"i*	c #13030F",
"j*	c #12030E",
"k*	c #100209",
"l*	c #11050B",
"m*	c #15050D",
"n*	c #15020C",
"o*	c #320F21",
"p*	c #390F24",
"q*	c #39061F",
"r*	c #37001C",
"s*	c #35011C",
"t*	c #360822",
"u*	c #3A132A",
"v*	c #3D172F",
"w*	c #331325",
"x*	c #31091F",
"y*	c #32011C",
"z*	c #35011D",
"A*	c #370520",
"B*	c #360B24",
"C*	c #300B21",
"D*	c #230516",
"E*	c #1A010C",
"F*	c #1A010D",
"G*	c #0F010A",
"H*	c #1B0212",
"I*	c #1E0215",
"J*	c #1F0216",
"K*	c #1D0215",
"L*	c #1A0211",
"M*	c #1C0110",
"N*	c #1F0212",
"O*	c #1F0215",
"P*	c #1F0317",
"Q*	c #1F0416",
"R*	c #1F0714",
"S*	c #15020B",
"T*	c #19020D",
"U*	c #230716",
"V*	c #300F20",
"W*	c #360F23",
"X*	c #36061F",
"Y*	c #34011B",
"Z*	c #31011B",
"`*	c #320820",
" =	c #38172C",
".=	c #321726",
"+=	c #2C091D",
"@=	c #2B0219",
"#=	c #31051D",
"$=	c #320B21",
"%=	c #2F0B1F",
"&=	c #260416",
"*=	c #20010F",
"==	c #21010F",
"-=	c #0C0007",
";=	c #1B0111",
">=	c #200214",
",=	c #230217",
"'=	c #240319",
")=	c #24031A",
"!=	c #220217",
"~=	c #1F0214",
"{=	c #1D0212",
"]=	c #1C0212",
"^=	c #1F0211",
"/=	c #200211",
"(=	c #210213",
"_=	c #220216",
":=	c #220218",
"<=	c #220318",
"[=	c #230418",
"}=	c #210816",
"|=	c #1B0612",
"1=	c #14030D",
"2=	c #1B010C",
"3=	c #1F010E",
"4=	c #1E010F",
"5=	c #250716",
"6=	c #2F0F20",
"7=	c #2F0119",
"8=	c #2B0118",
"9=	c #311325",
"0=	c #341729",
"a=	c #2F1423",
"b=	c #2C1120",
"c=	c #220215",
"d=	c #240215",
"e=	c #290519",
"f=	c #2F0A1E",
"g=	c #2F0A1D",
"h=	c #2A0416",
"i=	c #2A0013",
"j=	c #240112",
"k=	c #100008",
"l=	c #13000B",
"m=	c #210114",
"n=	c #280218",
"o=	c #290219",
"p=	c #28021A",
"q=	c #26031A",
"r=	c #240317",
"s=	c #220214",
"t=	c #1E0211",
"u=	c #1B010F",
"v=	c #19010E",
"w=	c #1E0111",
"x=	c #1E0212",
"y=	c #210316",
"z=	c #240719",
"A=	c #240919",
"B=	c #150009",
"C=	c #270112",
"D=	c #270718",
"E=	c #310F21",
"F=	c #260114",
"G=	c #230112",
"H=	c #250919",
"I=	c #2C1423",
"J=	c #2F1827",
"K=	c #2C1220",
"L=	c #290F1D",
"M=	c #210716",
"N=	c #2D091B",
"O=	c #2F091C",
"P=	c #2C0416",
"Q=	c #2C0114",
"R=	c #2E0014",
"S=	c #2D0115",
"T=	c #270114",
"U=	c #100108",
"V=	c #250217",
"W=	c #2B021B",
"X=	c #29021A",
"Y=	c #250319",
"Z=	c #220317",
"`=	c #25051B",
" -	c #27091B",
".-	c #170410",
"+-	c #0A0006",
"@-	c #170009",
"#-	c #240110",
"$-	c #260213",
"%-	c #2A0719",
"&-	c #310F20",
"*-	c #291521",
"=-	c #2D1926",
"--	c #2B111E",
";-	c #270E1B",
">-	c #2C091B",
",-	c #2F091B",
"'-	c #2F0014",
")-	c #210216",
"!-	c #27031A",
"~-	c #27031B",
"{-	c #210217",
"]-	c #1F0213",
"^-	c #1D0211",
"/-	c #18010E",
"(-	c #17010E",
"_-	c #1B0211",
":-	c #25041A",
"<-	c #210517",
"[-	c #16020F",
"}-	c #250110",
"|-	c #2C0719",
"1-	c #1D0916",
"2-	c #281521",
"3-	c #28121D",
"4-	c #250E19",
"5-	c #1D0611",
"6-	c #19010B",
"7-	c #200412",
"8-	c #2B091A",
"9-	c #2E091B",
"0-	c #2E0116",
"a-	c #2D0116",
"b-	c #1E0214",
"c-	c #240318",
"d-	c #1C0313",
"e-	c #1C0414",
"f-	c #1A0412",
"g-	c #14020D",
"h-	c #10010B",
"i-	c #12020C",
"j-	c #14030E",
"k-	c #17030F",
"l-	c #190211",
"m-	c #1D0214",
"n-	c #14010E",
"o-	c #2C0618",
"p-	c #300E1F",
"q-	c #2D0E1E",
"r-	c #17000B",
"s-	c #1A0914",
"t-	c #24141D",
"u-	c #201019",
"v-	c #19060F",
"w-	c #140007",
"x-	c #1C040F",
"y-	c #270A19",
"z-	c #2B0A1A",
"A-	c #2B0416",
"B-	c #2D0118",
"C-	c #260215",
"D-	c #230215",
"E-	c #210214",
"F-	c #1B0313",
"G-	c #190514",
"H-	c #1B0816",
"I-	c #180713",
"J-	c #0A0209",
"K-	c #0F040D",
"L-	c #170310",
"M-	c #1A0212",
"N-	c #240217",
"O-	c #2B0517",
"P-	c #2C0C1C",
"Q-	c #280B1A",
"R-	c #1D0410",
"S-	c #120007",
"T-	c #160811",
"U-	c #22131D",
"V-	c #271822",
"W-	c #21151D",
"X-	c #1D1119",
"Y-	c #15070F",
"Z-	c #19040F",
"`-	c #250A18",
" ;	c #2A0A1A",
".;	c #2C0219",
"+;	c #220213",
"@;	c #170512",
"#;	c #180914",
"$;	c #0C030A",
"%;	c #0C050B",
"&;	c #150911",
"*;	c #180912",
"=;	c #15060F",
"-;	c #180311",
";;	c #1E0316",
">;	c #140109",
",;	c #0B0106",
"';	c #140810",
");	c #241721",
"!;	c #140710",
"~;	c #0D0108",
"{;	c #18040F",
"];	c #200213",
"^;	c #17020F",
"/;	c #14040F",
"(;	c #150710",
"_;	c #12070E",
":;	c #0A0208",
"<;	c #0A0308",
"[;	c #12070D",
"};	c #150910",
"|;	c #150810",
"1;	c #160612",
"2;	c #190413",
"3;	c #1D0314",
"4;	c #20151D",
"5;	c #1C1119",
"6;	c #120710",
"7;	c #0B0109",
"8;	c #240A18",
"9;	c #290A19",
"0;	c #2C0118",
"a;	c #080006",
"b;	c #1D0213",
"c;	c #13030C",
"d;	c #12060D",
"e;	c #090206",
"f;	c #0A0207",
"g;	c #12080E",
"h;	c #13080F",
"i;	c #140611",
"j;	c #170412",
"k;	c #2A0516",
"l;	c #2A0B1A",
"m;	c #250B19",
"n;	c #170510",
"o;	c #110911",
"p;	c #1E131C",
"q;	c #231721",
"r;	c #1F141C",
"s;	c #1A1119",
"t;	c #100810",
"u;	c #080209",
"v;	c #16040F",
"w;	c #280919",
"x;	c #290415",
"y;	c #250214",
"z;	c #1F0210",
"A;	c #16010B",
"B;	c #1A0313",
"C;	c #170211",
"D;	c #11070D",
"E;	c #10050C",
"F;	c #13030E",
"G;	c #1E0213",
"H;	c #2A0D1B",
"I;	c #250D19",
"J;	c #060106",
"K;	c #10080F",
"L;	c #1D131B",
"M;	c #221820",
"N;	c #1A1118",
"O;	c #0F0810",
"P;	c #15040F",
"Q;	c #210917",
"R;	c #270918",
"S;	c #17000A",
"T;	c #190210",
"U;	c #1A0213",
"V;	c #190312",
"W;	c #15020F",
"X;	c #13050E",
"Y;	c #090207",
"Z;	c #0F030B",
"`;	c #12010D",
" >	c #180211",
".>	c #1D0210",
"+>	c #2A0112",
"@>	c #0A0007",
"#>	c #10070E",
"$>	c #1C131A",
"%>	c #21171E",
"&>	c #240111",
"*>	c #1F000E",
"=>	c #0C0109",
"->	c #160210",
";>	c #1B0213",
">>	c #150311",
",>	c #150411",
"'>	c #13010D",
")>	c #160211",
"!>	c #12010B",
"~>	c #290011",
"{>	c #10070D",
"]>	c #1C1219",
"^>	c #21161E",
"/>	c #1A1018",
"(>	c #1E000D",
"_>	c #160008",
":>	c #0F010B",
"<>	c #150210",
"[>	c #1C0213",
"}>	c #180312",
"|>	c #160312",
"1>	c #13020F",
"2>	c #14020E",
"3>	c #150211",
"4>	c #290112",
"5>	c #280111",
"6>	c #10060D",
"7>	c #1C1118",
"8>	c #110710",
"9>	c #0E0109",
"0>	c #1A0312",
"a>	c #0C0006",
"b>	c #1B1018",
"c>	c #17040F",
"d>	c #1E000E",
"e>	c #0F0109",
"f>	c #180412",
"g>	c #130410",
"h>	c #13070F",
"i>	c #14070F",
"j>	c #250B18",
"k>	c #18050F",
"l>	c #0B0007",
"m>	c #11070E",
"n>	c #22161E",
"o>	c #130710",
"p>	c #19040E",
"q>	c #290A1A",
"r>	c #140009",
"s>	c #1B0413",
"t>	c #170712",
"u>	c #12070F",
"v>	c #10060C",
"w>	c #180A14",
"x>	c #180813",
"y>	c #2A0D1A",
"z>	c #19050F",
"A>	c #1E121B",
"B>	c #231620",
"C>	c #1E121A",
"D>	c #1A040F",
"E>	c #1B0412",
"F>	c #170811",
"G>	c #140911",
"H>	c #13070E",
"I>	c #190714",
"J>	c #18010F",
"K>	c #2B0516",
"L>	c #2B0C1B",
"M>	c #270C19",
"N>	c #1A050F",
"O>	c #0F0005",
"P>	c #20121C",
"Q>	c #170813",
"R>	c #1B0411",
"S>	c #250A19",
"T>	c #160710",
"U>	c #12030A",
"V>	c #120208",
"W>	c #120309",
"X>	c #2D0219",
"Y>	c #2E0A1B",
"Z>	c #2A0A19",
"`>	c #100005",
" ,	c #20131C",
".,	c #291622",
"+,	c #25121E",
"@,	c #1C0814",
"#,	c #1F0514",
"$,	c #280A1B",
"%,	c #2C0A1C",
"&,	c #2A0517",
"*,	c #270213",
"=,	c #13020E",
"-,	c #210518",
";,	c #26051A",
">,	c #240315",
",,	c #220112",
"',	c #1F0312",
"),	c #1A0510",
"!,	c #17050F",
"~,	c #16030E",
"{,	c #16010D",
"],	c #180110",
"^,	c #240214",
"/,	c #250314",
"(,	c #250515",
"_,	c #200513",
":,	c #15020D",
"<,	c #060105",
"[,	c #230110",
"},	c #2C0417",
"|,	c #300A1D",
"1,	c #140008",
"2,	c #1B0712",
"3,	c #24121D",
"4,	c #301423",
"5,	c #2C101F",
"6,	c #210715",
"7,	c #250517",
"8,	c #2E0B1F",
"9,	c #290518",
"0,	c #080207",
"a,	c #150511",
"b,	c #250A1C",
"c,	c #29091D",
"d,	c #250416",
"e,	c #220312",
"f,	c #1E0311",
"g,	c #1A0110",
"h,	c #290515",
"i,	c #280B19",
"j,	c #230B17",
"k,	c #2D0418",
"l,	c #310A20",
"m,	c #260517",
"n,	c #210714",
"o,	c #2B101F",
"p,	c #341426",
"q,	c #301021",
"r,	c #260717",
"s,	c #2C051B",
"t,	c #320B22",
"u,	c #300B22",
"v,	c #270519",
"w,	c #090208",
"x,	c #050309",
"y,	c #060309",
"z,	c #130611",
"A,	c #210A1A",
"B,	c #260A1C",
"C,	c #250617",
"D,	c #260313",
"E,	c #290213",
"F,	c #1E0313",
"G,	c #1F0414",
"H,	c #210516",
"I,	c #230518",
"J,	c #250518",
"K,	c #280416",
"L,	c #280616",
"M,	c #260B17",
"N,	c #200A15",
"O,	c #14040C",
"P,	c #1D0110",
"Q,	c #2C0418",
"R,	c #310B21",
"S,	c #310B22",
"T,	c #2A051A",
"U,	c #250717",
"V,	c #311121",
"W,	c #361526",
"X,	c #361529",
"Y,	c #321124",
"Z,	c #2B0719",
"`,	c #2E0118",
" '	c #33051E",
".'	c #350C24",
"+'	c #310C23",
"@'	c #260518",
"#'	c #150008",
"$'	c #0B040C",
"%'	c #1C0715",
"&'	c #240918",
"*'	c #290718",
"='	c #2A0315",
"-'	c #220916",
";'	c #230917",
">'	c #240917",
",'	c #250917",
"''	c #230814",
")'	c #1C0610",
"!'	c #1B0110",
"~'	c #230111",
"{'	c #290417",
"]'	c #2E051D",
"^'	c #280217",
"/'	c #290919",
"('	c #341424",
"_'	c #391829",
":'	c #38162A",
"<'	c #351126",
"['	c #31071C",
"}'	c #310117",
"|'	c #34011A",
"1'	c #380B25",
"2'	c #240516",
"3'	c #17010B",
"4'	c #12040D",
"5'	c #1F0814",
"6'	c #240716",
"7'	c #240312",
"8'	c #1B0312",
"9'	c #1E0713",
"0'	c #1F0813",
"a'	c #11030A",
"b'	c #050106",
"c'	c #0F0009",
"d'	c #180210",
"e'	c #310C21",
"f'	c #330620",
"g'	c #2F011B",
"h'	c #30091D",
"i'	c #391527",
"j'	c #3D192B",
"k'	c #3B152B",
"l'	c #391127",
"m'	c #38061F",
"n'	c #37001A",
"o'	c #38001B",
"p'	c #39041F",
"q'	c #3A0A24",
"r'	c #330A21",
"s'	c #130007",
"t'	c #11030B",
"u'	c #0F020C",
"v'	c #11020C",
"w'	c #15040E",
"x'	c #14040D",
"y'	c #0F030A",
"z'	c #230616",
"A'	c #320E22",
"B'	c #390E25",
"C'	c #390622",
"D'	c #38011F",
"E'	c #36011C",
"F'	c #380820",
"G'	c #3E132A",
"H'	c #41172E",
"I'	c #3E142C",
"J'	c #3E1028",
"K'	c #3D001D",
"L'	c #3D0320",
"M'	c #3C0924",
"N'	c #330920",
"O'	c #210313",
"P'	c #110108",
"Q'	c #14040E",
"R'	c #16060F",
"S'	c #14050E",
"T'	c #09040A",
"U'	c #0E060C",
"V'	c #11060E",
"W'	c #12030F",
"X'	c #12020D",
"Y'	c #3C0F26",
"Z'	c #3F0624",
"`'	c #400021",
" )	c #3E001F",
".)	c #3F0723",
"+)	c #43132C",
"@)	c #451730",
"#)	c #41132D",
"$)	c #420F2A",
"%)	c #430623",
"&)	c #43001F",
"*)	c #410321",
"=)	c #3D0924",
"-)	c #200312",
";)	c #13060E",
">)	c #170B13",
",)	c #1C0F17",
"')	c #1B0D16",
"))	c #150610",
"!)	c #0E070E",
"~)	c #180E15",
"{)	c #180D15",
"])	c #11050E",
"^)	c #0B0107",
"/)	c #320F22",
"()	c #3E0F27",
"_)	c #440626",
":)	c #440825",
"<)	c #46142E",
"[)	c #481832",
"})	c #44142E",
"|)	c #45102B",
"1)	c #470625",
"2)	c #490021",
"3)	c #490022",
"4)	c #460424",
"5)	c #410B27",
"6)	c #350B22",
"7)	c #200413",
"8)	c #0D0208",
"9)	c #10050D",
"0)	c #150A12",
"a)	c #1B0F17",
"b)	c #190A14",
"c)	c #14050F",
"d)	c #060207",
"e)	c #09030A",
"f)	c #0D050D",
"g)	c #130912",
"h)	c #190F17",
"i)	c #0E050C",
"j)	c #200716",
"k)	c #340F23",
"l)	c #410F28",
"m)	c #4B0025",
"n)	c #490828",
"o)	c #491330",
"p)	c #491833",
"q)	c #45142F",
"r)	c #47102C",
"s)	c #4A0626",
"t)	c #4D0024",
"u)	c #450E2A",
"v)	c #380E26",
"w)	c #210515",
"x)	c #190A12",
"y)	c #1A0D16",
"z)	c #11050C",
"A)	c #150812",
"B)	c #160A14",
"C)	c #380F26",
"D)	c #450F2B",
"E)	c #4C0629",
"F)	c #4D072B",
"G)	c #4B1131",
"H)	c #4A1534",
"I)	c #47112C",
"J)	c #4C0627",
"K)	c #4F0024",
"L)	c #500026",
"M)	c #4D0628",
"N)	c #450F2C",
"O)	c #380F27",
"P)	c #14050D",
"Q)	c #1B0D15",
"R)	c #1A0D15",
"S)	c #13020C",
"T)	c #14020B",
"U)	c #170713",
"V)	c #080107",
"W)	c #220718",
"X)	c #3A0F28",
"Y)	c #470F2D",
"Z)	c #510028",
"`)	c #4F062D",
" !	c #4C1031",
".!	c #4B1434",
"+!	c #48112C",
"@!	c #4E0024",
"#!	c #4B0627",
"$!	c #43102A",
"%!	c #1E0615",
"&!	c #100208",
"*!	c #14050C",
"=!	c #220211",
"-!	c #200111",
";!	c #18010C",
">!	c #16020D",
",!	c #220818",
"'!	c #3A1028",
")!	c #50062C",
"!!	c #4D1031",
"~!	c #4B1433",
"{!	c #4A0526",
"]!	c #430D29",
"^!	c #390E26",
"/!	c #2B091D",
"(!	c #1F0614",
"_!	c #110006",
":!	c #260011",
"<!	c #24000F",
"[!	c #1B0512",
"}!	c #3C0E28",
"|!	c #470C2C",
"1!	c #4D052B",
"2!	c #4B102F",
"3!	c #4A1531",
"4!	c #46102C",
"5!	c #490628",
"6!	c #490227",
"7!	c #460728",
"8!	c #410B29",
"9!	c #350F24",
"0!	c #2B0E1D",
"a!	c #1F0A15",
"b!	c #14040B",
"c!	c #1D000D",
"d!	c #2D0114",
"e!	c #2D0014",
"f!	c #270010",
"g!	c #110008",
"h!	c #1A0610",
"i!	c #2F091E",
"j!	c #380A24",
"k!	c #410928",
"l!	c #4C0229",
"m!	c #47112E",
"n!	c #451530",
"o!	c #470627",
"p!	c #480228",
"q!	c #470C2B",
"r!	c #411029",
"s!	c #341223",
"t!	c #260F1B",
"u!	c #16060E",
"v!	c #22000F",
"w!	c #260111",
"x!	c #2B0113",
"y!	c #090105",
"z!	c #2F0B1E",
"A!	c #460428",
"B!	c #490229",
"C!	c #4B0128",
"D!	c #470727",
"E!	c #43112C",
"F!	c #41162E",
"G!	c #40102A",
"H!	c #430625",
"I!	c #4A0128",
"J!	c #4C0228",
"K!	c #4C0527",
"L!	c #460C27",
"M!	c #391325",
"N!	c #2A121F",
"O!	c #180711",
"P!	c #23000F",
"Q!	c #110007",
"R!	c #060206",
"S!	c #2A0A1D",
"T!	c #370B23",
"U!	c #420625",
"V!	c #480327",
"W!	c #490028",
"X!	c #3E152C",
"Y!	c #3A1429",
"Z!	c #3C1027",
"`!	c #3E0623",
" ~	c #410021",
".~	c #4D0026",
"+~	c #3E1026",
"@~	c #331023",
"#~	c #29091B",
"$~	c #220415",
"%~	c #1E0314",
"&~	c #1D0414",
"*~	c #1E0414",
"=~	c #200415",
"-~	c #220315",
";~	c #230313",
">~	c #250313",
",~	c #280213",
"'~	c #290314",
")~	c #280314",
"!~	c #260212",
"~~	c #220413",
"{~	c #220313",
"]~	c #230315",
"^~	c #270317",
"/~	c #340922",
"(~	c #3E0926",
"_~	c #470327",
":~	c #450025",
"<~	c #400623",
"[~	c #3D1028",
"}~	c #361326",
"|~	c #370F24",
"1~	c #380620",
"2~	c #3C011F",
"3~	c #480225",
"4~	c #420626",
"5~	c #3E0826",
"6~	c #3D0926",
"7~	c #3A0A26",
"8~	c #350A24",
"9~	c #320A22",
"0~	c #340921",
"a~	c #31071F",
"b~	c #2C041B",
"c~	c #290418",
"d~	c #270818",
"e~	c #260415",
"f~	c #250414",
"g~	c #250715",
"h~	c #230614",
"i~	c #1E0310",
"j~	c #1C010E",
"k~	c #290315",
"l~	c #2C091A",
"m~	c #35071F",
"n~	c #390621",
"o~	c #3A0322",
"p~	c #37021F",
"q~	c #380220",
"r~	c #3F0525",
"s~	c #450528",
"t~	c #4A0228",
"u~	c #3C0620",
"v~	c #3A1328",
"w~	c #2D0C1D",
"x~	c #2E071B",
"y~	c #34041C",
"z~	c #3C0520",
"A~	c #430423",
"B~	c #4A0026",
"C~	c #460328",
"D~	c #460A2B",
"E~	c #410A29",
"F~	c #3E0A28",
"G~	c #3E0927",
"H~	c #3C0925",
"I~	c #380723",
"J~	c #31041E",
"K~	c #230414",
"L~	c #210312",
"M~	c #200613",
"N~	c #1D0612",
"O~	c #1A010F",
"P~	c #2A0316",
"Q~	c #32091E",
"R~	c #360920",
"S~	c #3E0724",
"T~	c #460227",
"U~	c #430125",
"V~	c #4A0127",
"W~	c #4B0026",
"X~	c #480124",
"Y~	c #420325",
"Z~	c #3C0322",
"`~	c #36031D",
" {	c #33061B",
".{	c #190611",
"+{	c #280A19",
"@{	c #330D20",
"#{	c #3C0C23",
"${	c #4B0429",
"%{	c #480428",
"&{	c #460427",
"*{	c #440327",
"={	c #420326",
"-{	c #3F0424",
";{	c #390321",
">{	c #32031D",
",{	c #2B031A",
"'{	c #270417",
"){	c #1C020E",
"!{	c #19030C",
"~{	c #0E010A",
"{{	c #0D010A",
"]{	c #280316",
"^{	c #2C041A",
"/{	c #30051C",
"({	c #33041D",
"_{	c #390420",
":{	c #410325",
"<{	c #470227",
"[{	c #480126",
"}{	c #470024",
"|{	c #430323",
"1{	c #280718",
"2{	c #1E0714",
"3{	c #0F050C",
"4{	c #1D0B15",
"5{	c #2B0F1E",
"6{	c #360E21",
"7{	c #3D0520",
"8{	c #420023",
"9{	c #390120",
"0{	c #250114",
"a{	c #19000B",
"b{	c #0D0008",
"c{	c #12000A",
"d{	c #1F0111",
"e{	c #34011C",
"f{	c #430020",
"g{	c #420020",
"h{	c #3E0421",
"i{	c #360B22",
"j{	c #2C0C1E",
"k{	c #0D050A",
"l{	c #070308",
"m{	c #240C19",
"n{	c #2F0B1D",
"o{	c #38041D",
"p{	c #450023",
"q{	c #3F0122",
"r{	c #300119",
"s{	c #30011B",
"t{	c #3D001F",
"u{	c #470027",
"v{	c #3F001E",
"w{	c #39041E",
"x{	c #310A1E",
"y{	c #260B1A",
"z{	c #16050F",
"A{	c #070206",
"B{	c #040105",
"C{	c #1C0713",
"D{	c #34071D",
"E{	c #3E0622",
"F{	c #420725",
"G{	c #450827",
"H{	c #470928",
"I{	c #490827",
"J{	c #420926",
"K{	c #3A0924",
"L{	c #340920",
"M{	c #2E091C",
"N{	c #2A0819",
"O{	c #260817",
"P{	c #1F0915",
"Q{	c #1A0913",
"R{	c #170911",
"S{	c #150A13",
"T{	c #160A13",
"U{	c #1D0B16",
"V{	c #240B19",
"W{	c #290B1C",
"X{	c #2E091E",
"Y{	c #330820",
"Z{	c #380821",
"`{	c #3D0824",
" ]	c #410828",
".]	c #440829",
"+]	c #470829",
"@]	c #480929",
"#]	c #4A0828",
"$]	c #430724",
"%]	c #400622",
"&]	c #3A061F",
"*]	c #33071C",
"=]	c #2A091A",
"-]	c #12030D",
";]	c #371024",
">]	c #42152D",
",]	c #43142D",
"']	c #42142D",
")]	c #40142D",
"!]	c #3D142D",
"~]	c #3C152D",
"{]	c #3B152D",
"]]	c #3A152B",
"^]	c #371428",
"/]	c #321424",
"(]	c #2B1421",
"_]	c #271520",
":]	c #23161F",
"<]	c #21151E",
"[]	c #20141D",
"}]	c #1F131D",
"|]	c #20151E",
"1]	c #251720",
"2]	c #2A1724",
"3]	c #2F1626",
"4]	c #321426",
"5]	c #3D142C",
"6]	c #3E132D",
"7]	c #3F132E",
"8]	c #42152E",
"9]	c #43152E",
"0]	c #381126",
"a]	c #331022",
"b]	c #2C0D1C",
"c]	c #200715",
"d]	c #37172B",
"e]	c #3A192E",
"f]	c #3C1A2F",
"g]	c #3E192F",
"h]	c #3F1830",
"i]	c #3E1830",
"j]	c #3C1931",
"k]	c #3B1931",
"l]	c #3D1930",
"m]	c #3B192D",
"n]	c #361829",
"o]	c #2B1A25",
"p]	c #271B24",
"q]	c #251A22",
"r]	c #241821",
"s]	c #241822",
"t]	c #251B23",
"u]	c #281B25",
"v]	c #2D1C28",
"w]	c #321B2A",
"x]	c #35182A",
"y]	c #3D182F",
"z]	c #3C1830",
"A]	c #3F1931",
"B]	c #401A30",
"C]	c #3F1930",
"D]	c #341528",
"E]	c #2F1424",
"F]	c #190612",
"  . + @ # $ % & * = - ; ; > , ' ) ! ~ { ] ^ / ( _ : < [ } | | | | | | | } 1 2 3 4 5 * 6 7 8 9 0 a b c d e f g h i j k l m n o p ",
"  . q r s t u v w x y z A B C D E F G H I J K L M N O P Q R R R R R S T U V W X Y Z `  ...+.@.#.$.%.&.*.=.-.;.>.,.'.).!.~.{.].o ",
"    . ^./.(._.:.<.[.}.|.1.1.2.3.4.5.6.7.8.9.0.a.b.c.d.e.f.g.h.g.g.i.j.j.k.l.m.n.o.p.q.r.s.t.u.v.w.x.y.2.z.A.B.C.D._.E.F.G.  {.n ",
"H.I.# J.K.L.M.N.O.P.Q.R.S.T.U.V.W.X.Y.Z.`. +.+++@+#+$+%+&+*+*+=+=+-+;+;+>+,+'+)+++!+~+{+]+^+/+(+_+R.U.:+<+[+}+|+1+2+3+4+5+6+;+7+",
"=+8+9+0+a+b+c+d+e+f+[+g+S.h+T.i+j+k+l+m+n+o+p+q+r+s+#+t+# u+u+@ I.v+w+x+=+,+'+y+z+A+B+C+D+E+F+G+H+I+I+I+V.J+K+f+L+M+N+O+P+Q+R+S+",
"T+U+V+W+X+Y+Z+`+ @.@+@@@#@$@%@&@*@=@-@;@>@,@'@)@!@~@{@]@^@/@/@(@_@_@(@:@<@[@}@|@1@2@3@4@5@6@7@8@9@0@a@b@c@d@e@W.[+f@g@h@i@j@k@l@",
"m@n@o@p@q@r@.@s@t@u@v@w@x@A y@z@A@B@C@D@E@F@G@H@I@J@L K@L@M@N@O@P@P@O@O@Q@R@S@T@H@G@U@V@W@X@Y@Z@`@`@d  #.#+#@###_+$#%#&#*#=#-#;#",
"v >#,#'#)#!#j+~#{#]#^#/#(#_#:#<#<#<#[#}#|#1#2#3#K 4#4#I@5#6#6#6#6#6#6#6#6#5#I@K 3#2#1#7#8#9#0#a#b#c#d#e#f#g#h#_+i#j#k#X.l#m#n#o#",
"p#q#r#s#t#t@~#u#v#w#x#y#z#A#B#B#C#D#E#F#G#H#I#J#K#L#L#M#N#O#P#O#O#O#O#P#O#N#M#K#J#I#H#G#Q#Q#R#S#!@T#U#V#W#X#Y#Z#`#R.G+ $.$+$@$F ",
"#$$$%$&$t@*$=$-$;$>$,$'$)$o {.].!$~${$]$^$/$($!+_$:$:$:$:$:$<$_$_$_$_$<$:$:$:$_$[$}$|$@+1$2$3$4$5$6$n 7$8$9$0$a$b$c$d$e$k#f$g$h$",
"i$j$k$l$m$n$o$p$q$r$s$t$u$v$w$].6$p x$y$z$A$B$C$D$:$:$:$:$<$E$[$[$[$[$E$<$:$:$_$[$F$/$^$G$H$~$I$6$n v$J$K$L$M$N$O$P$Q$j+s@R$q$S$",
"T$U$V$g+<+W$X$Y$Z$`$ %.%+%].!$p 5$4$3$@%#%$%%%&%D$*%=%-%B+;%[$>%>%>%>%[$;%B+-%-%,%'%)%!%~%2${%5$p o n !$]%^%/%(%_%:%<%H+<+[%A }%",
"|%1%V$g+V.2%3%4%5%6%7%8%o !$p 5$x$3$9%)+0%}$a%!+_$=%b%c%d%e%>%>%>%>%>%>%e%d%c%f%g%E$h%i%j%2$3$4$5$o n n !$k%}@l%m%n%o%p%:+q%r%s%",
"t%u%V$g+i#2%v%w%x%y%  {.].!$p z%A%B%C%D%E%0%0%z+F%!+G%H%}$z+z+z+z+z+z+z+z+}$H%G%!+%%I%J%K%L%M%N%O%o {.    P%Q%R%S%T%U%V%U.W%X%Y%",
"Z%w@`%g+i#2% &w%.&+&@&  {.].!$#&$&<@B%$+%&]%9%&&%&*&=&s+@%-&;&>&>&>&>&;&-&@%s+=&,&'&)&!&~&{&]&^&/&o {.    P%(&R%_&:&<&[&[&}&|&1&",
"2&U$o$H+<+3&n%4&.&!${.5&7+6&7&8&9&(@0&a&b&!${.    {.+&!$p 5$4$a&a&a&a&c&p o o ].{.. q + + d&e&f&g&h&i&7+5&n p j&k&l&m&_+_+n&o&p&",
"q&r&s&t&G+u&v&w&x&p ].y&z&A&A&B&C&D&E&a&5$o {.P%P%    n o p 5$5$5$5$5$p ].{.{.    P%. . . 8%F&g&G&H&I&z&y&J&c&K&L&M&N&G+G+k$O&P&",
"Q&R&S&T&t#U&V&W&X&~$5$Y&Z&`& *z&7+].5$b&p o n {.{.{.  {.o .*5$b&5$5$5$p +&H.. .     {.{.  {.+&p b&g&+*@*#*~$3$$*L&%*&*F+s#**B@e ",
"=*-*;*'#Y.>*,*'*)*{$x$!*~*{*N%y&(&{.n ].n n o !$!$+&{.(&y%]*x$a&a&a&a&4$^*/*@ q . {.].].{.  {.n ].7&A& *(*_*2$:*L&<*[*}*|*1*2*3*",
"* 4*5*6*m+7*8*9*0*]$y$a*^$z$3$!${.      H.b*c*2$d*d*e*f*e*d*#+@%>&>&>&D%g*h*i*j*s k*]*o {.        6&l*m*n*G$1$^%o*p*q*r*s*t*u*v*",
"& w*x*y*z*A*B*C*D*^$z$E*F*z$3$o {.    H.-+G*j%H*I*J*J*K*H*L*i%M*)%z+z+N*O*P*P*Q*R*/.k%y%H.        h&S*T*T*^$@+U*V*W*X*Y*Z*`* . =",
".=Z +=@={+#=$=%=&=*=====$%^$3$+&{.    -=~%;=>=,='=)='=!=~={=]={=^=/=}$(=_=:=<=[=D#}=|=1=&+(&{.{.n 3$2=*=*=3=4=5=6=L&4@7=8=+=9=0=",
"a=b=E#c=d=e=f=g=h=D$i=<$j=E%k={.  P%  l=m=n=o=p=q='=r=s=t=E%E%u=v=!%E%4=w=x=~=y=[=z=A=t 1=y%o o o B===C=C=&%'%D=V*E=2@F=G=H=I=J=",
"K=L=M=I%I%D*N=O=P=Q=R=S=T=)%U=  P%P%  1$V=W=W=X=Y=Z=s=h%E%@+@+y+1$1$y+@+@+!%]=O*<=`= -T#.->++-o p @-#-:$:$<$$-%-&-V*D=z+r+{@*-=-",
"--;-K&r+r+.&>-,-P=Q='-S=T=0%H$  P%P%  d*)-!-~-Y={-O*]-^-/-1$1$1$d*d*1$1$1$(-_-O*<=:-`=<-[->++&n !$@-}-:$:$:$<$|-&-6=5=r+s+1-2-=-",
"3-4-5-z$6-7-8-9-P=Q=0-a-,%0%{$H.  P%  '+b-c-c-Z=b-d-e-f-g-t+t+t+t+t+h-i-j-k-l-m-<=)='=O*n-y%(&n !$@-#-:$:$:$:$o-p-q-$*r-'&s-N : ",
"t-u-v-w-w-x-y-z-A-=%B-f%C-t=C%-+H.P%  {$x=D-D-E-F-G-H-I-7%b*b*b*b*-+J-K-(@<@L-M-{-'=N-N*#+.*o o p @-#-:$:$:$:$O-P-Q-R-S-%+T-U-V-",
"W-X-Y-x$a&Z-`- ;h==%.;@=C-^=G$=+H.  {.9%)%>%+;N*l-@;#;/@$;        . q %;&;*;=;-;;;Z=D-)%>;p p !$p @-#-:$:$:$:$h= ;`-Z-4$,;';P );",
"W-X-!;~;~;{;`- ;h==%.;@=C-^=G$=+H.{.].]%)%+;];]=^;/;(;_;:;          . <;[;};|;1;2;3;(=)%>;p p !$p @-#-:$:$:$:$h= ;`-{;>+x+h.P );",
"4;5;6;*+7;.-8;9;h==%0;c%C-^=1$^*a;+&p >;)%];b;l-g*c;d;S+e;          {.f;A&g;h;i;j;d-(=)%>;5$5$5$5$@-#-:$:$:$:$k;l;m;n;=+@ o;p;q;",
"r;s;t;u;7;v;~@w;x;*%=%g%y;z;A;{%^*^*4$@%M*b;B;C;n-c;d;S+e;        {.+&7&A&D;E;F;-;G;(=)%>;5$c&c&5$@-#-:$:$:$:$k;H;I;n;=+J;K;L;M;",
"V N;O;u+*+P;Q;R;x;:$:$_$!+$%S;3$~;~;%+C%T;U;V;C;W;j-X;E;Y;        {.+&7&A&@*Z;`; >b;];.>'&~$x$x$b&@-#-:$+>+>:$k;H;I;n;@>H.#>$>%>",
"V N;O;u+*+P;Q;R;x;:$:$D$&>*>@-3$~;=>~;'+->V;;>M-C;>>,>j*=+          {.f;A& *k%'>)>B;b;_-!>]*a&x$b&@-#-+>~>~>+>k;l;m;n;@>H.{>]>^>",
"V />t;u;7;P;Q;R;x;:$:$D$.+(>_>x$^*=+=+:><>V;[>[>V;}>|>1>=+            e;S+d;c;2>3>V;b;_-d*~;4$c&5$@-#-4>5>5>4>h= ;`-.-y%H.6>7>W-",
"V />8>*+7;P;Q;R;x;:$:$D$.+(>_>x$!$(&(&9>J%[>b;b;[>U;}>1>>+            e;S+d;c;2>3>0>]-^-G$&+a>5$5$@-#-<$p+p+<$h= ;`-.-y%H.6>7>W-",
"r;b>6;&+~;c>~@w;x;:$:$D$&>d>a*b&].    e>M-O*~=G;b;F-f>g>8+<;<;<;Y;Y;<;C&h>i>1=n-C;F-];^=G$>++-o p @-#-B+d%d%B+k;l;j>k>l>+&m>X-n>",
"4;5;o>~;%+p>8;q>h=:$:$_$!+4=r>p n P%  h-m-Z=c=];G;s>t>f.k.u>u>m>v>v>m>f.w>x>P;g*l-G;(=^=G$>+(&n !$@-#--%f%c%-%k;y>I;z>4$p h>A>B>",
"n>C>9&9>k=D>`- ;h=:$:$_$[$)%>;o {.P%  f*J*c-D-+;]-E>F>G>f.f.f.i>d; *H>T-#;I>L-J>{=];+;^=G$=+H.{.o @-#-=%.;.;=%K>L>M>N>O>b&(;P );",
"[ P>Q>'+2$R>S> ;h=:$:$_$[$0%>;o {.P%  f*J*c-d=+;]-E>T>H>X;j-j-c;U>V>W>c;P;L-L*{=];+;>%^=G$=+H.{.o @-#-=%X>.;=%P=Y>Z>x-`>O>)$ ,);",
".,+,@,1$)+#,$,%,&,_$_$*,[$z+@%p 5&. . =,-,;,>,,,(=',),!,~,j%j%{,]$*&*&]${,],b;E-^,/,(,_,:,y%J;<,o a*[,g%b%0;=%},|,%,7-a*1,2,3,.,",
"4,5,6,r+)%7,8,%=9,[$[$[$e%z+;&O%0,q + a,b,c,d,&>p+[$e,f,I%_-_-_-g,g,g,g,_-b;{-N-d%h,i,j,7$i&Q%Q%i&r>q+,%-%-%*%k,l,%=m,|$E*n,o,4,",
"p,q,r,F%F=s,t,u,v,}$F$}$}$4=a*G&w,x,y,z,A,B,C,D,E,<$*,>%]-b;b;F,G,G,G,G,G,H,I,J,K,L,M,N,O,8%+ @ i&]%P,>%C=D$D$Q,R,S,T,>%z+U,V,W,",
"X,Y,Z,*%`, '.'+'@'|$/$|$|$#%#'G&w,y,y,$'z,%'&'*'=':$<$E$];b;b;G,6,-'-'-'-';'>',',''')'O,^*J;+ @ i&9%!'h%~'.+.+{'C*t,]'^'^,/'('_'",
":'<'['}'|'A*1't,2'6-z$^$^$3'y$%+:;u++ q + 4'5'6'7'#-#-%%I%l-l-8'9'5'5'5'5'0'0'0'0'/.a';+<,b'+ + 8%c'd'I%4=(>*>m,e'.'f'g'0;h'i'j'",
"k'l'm'n'o'p'q'r'.&1,s'r>]$#+$+3$&+/*I.. . -+t'B%-&1,1,'&)&u'v'K%1=w'w'x'(*a'a'a'a'y':;+ + + y,+ J;=>W;d's+a*s+z'A'B'C'D'E'F'G'H'",
"I'J'[*K'K'L'M'N'O'a&O>P'c;Q'R'S')&&+(&                . q @ *+=>=>=>=>>+a;n n {.  . + y,y,y,y,T'U'V'W'X'U=%+_*M=L&Y'Z'`' ).)+)@)",
"#)$)%)&)&)*)=)N'-)5$p g&;)>),)')))e>a;      P%P%P%P%P%P%. I.=+=>=>=>=>>++-6$6$].{.. + y,y,y,y,!)~){)])^)a>a>,+U+/)()_)L+l#:)<)[)",
"})|)1)2)3)4)5)6)7)!$6$8)9)0)a),)b)c)F&(&H.(&H.H.. . . . {.+&=+=>=>=>>+^).*p !$o (&J;d)+ u+e)f)g)h)~)i){.].o >+j)k)l)m&m)[+n)o)p)",
"q)r)s)t)i#<&u)v)w)].].,;f;~.`&x),)y)z)+-@>=+=+/*@ + + Q%+%+->+=>=>&+l>.*p p p .*y%-+I.J;/*K-A)B)g)!)0,  {.H.>+B#C)D)E):+:+F)G)H)",
"d I)J)K)L)M)N)O)j&v$v$].n 6$c&P)Q)R)R+4$H$!>d*S)i-k%B%T)>;%&-&#+#+'&y$y$%&B=a*;&]$!>J${%H$F;U)9+{&Q%5&{.  P%V)W)X)Y)q%Z)T.`) !.!",
"d +!J)@![&#!$!1#%!  v$n 6$!$5$&!*!m*V>S-;&F*.>t=t=/==!F%*>(>(>d>d>(>(>d>4=q+[,[,-!|$@+3';!>!F;7%&+o o ].{.P%@ ,!'!Y)1.T.h+)!!!~!",
"q)r)n&t)t){!]!^!/!(!k>(*z%p p 5$4$a&_!#'E*$%'%[$[$;%:$:$:!.+<!<!.+.+.+&>!+$-<$<$$-'%4=#%@+s+{$]*a>p !$,;#*1=[!/!}!|!1!S.S.1.2!3!",
"})4!5!m)m)6!7!8!}!9!0!a!b!p p p 5$c&a&_>c![,C=_$<$*%d!e!:$5>f!f!5>D$D$D$_$<$:$:$<$!+$%F*s+#+g!x$5$!$].#*h!,'i!j!k!]#l!i+g+w#m!n!",
"#)j$o!s@j+d$p!]#q!r!s!t!u!n n ].o a>%+B=c!v!w!D$:$x!e!e!x!+>~>~>+>:$:$:$:$:$:$:$<$!+$%@+D%'&3$b&y!H.P%k%~@z!q'S&A!B!C!~#j+D!E!F!",
"I'G!H! $t@t&I!J!K!L!M!N!O!n {.+&y%9>_*A;#%3=P!:!4>x!x!x!x!:$+>+>:$:$:$:$:$:$:$<$$-'%4=#%@+A;Q!h&Y;R!. .-S!T!U!V!I!C!W!G+!#H!G!X!",
"Y!Z!`! ~k+t@~#g+.~Y#+~@~#~$~%~&~*~=~$~-~(=a%;~>~*,,~'~)~!~&%&%w!p+C=C=C=;%;%_$_$$-e%;~~~~~~~e,{~]~s=-!^~/~(~_~H+g+H+t&:~)#<~[~e#",
"}~|~1~2~ ~!#~#g+<+3~4~5~6~7~8~9~W&W&0~a~b~c~1@d~e~f~g~h~i~r+r+j~4=*=*=q+}$+;e%$-;%k~Z,l~>-O=m~n~7*o~p~q~r~s~t~g+R.m)&$s#'#u~<*v~",
"m@w~x~y~z~A~3~B~j+t@&$C~*@D~E~F~G~(~H~I~J~b~p.d~K~L~M~N~~,'+'+C%D%;!;!y+O~I%t=a%E$P~x~h'Q~R~S~%$A!T~U~U~T~p!V~W~$#X~Y~Z~`~ {-#/%",
".{|=R*+{@{#{A~ $:~&$m$C!o%${%{&{*{={-{;{>{,{'{K~^=){!{S*#&~{{{~{t+_*_*2$-&]$)+E%a%]{^{/{({_{:{<{I!C!l$m$d$[{}{L+ @|{1*W&1{M~2{}@",
"  0,3{4{5{6{7{ ~8{:~l$g+g+.~<+##e$k+l+9{Z*~+0{%%/$a{w-x$b{=>=>=>=>=>=>~;{%k=c{/-d{C-@=g'e{|*s#t&~#g+g+g+W~s@ @f{g{h{i{j{@,k{l{+ ",
"@&  0,R'm{n{o{ ) ~p{s@<+V.i#V.$#W.X.q{Z.r{B+&>==/$6-1,3$~;=>=>=>=>=>=>=>~;e>'+/-^=C-@=s{E't{F+u{l$<+V.V.W~s@ @&)v{w{x{y{z{A{B{B{",
"    . Z;C{1@D{,#E{F{G{H{n)3.3.I{B.J{(~K{L{M{N{O{-'P{Q{R{A)A)A)A)A)A)A)l.S{T{w>U{V{W{X{Y{Z{`{ ].]+]@]#]n)H{G{$]%]&]*]=]R*t'  {.n ",
"  . q J--]6,n@;]l'>.I'F >],],]'])]!]~]{]]]^]/]J@(]_]:]<][]}]}]}]}]}]}][]|]W ^>1]2]3]4] .c#5]6]7]8]9]E >]F I'#$0]a]b]c]1=y%{.].o ",
"  . + @ # T+m@p,X,d]e]f]g g]h]i]j]k]k]j]l]m]n]( _ o]p]q]r]););););););s]q]t]t]u]v]w]x]6 7 y]z]z]A]B]C]g f]e]d]D]E]Q@F]=+H.n o p "};
