/* XPM */
static char * wall_xpm[] = {
"64 64 395 2",
"  	c #434242",
". 	c #4C4B4A",
"+ 	c #585856",
"@ 	c #565654",
"# 	c #454543",
"$ 	c #3C3C3B",
"% 	c #444443",
"& 	c #505050",
"* 	c #5B5B5B",
"= 	c #5A5A5A",
"- 	c #4C4C4C",
"; 	c #424141",
"> 	c #41413F",
", 	c #42423F",
"' 	c #444442",
") 	c #494947",
"! 	c #4D4D4C",
"~ 	c #4C4C4A",
"{ 	c #575755",
"] 	c #5F5F5D",
"^ 	c #636361",
"/ 	c #5A5A58",
"( 	c #51514F",
"_ 	c #4B4B4B",
": 	c #4F4F4F",
"< 	c #4F4E4E",
"[ 	c #474747",
"} 	c #40403F",
"| 	c #3B3B39",
"1 	c #333331",
"2 	c #2A2A29",
"3 	c #373838",
"4 	c #4E504E",
"5 	c #545553",
"6 	c #4B4B49",
"7 	c #535351",
"8 	c #50504E",
"9 	c #424240",
"0 	c #4E4E4D",
"a 	c #454544",
"b 	c #424241",
"c 	c #464645",
"d 	c #454545",
"e 	c #414141",
"f 	c #434343",
"g 	c #484848",
"h 	c #383837",
"i 	c #2C2C2B",
"j 	c #2B2B2A",
"k 	c #3D3C3C",
"l 	c #3E3D3D",
"m 	c #454443",
"n 	c #4F4E4D",
"o 	c #4D4D4B",
"p 	c #3E3E3C",
"q 	c #373736",
"r 	c #3E3E3E",
"s 	c #515151",
"t 	c #454444",
"u 	c #3D3D3C",
"v 	c #3D3D3B",
"w 	c #414140",
"x 	c #434341",
"y 	c #464644",
"z 	c #555553",
"A 	c #515150",
"B 	c #4E4E4C",
"C 	c #494948",
"D 	c #464646",
"E 	c #474646",
"F 	c #3A3A39",
"G 	c #323230",
"H 	c #282928",
"I 	c #323332",
"J 	c #464746",
"K 	c #4B4C4A",
"L 	c #434342",
"M 	c #4A4A48",
"N 	c #484846",
"O 	c #474746",
"P 	c #404040",
"Q 	c #444444",
"R 	c #353535",
"S 	c #2A2A2A",
"T 	c #2E2E2E",
"U 	c #302F2F",
"V 	c #323231",
"W 	c #353534",
"X 	c #363635",
"Y 	c #2F2F2E",
"Z 	c #2D2D2D",
"` 	c #323232",
" .	c #3A3A3A",
"..	c #383838",
"+.	c #323131",
"@.	c #343333",
"#.	c #343433",
"$.	c #2E2E2D",
"%.	c #373735",
"&.	c #3E3E3D",
"*.	c #3F3F3D",
"=.	c #3B3B3A",
"-.	c #484847",
";.	c #403F3F",
">.	c #393938",
",.	c #30302F",
"'.	c #252625",
").	c #272727",
"!.	c #353635",
"~.	c #363636",
"{.	c #333332",
"].	c #3D3D3D",
"^.	c #303030",
"/.	c #282827",
"(.	c #222222",
"_.	c #242424",
":.	c #232323",
"<.	c #252525",
"[.	c #292928",
"}.	c #2D2D2C",
"|.	c #262625",
"1.	c #292929",
"2.	c #232322",
"3.	c #212221",
"4.	c #282828",
"5.	c #2B2B2B",
"6.	c #3F3F3E",
"7.	c #3F3E3D",
"8.	c #3C3B3B",
"9.	c #373636",
"0.	c #242524",
"a.	c #1F1F1F",
"b.	c #232324",
"c.	c #313130",
"d.	c #353533",
"e.	c #343434",
"f.	c #1E1E1E",
"g.	c #202120",
"h.	c #242423",
"i.	c #202020",
"j.	c #212120",
"k.	c #272726",
"l.	c #31312F",
"m.	c #2C2C2C",
"n.	c #262626",
"o.	c #212121",
"p.	c #222221",
"q.	c #333333",
"r.	c #343432",
"s.	c #272827",
"t.	c #2A2B2A",
"u.	c #20211F",
"v.	c #3B3B3B",
"w.	c #373837",
"x.	c #313131",
"y.	c #2F2F2F",
"z.	c #393939",
"A.	c #424341",
"B.	c #222322",
"C.	c #262725",
"D.	c #1F1F1E",
"E.	c #333433",
"F.	c #373737",
"G.	c #2F2F2D",
"H.	c #20201F",
"I.	c #171817",
"J.	c #1D1E1D",
"K.	c #414040",
"L.	c #393937",
"M.	c #50504F",
"N.	c #545454",
"O.	c #4A4A49",
"P.	c #535353",
"Q.	c #50514F",
"R.	c #515351",
"S.	c #313231",
"T.	c #363736",
"U.	c #232423",
"V.	c #252524",
"W.	c #282927",
"X.	c #2E2F2D",
"Y.	c #1C1D1C",
"Z.	c #1D1E1E",
"`.	c #30312F",
" +	c #2D2D2B",
".+	c #1D1D1C",
"++	c #171717",
"@+	c #393838",
"#+	c #555555",
"$+	c #525252",
"%+	c #4D4D4D",
"&+	c #4A4B4A",
"*+	c #4D4E4D",
"=+	c #1F201F",
"-+	c #2E2E2C",
";+	c #323331",
">+	c #2D2E2C",
",+	c #1B1B1A",
"'+	c #383938",
")+	c #1B1C1B",
"!+	c #1A1A1A",
"~+	c #1A1B1A",
"{+	c #1D1D1D",
"]+	c #333432",
"^+	c #383836",
"/+	c #363634",
"(+	c #1E1F1E",
"_+	c #373635",
":+	c #3C3C3A",
"<+	c #1B1D1B",
"[+	c #292A29",
"}+	c #3C3C3C",
"|+	c #363535",
"1+	c #444342",
"2+	c #333232",
"3+	c #3F3E3E",
"4+	c #3C3B3A",
"5+	c #3A3938",
"6+	c #292927",
"7+	c #484746",
"8+	c #3C3C39",
"9+	c #3A3A37",
"0+	c #383835",
"a+	c #373734",
"b+	c #30302E",
"c+	c #424242",
"d+	c #3B3A39",
"e+	c #474745",
"f+	c #434340",
"g+	c #3F3F3C",
"h+	c #3A3A38",
"i+	c #41413E",
"j+	c #40403E",
"k+	c #444343",
"l+	c #3D3C3B",
"m+	c #2C2C2A",
"n+	c #262624",
"o+	c #41403F",
"p+	c #51514E",
"q+	c #4C4C4B",
"r+	c #4B4B4A",
"s+	c #383738",
"t+	c #3E3D3B",
"u+	c #4F4F4D",
"v+	c #494949",
"w+	c #464544",
"x+	c #2A2B29",
"y+	c #2C2D2B",
"z+	c #2D2E2D",
"A+	c #2F2E2E",
"B+	c #3E3D3C",
"C+	c #292A28",
"D+	c #2B2C2A",
"E+	c #1E1E1D",
"F+	c #222220",
"G+	c #313230",
"H+	c #282727",
"I+	c #302F2E",
"J+	c #3E3F3D",
"K+	c #353634",
"L+	c #232321",
"M+	c #1C1C1C",
"N+	c #292828",
"O+	c #252424",
"P+	c #212020",
"Q+	c #1C1C1B",
"R+	c #181817",
"S+	c #191919",
"T+	c #262525",
"U+	c #2A2929",
"V+	c #161616",
"W+	c #121312",
"X+	c #141414",
"Y+	c #454644",
"Z+	c #3F403E",
"`+	c #1B1B1B",
" @	c #3B3A3A",
".@	c #2B2C2B",
"+@	c #2A2A28",
"@@	c #3A3939",
"#@	c #0F1010",
"$@	c #141515",
"%@	c #393837",
"&@	c #272725",
"*@	c #383737",
"=@	c #272826",
"-@	c #3D3D3A",
";@	c #403F3E",
">@	c #40403D",
",@	c #464545",
"'@	c #4B4A4A",
")@	c #2E2F2E",
"!@	c #303130",
"~@	c #3A3A36",
"{@	c #4A4A4A",
"]@	c #3F3F3F",
"^@	c #393936",
"/@	c #3E3E3B",
"(@	c #353532",
"_@	c #2C2D2C",
":@	c #343332",
"<@	c #272626",
"[@	c #2B2A2A",
"}@	c #313030",
"|@	c #454542",
"1@	c #444441",
"2@	c #363633",
"3@	c #4A4948",
"4@	c #2D2C2C",
"5@	c #4E4E4E",
"6@	c #343534",
"7@	c #3B3B38",
"8@	c #191918",
"9@	c #151514",
"0@	c #5F5F60",
"a@	c #666666",
"b@	c #5C5C5B",
"c@	c #545452",
"d@	c #525250",
"e@	c #5B5B5A",
"f@	c #6B6B6A",
"g@	c #5C5C5C",
"h@	c #5D5D5D",
"i@	c #626262",
"j@	c #686868",
"k@	c #5F5F5E",
"l@	c #4F4F4E",
"m@	c #6A6A6A",
"n@	c #666665",
"o@	c #595959",
"p@	c #373836",
"q@	c #3D3D39",
"r@	c #353434",
"s@	c #191A19",
"t@	c #161716",
"u@	c #161615",
"v@	c #262726",
"w@	c #363735",
"x@	c #636363",
"y@	c #484747",
"z@	c #5F5F5F",
"A@	c #646464",
"B@	c #434241",
"C@	c #343533",
"D@	c #232422",
"E@	c #181818",
"F@	c #2E2F2C",
"G@	c #2F302F",
"H@	c #2F302E",
"I@	c #3A3B39",
"J@	c #2B2B29",
"K@	c #3B3B37",
"L@	c #383834",
"M@	c #31312E",
"N@	c #212222",
"O@	c #343535",
"P@	c #32322F",
"Q@	c #31322F",
"R@	c #494848",
"S@	c #454546",
"T@	c #555554",
"U@	c #575756",
"V@	c #5E5E5F",
"W@	c #5B5B5C",
"X@	c #1A1A19",
"Y@	c #1E1D1D",
"Z@	c #4B4B4C",
"`@	c #484849",
" #	c #3F403F",
".#	c #3B3C3A",
"+#	c #484947",
"@#	c #484948",
"##	c #5A5A59",
"$#	c #565655",
"%#	c #69696A",
"&#	c #656566",
"*#	c #4A4B49",
"=#	c #363534",
"-#	c #575757",
";#	c #4A4949",
">#	c #606060",
",#	c #686869",
"'#	c #5E5E5D",
")#	c #393A38",
"!#	c #393A39",
"~#	c #3A3937",
"{#	c #4C4D4B",
"]#	c #474848",
"^#	c #4B4A49",
"/#	c #474645",
"(#	c #252624",
"_#	c #282826",
":#	c #3D3E3D",
"<#	c #414241",
"[#	c #282926",
"      . + @ # $ % & * = -     ; > , ' ) ! ! ) ~ { ] ^ ^ ] / @ ( _ _ : < [ } | 1 2 3 4 5 ~ 6 7 8 9 } - 0 a b c d e f _ g h i j i ",
"k k l m n o p q r g s & t k k u v v p w d c x y 0 z + + z A B C a D - - E } F G H I J K % L M N v $ d O } u P w r e g Q R S j i ",
"T U V W h X Y Z ` q  ...` U +.@.#.V $.Y W q W %.| u u &.*.p =.h X =.# -.t ;.>.,.'.).I !.V V W W G V ~.q #.{.#.X h $ w ].^./.2 i ",
"(._././._.:.<.[.}.}.)._.|.1.T ,.T 2 2.3.|.H H [.2 [.).4.5.}.i i i V | 6.7.8.9.Y 0.a.3.:.b._._.|.[.2 [./.[.2 2 i c.d.q e.$.j }.Y ",
"f.g._.h.i.j.k.}.V l.4._./.$.e.#.m.n.:.o.g.g.g.p._.n./.4.)./.2 j i }.$.,.V q.#.,./.(.:.:.:.:.:.|.2 [.h.p.0.n.n.).[.j i T V r.d.d.",
"s.).k.).4.t.$.l.1 ,.S ).[.$.q.` 4.:.<.0.3.u.g.3.(._.k.2 m.Z $.Y Y i _.p.|.}.W q #.#.X W ^.}.i V v.u w.{.x.y.5.j $.q.z.].6.w A.x ",
"R ` Z $.e.q X 1 }.S 2 [.).4.S 4.B.p.).[.k.C.s.|.3.D.g.[.E.F.#.{.#.G.H.I.J.j >.K.' N ~ M } L.%.> M.N.8 O.% ].W #.=.c A P.: 0 Q.R.",
"R S.5.i E.T.d.,.2 ).[.[.|.U.B.:.V.W.}.X.}.i i 4.j.Y.Z.).` R S.`.V  +.+++(.$.@+w N ~ B O.} L.%.> & #+A ~ d r q X $ c & $+%+&+*+4 ",
"s.0.=+i.'.1.2 S 2 [.).n.V.(.i.0.-+1 d.#.;+,.>+[.j.f.g._.).s.'.|.[.<.,+a.T e.#.>.b ' *.h x.}.i {.u } u F q e.V c.,.I F...~.~.w.'+",
"Y.)+!+~+{+3.k.2 j S /.<._.(.i.).]+h ^+%./+#.c.i U.=+(.(.i.(+=+p.0.:.D.k.R z.R _+:+F G j 1.[.[.5.Y ,.Y $.}.$.,.Y /.<.4.S S S 5.5.",
"<+J.a.g.o.n.}.Y }.i S [.|.:.B.S R >.q /+%.%./+c./.:.:.:.(.U.k.[.[+[./.Z F.}+].=.X c.}.}.Y ,.,.c.V V V ,.}.G.{.G 1.5.|+@+W r.W R ",
"3.3.(.:.<.1.$.Y }.$.V r.V $.1.5.` R W W %./+1 l.Y $.m.5.5.^.h F q #.` X u b 1+;._+c.;+{.{.r.d.d.{.r.d.{.G.c.>.>.2+W 3+w 4+5+$ ].",
"H |.3.(.).2 1.2 j V :+> > :+c.S 5.$.V W %.1 6+j ^+:+..~.~.&.M ~ y } $ r a -.7+x 8+9+v =.W r.0+0+r.r.0+a+b+#.6.c+3+6.L 9 :+d+3+K.",
"i [._.'.i $.i j }.#.p x ' *.G /.k.S c.W X c.V.[.L.*.$ F z.} O.~ y } u 6.# e+y f+g+g+f+> F h+i+f+*.p j+g+^+h ].e f k+9 p q q l+;.",
"i j [+i V d.r.{.V #.^+| :+^+m+n+/.}.V #.W G j i W >.>.h q h F F q /+~.h =.v g+g+g+> ' ' o+% o p+B q+r+-.L $ W s+c+f $ r.$.T W h ",
"i }.$.,.{./+X /+#.V c.V d.1 m+/.j }.$.,.{.{.,.c.#.q ^+q X {.$.i >+,.{.{.{./+| t+v p > x 1+-.u+A u+q+v+-.e+x :+u Q Q 8.V 1.k.i Y ",
"i $.c.c.,.c.#.#.V Y j 5.,.c.,.Y }.[.V.k.,.{.{.#.F.>.h ^+%.]+ +j Y V {.V ,.#.l+&.h %.h+*.x w+c a b *.F $ x N ~ ~ M c K.@+m._.U.h.",
"x+y+,.`.Y c.W q W c.1.k.j $.Y $.j k.p.h.i y.Y ,.q.W W d.1 G.W.s.z+c.V Y 2 A+@+>.,.m+G.#.| :+h W {.Y j $.L.9 ) C x B+8.h {.Y }.i ",
"C+2 D+>+`.W z.$ v.~.5.<.n.).k.k.n.k.k./.4.).h.2.'.[+>+}.W.2.E+D.|.j }.2 2.V.A+A+V.E+E+F+k.k.:.(.h.h.p.2.k. +G+c.j k.H+I+F *.J+p ",
"K+;+y+x+$.V R F...e.m.V.o.i.L+k.i A+Y ,.^.T 4.h.p.0.[.[.B.J.M+{+a.(.<.k.n.4.i i N+O+P+Q+R+S+P+T+[.j m.i U+V..+V+W+X+,+2 >.> 9 9 ",
"Y+Z+G W.4.4.k.4.5.m.j |.M+`+V.Y h  @q L.&.r ..x..@[.j 1.V.:.|.h.{+S+`+<.x.R q.#.h h {.+@,+i.+.@@ @k 6.6.$ 2+a.#@$@Y.h.j G X %@h+",
"# J+,.|.|._.j.i._./.j /.D.i.5.R ].3+$ u c+c+].F.V G.$.}.j m.y.$.).j.f.1.z.r =.=.7.7.d+G &@j 8.    L d Q P *@N+3.=@}.c.{.{.#.X q ",
"{.Y |.2.).[././.[.S i 2 /.5.#.z.}+].u ].r &.=.q #.{.#.d.r.W ..>.~.^.j c.&.L 9 j+g+-@h+/+1 X ;@L 9 w e r F.{.q.R F v l l l k }+v.",
"n._.g.j.'.2 $.b+b+G.}.}.y.{.F.F =.$ ].].v. .F q {.q w L u =.6.} ]...^.{.&.x > j+> >@:+L.^+| *.j+v F h q.i $.h 6.L w+c ,@t L e w ",
"1./._.3.3.s.l.W W 1 G.y.W F.q ^+h+:+].u F F v.h y. .: $+c 6.L % } z.x.` $ &.=.&.c [ w v.>.L.| L.d.,.j <.j.[.h w a ) r+'@O # % % ",
"b+$.i i )@!@c.1 r.{.c.{.h ..W d.~@-@7.$ W {.q W Y v.& N.{@c C O 6.h #.h e % 9 x [ g D w h+/+%./+G c.{.`.+@m+%.p 9 # d % } p u u ",
"d.d.r.>.b ]@y.k.i c.r.X h q {.r.^@/@} v.}.|.S T V >.f v+{@! 8 O.$ #.L.9 q+( 8 r+' f {@[ >.G W %./+v N N -@(@d.q | h+#.Y _@j 2 +@",
"/+q h+} D e Z :.$.:@r.r.d.d.#./+9+v 7. @U H+<@j G X ..].f v+o ) v /+L.w ~ ( ( ~ 9 6.a c+#.}.G /+^+> q+o x h+X X L./+i k.[.1.N+H+",
"V X u } } >.j [@*@z.}@i $.V ~.z.=.d+>.>.F 9.Y j $.c.#.W e...]@b w $ d.X 6.% |@1@9 u X )@1.[.}.V h ].b L } u v.$ v | d.#.@+ @ @ @",
"Y 2+*@@@h r.$.Y ~.|+m.).2 Y W h ..~.q.W  @@@c.i }.,.{.V }.}.q.>.u =.;+Y E.X 2@9+j+p !@H 5.T ^.e.z.v.=.v.}+}+}+$ v :+h+:+w % w+,@",
"}.j 4.[@c.d.#.l.[@H+[.2 j }.y.c.^.,.Y ,.V +.$.$.,.#.F.h W c.Z $.V #.#.{.c.}.[.,.u ;.>.9. .8. @ .v. .>.L.>.>.h q q ^+9+/@x e+3@6 ",
"|.p.S+M+4.c.q q V y.c.#.~.W T 1.4.j ^.c.4@i y.c.V $ {@5@-.*.x.,.F j+9 c q+O 6@)@F 3+].c+- %+t &.=.h r.G G G c.V R h 7@p 9 # e+N ",
"8@++9@V+.+1.q } d Q r r Q e V _.p.j *@@+$.m.R ~.V d 0@a@b@B $ u B c@d@e@f@a@O.d.^+F v.v+g@h@q+u h V [.h.V.|./.T F.v.$ u j+j+u :+",
"8@M+(.o.{+_.q.]@O D r ].f ]@y.0.[.{.u k {.G F v.h v+i@j@k@( w w l@c@d@e@m@n@O.G l.G e.d o@o@O q V .@j.~+Y.a.o.1.e.....z.:+F #.,.",
"|.5.q.` ).<.Z #.h ~.^.y.` y.'.[.p@*.} p 9+^@v } e g P.#+M.C w ].} > } f v+Q V 2.L+h.|.x.]@]@I [.4.'.a..+i.o.=+B.1.Z ,.` X #.}.4.",
"i c...q m.). +G.}.2 n._._.o.(+2 | 9 > *.q@8+p w a D D d # b u z.q r@V $.[.2.M+8@,+,+s@J.V.|.3.i.(.B.3.h.[.4.g.(+:.).2 }.Y $.2 ).",
"i ,.W {.S 1.c.1 $.2 |._.:.o.(+=@/+v *.p | h+:+3+  f e P > p X R  @>.y.4./.V.D.Y.a.{+t@u@Y.H.o.(.:.<.).}.q.x.<.g.v@2 j j 1.j T ,.",
"k.2 $.Z [.j {.{.i |.:.<.S 1.B.H w@$ | ^+r.{.X F &.} P 6.:+/+}.}.|+R 5.).}.^.^._@n.o.D.j.V.<.:.).y.W F.@@$ z.x.Y {.X h h ~.v.a v+",
"M+H.|.[.2 Z 1 ,.|.E+(+s.q.q.[+T ].]@W j |.k.}.{.%@B+9 6.#.[.j.a._.T+<.S q.}+f r Z h.i V #.^.n.Z ]@[ g D   K.P P w % g {@v+s h@x@",
"a._.5.y.c.{.W {.4@k.h..@..z.c.#.]@]@q.U+4.S T {.%@&.x ;@{.k.H.{+H.:./.x.u d r+c e..@1 >.k z.!@X c q+v+[ O y@C -.a y O.q+%+N.z@A@",
"$.V @+8.=. .z.F  @q ,.c...=.^+L.u }+q W @+@@..F l w   } h ,.2 2 $.c.1 | y r+6 a v.W W h+} w l 6.w+# u &.N o q+N 6.=.u 6.e D - : ",
"X h 8.].}+}+}+}+8.@+#.#.F.F 7@7@F z.F =.&.r }+].K.; e &.%@1 $.,.%.h+| p % O c L u ..q F > B@;.;.B@6.W q % O.M ' h c.x.#.~.z.=.$ ",
"z...W #.X >.}+z.^.}.c.#.W q ^+^+%.h =.$ F z. .u 6.} r  .@.G.}.G h+p p :+q h &.&.z.q ..v.6.u q q u u X /+:+j+} v.^.2 i $.,.V e.X ",
"F.W y.$.,.e...e.v@3.[.}.$.Y l.l.b+V ~.q #.q.~.>.| =.F R Z [+i c.X L.^+1 4.1.q.~.q.{.X ..z.X T $.#.~.X d.C@W R x.).(.V.|.|.[.Y V ",
"^.y.}.i }.Y c.}.2.Q+M+D.(.h.D@2.h.v@t.Z $.Y ,.c.G {.W c.s.v@$.,.i /.|.2.E+i.4.m.i }.Y c.c.Y 1.n.s._@r.d.b+y+5./.i.,+S+E@E@a.2 $.",
"V ,.i j i }.$.j V.=+J.j.s.D+ +2 U.V.}.Y }.i $.$.j i Y y.$.y.{.c.[.'./.V.E+=+[.>+F@X.Y V q X Y m.G@#.%./+H@D+S [.&@F+Q+,+a.h./.2 ",
" .R m./.2 $.,.,.j [+i c.L.J+9 v H@X.I@=.l. +G G j n.4.^.v.&.h+d.c.#.| ^+/.|.]+L.0+a+2@:+d a =.F f a *.^@r.G 1 r.(@l.J@j ` ` 5.n.",
"z.e.S <.k._@{.W ` V W >.6.' e+x %.W *.*.#.`./+X ^.S n.Y ].e u L.q =.b &.$.j >.*.-@K@^@&.[ O p &.g O.9 7@%.X ^+^@a+(@G W ].}+q.Z ",
"Z 5.n.:.p.1.e.z.....z.=.u *.j+g+F >.=.| %.X >. .z.e.S 5.R =.}+}+}+].} $ ^.G@F &.-@7@L.| &.p h F w L > v L.^+9+L@M@Y W }+f f p h+",
"3.N@(.o.g.k.!@R O@e.6@~.>.>.0+%.q F &.6.p v u 6.P v.y.5.{.>.}+} % % ]@F e.R v.u 9+^@| =.F h X W ~.>.v p :+L.2@P@ +e.L C C c > p ",
"(+(+(+3.|./.s.).).).)._@W X Q@X.,.z.D O.y b 9 L a P q.,.h $ }+L ! o w F F v.].=.d.%.} c+6.=.h 1 j }.F.l ;@F  +k.Y w c@+ 5@a &.h+",
"}.i x+Y q d.C.U.X.c.m.z+W p@W {.{.$ R@{@b p j+b % } ~.W $ 6.&.a ( ( # u ].].}+>.e.&.5@& S@}+q V }.,.F e d P }@j W y T@U@q+f w } ",
"j+p | j+M # $.}.x N &...z.}+} P 3+K.t P c. +X :+v =.>.z.u 6.w e+u+u+-.c+r =...q z.{@V@0@- =.{.{.h+*.9 O q+v+r ..:+9 -.[ w w g - ",
"j+*.v 9 6 e+#.#.y M } ..h  .6.P 3+l k |+T+2.G.d.W X ..z. .}+} ' c y b ].F X V V F.g W@W@g ~.y.V :+j+j+b -.D ]@=.$ u u  .q $ -.%+",
"G.b+G X v u h ~.h+h x.T y.^.x.x.2+V U i /./.}.Y Y c.e.W {.W =.v.~.x.Z m.Y T j j y...c+c+..,.}.$.V {.c.` q F.#.{.X h L.X V W r c+",
"j.2./.i ,.{.e.V 5.|.:.h.k.k.<.<.|.V.p.p.V.[.$.Y i i ,.G@j .@c.y.n.H.D.p./.j 5.i $.}.S 2 j i i }.G.}.k.|.1.j i }.Y V #.1 i i x.e.",
"2.:.<.4.i i 1.'.(.=+(+D.g.3.:.(.f.`+S+X@.+k.` q.i 4.i j V.p.:.(.Y@f.h./.j Y #.X W c.2 k.2 i i G.1 c.[.|.1.m+i j 1.m.V G j n.n.v@",
"e.x.}.2 /.k.|.t.S.S..@k.|.|.n.<._._.4.Z e.F ].v.q.T $.}.y+Y W R c.$.$.V h 6.% a L 9 } u q c.$.Y d.%.W W X q h e.$.X D Z@`@Q  #u ",
"[ c+>.$.2.2.}..#+#@#].e.1 ,.i }.x.F.}+D & s {@f 3+@@W W | a M.s 6 w h =.) A z z d@c@##$#y@@@c.Y d.$ f O c e+[ c+h+O z@%#%#&#z@b@",
"g % | Y p.p.Y p *#&+ #q =#V }.T X }+c+{@P.P.- D ; k %@L.j+C P.#+l@e+v *.~ c@@ @ c@$#e@-#;#k q.l.W v a g -.-.-.d x 0 >#,#,#&#>#'#",
"h X V i V.V.i ]+)#!##.c.,.}.[.j {.>.].]@} c+D Q ].L.~#7@8+*.' c Q w -@/@L O -.C O.C y b 6. @W r.X L.F $ p v F 6.) {#O.]#[ D Q L ",
"H [+j j /.).[.j i i i i j /._.k.T #.~.R c.R P c+$ >.7@| | p 9 x } ].:+| F $ 6.w 9 v c.$.R F.#.#.q h %.q h+%@W u ^#C %.=@'./.i $.",
"g.h.[.5.j [.).H+2 j i S /._.g.:.j Y ,.^.c.W $ ]@]@&.$ $ 3+/#( M.d ].$ >.#.q 6.9 p /+J@6+x.#.c.V F.$ &.6.;.6.l ; g % ]+C.(#[.$.c.",
"Y.3.H i i 2 n.n.2 i i 2 n.(.(+3.H i i $.V X z.].K.K.].].K.. + { g ].v.F.^.#.j+x :+1 _#&@b+V $.^.F.:#9 1+L     t E <#{.W.[#D+c.#."};
